; G-Code generated by Simplify3D(R) Version 4.0.0
; manually edited for ABS
;
; Jan 1, 2018 at 7:50:51 PM
; Settings Summary
;   processName,Process1
;   applyToModels,calibration_surface_75x75mm@200um
;   profileName,Modified Prusa i3 MK2 MlePh 2016 09 09 - linAd (modified)
;   profileVersion,2017-11-26 19:00:30
;   baseProfile,Prusa i3
;   printMaterial,PLA
;   printQuality,200um
;   printExtruders,
;   extruderName,Primary Extruder
;   extruderToolheadNumber,0
;   extruderDiameter,0.4
;   extruderAutoWidth,1
;   extruderWidth,0.48
;   extrusionMultiplier,1
;   extruderUseRetract,1
;   extruderRetractionDistance,0.8
;   extruderExtraRestartDistance,0
;   extruderRetractionZLift,0.6
;   extruderRetractionSpeed,1500
;   extruderUseCoasting,0
;   extruderCoastingDistance,0
;   extruderUseWipe,1
;   extruderWipeDistance,1
;   primaryExtruder,0
;   layerHeight,0.2
;   topSolidLayers,5
;   bottomSolidLayers,3
;   perimeterOutlines,2
;   printPerimetersInsideOut,1
;   startPointOption,3
;   startPointOriginX,60
;   startPointOriginY,-999
;   sequentialIslands,0
;   spiralVaseMode,0
;   firstLayerHeightPercentage,100
;   firstLayerWidthPercentage,100
;   firstLayerUnderspeed,0.6
;   useRaft,0
;   raftExtruder,0
;   raftTopLayers,2
;   raftBaseLayers,2
;   raftOffset,3
;   raftSeparationDistance,0.14
;   raftTopInfill,100
;   aboveRaftSpeedMultiplier,0.3
;   useSkirt,1
;   skirtExtruder,0
;   skirtLayers,1
;   skirtOutlines,2
;   skirtOffset,2
;   usePrimePillar,0
;   primePillarExtruder,999
;   primePillarWidth,12
;   primePillarLocation,7
;   primePillarSpeedMultiplier,1
;   useOozeShield,0
;   oozeShieldExtruder,999
;   oozeShieldOffset,2
;   oozeShieldOutlines,1
;   oozeShieldSidewallShape,1
;   oozeShieldSidewallAngle,30
;   oozeShieldSpeedMultiplier,1
;   infillExtruder,0
;   internalInfillPattern,Fast Honeycomb
;   externalInfillPattern,Rectilinear
;   infillPercentage,18
;   outlineOverlapPercentage,17
;   infillExtrusionWidthPercentage,100
;   minInfillLength,1
;   infillLayerInterval,1
;   internalInfillAngles,0
;   overlapInternalInfillAngles,0
;   externalInfillAngles,45,-45
;   generateSupport,0
;   supportExtruder,0
;   supportInfillPercentage,30
;   supportExtraInflation,1.4
;   supportBaseLayers,0
;   denseSupportExtruder,0
;   denseSupportLayers,0
;   denseSupportInfillPercentage,70
;   supportLayerInterval,1
;   supportHorizontalPartOffset,0.2
;   supportUpperSeparationLayers,0
;   supportLowerSeparationLayers,1
;   supportType,1
;   supportGridSpacing,1.5
;   maxOverhangAngle,60
;   supportAngles,45
;   temperatureName,Primary Extruder,Heated Bed
;   temperatureNumber,0,1
;   temperatureSetpointCount,1,1
;   temperatureSetpointLayers,1,1
;   temperatureSetpointTemperatures,225,55
;   temperatureStabilizeAtStartup,1,0
;   temperatureHeatedBed,0,1
;   temperatureRelayBetweenLayers,0,0
;   temperatureRelayBetweenLoops,0,0
;   fanLayers,1,2
;   fanSpeeds,0,70
;   blipFanToFullPower,1
;   adjustSpeedForCooling,0
;   minSpeedLayerTime,15
;   minCoolingSpeedSlowdown,60
;   increaseFanForCooling,0
;   minFanLayerTime,45
;   maxCoolingFanSpeed,100
;   increaseFanForBridging,1
;   bridgingFanSpeed,100
;   use5D,1
;   relativeEdistances,1
;   allowEaxisZeroing,1
;   independentExtruderAxes,0
;   includeM10123,0
;   stickySupport,1
;   applyToolheadOffsets,0
;   gcodeXoffset,0
;   gcodeYoffset,0
;   gcodeZoffset,0
;   overrideMachineDefinition,1
;   machineTypeOverride,0
;   strokeXoverride,250
;   strokeYoverride,210
;   strokeZoverride,200
;   originOffsetXoverride,0
;   originOffsetYoverride,0
;   originOffsetZoverride,0
;   homeXdirOverride,-1
;   homeYdirOverride,-1
;   homeZdirOverride,-1
;   flipXoverride,1
;   flipYoverride,-1
;   flipZoverride,1
;   toolheadOffsets,0,0|0,0|0,0|0,0|0,0|0,0
;   overrideFirmwareConfiguration,0
;   firmwareTypeOverride,RepRap (Marlin/Repetier/Sprinter)
;   GPXconfigOverride,r2
;   baudRateOverride,115200
;   overridePrinterModels,1
;   printerModelsOverride
;   startingGcode,G21             ; set units to millimeters,G90             ; use absolute coordinates,M83             ; use relative distances for extrusion,M140 S[bed1_temperature]     ; Heat the bed,M104 S170       ; Heat Extruder,M190 S[bed1_temperature]     ; Heat the bed and wait,M109 S170      ; Heat extruder and wait,M300 S440 P1000,G4 S10,M300 S587 P1000,G28 W         ; Home all Without calibration,M104 S[extruder0_temperature]      ; Set extruder temperature to print temp,G80             ; 9-point calibration   ,M109 S[extruder0_temperature]      ; Heat extruder to print temp and wait,M900 K30	; Linear advance setting recommended for PLA,G92 E0.0         ; Zero extruder,G1 Y-3.0 F1000.0 ; go outside printer area,G1 X100.0 E9.0  F1000.0 ; intro line,G1 X220.0 E12.5  F1000.0 ; intro line
;   layerChangeGcode,
;   retractionGcode,
;   toolChangeGcode,
;   endingGcode,G0 E-8.0,G1 Z210,M104 S0 ; turn off temperature,M140 S0 ; turn off heatbed,M107 ; turn off fan,G1 X125 Y200; middle X axis,M84 ; disable motors,M300 S440 P500 ; play end sound,M300 S587 P500,M300 S440 P500,M300 S587 P500
;   exportFileFormat,gcode
;   celebration,0
;   celebrationSong,Funky Town
;   postProcessing,
;   defaultSpeed,3600
;   outlineUnderspeed,0.6
;   solidInfillUnderspeed,0.8
;   supportUnderspeed,0.6
;   rapidXYspeed,6000
;   rapidZspeed,600
;   minBridgingArea,100
;   bridgingExtraInflation,0
;   bridgingExtrusionMultiplier,0.98
;   bridgingSpeedMultiplier,0.4
;   useFixedBridgingAngle,0
;   fixedBridgingAngle,0
;   applyBridgingToPerimeters,0
;   filamentDiameters,1.75|1.75|1.75|1.75|1.75|1.75
;   filamentPricesPerKg,23.82|23.82|23.82|23.82|23.82|23.82
;   filamentDensities,1.03|1.03|1.03|1.03|1.03|1.03
;   useMinPrintHeight,0
;   minPrintHeight,120
;   useMaxPrintHeight,0
;   maxPrintHeight,130
;   useDiaphragm,0
;   diaphragmLayerInterval,25
;   robustSlicing,1
;   mergeAllIntoSolid,0
;   onlyRetractWhenCrossingOutline,0
;   retractBetweenLayers,1
;   useRetractionMinTravel,0
;   retractionMinTravel,3
;   retractWhileWiping,1
;   onlyWipeOutlines,1
;   avoidCrossingOutline,0
;   maxMovementDetourFactor,3
;   toolChangeRetractionDistance,12
;   toolChangeExtraRestartDistance,-0.5
;   toolChangeRetractionSpeed,600
;   externalThinWallType,0
;   internalThinWallType,2
;   thinWallAllowedOverlapPercentage,10
;   singleExtrusionMinLength,1
;   singleExtrusionMinPrintingWidthPercentage,50
;   singleExtrusionMaxPrintingWidthPercentage,200
;   singleExtrusionEndpointExtension,0.2
;   horizontalSizeCompensation,0
G90
M83
M106 S255
G4 P500
M106 S0
G21             ; set units to millimeters
G87							; magic code to tell the printer a calibration has been done
G90             ; use absolute coordinates
M83             ; use relative distances for extrusion
M140 S95     ; Heat the bed
M104 S170       ; Heat Extruder
M190 S95     ; Heat the bed and wait
M109 S170      ; Heat extruder and wait
M300 S440 P1000
G4 S10
M300 S587 P1000
G28 W         ; Home all Without calibration
M104 S255      ; Set extruder temperature to print temp
G80             ; 9-point calibration   
M109 S255      ; Heat extruder to print temp and wait
M900 K25	; Linear advance setting recommended for ABS
G92 E0.0         ; Zero extruder
G1 Y-3.0 F1000.0 ; go outside printer area
G1 X100.0 E9.0  F1000.0 ; intro line
G1 X220.0 E12.5  F1000.0 ; intro line
G1 E-0.8000 F1500
G1 Z0.800 F600
; process Process1
; layer 1, Z = 0.200
T0
; tool H0.200 W0.480
; skirt
G1 X84.890 Y66.264 F6000
G1 Z0.200 F600
G1 E0.8000 F450
G1 X86.264 Y64.890 E0.0776 F2160
G1 X86.528 Y64.780 E0.0114
G1 X163.472 Y64.780 E3.0710
G1 X163.736 Y64.890 E0.0114
G1 X165.110 Y66.264 E0.0776
G1 X165.220 Y66.528 E0.0114
G1 X165.220 Y143.472 E3.0710
G1 X165.110 Y143.736 E0.0114
G1 X163.736 Y145.110 E0.0776
G1 X163.472 Y145.220 E0.0114
G1 X86.528 Y145.220 E3.0710
G1 X86.264 Y145.110 E0.0114
G1 X84.890 Y143.736 E0.0776
G1 X84.780 Y143.472 E0.0114
G1 X84.780 Y66.528 E3.0710
G1 X84.890 Y66.264 E0.0114
G1 E-0.8000 F1500
G1 Z0.800 F600
G1 X85.297 Y66.536 F6000
G1 Z0.200 F600
G1 E0.8000 F1500
G1 X86.536 Y65.297 E0.0699 F2160
G1 X86.624 Y65.260 E0.0038
G1 X163.376 Y65.260 E3.0634
G1 X163.464 Y65.297 E0.0038
G1 X164.703 Y66.536 E0.0699
G1 X164.740 Y66.624 E0.0038
G1 X164.740 Y143.376 E3.0634
G1 X164.703 Y143.464 E0.0038
G1 X163.464 Y144.703 E0.0699
G1 X163.376 Y144.740 E0.0038
G1 X86.624 Y144.740 E3.0634
G1 X86.536 Y144.703 E0.0038
G1 X85.297 Y143.464 E0.0699
G1 X85.260 Y143.376 E0.0038
G1 X85.260 Y66.624 E3.0634
G1 X85.297 Y66.536 E0.0038
G1 E-0.8000 F1500
G1 Z0.800 F600
; inner perimeter
G1 X88.220 Y68.220 F6000
G1 Z0.200 F600
G1 E0.8000 F1500
G1 X161.780 Y68.220 E2.9359 F1728
G1 X161.780 Y141.780 E2.9359
G1 X88.220 Y141.780 E2.9359
G1 X88.220 Y68.220 E2.9359
G1 E-0.8000 F1500
G1 Z0.800 F600
; outer perimeter
G1 X87.740 Y67.740 F6000
G1 Z0.200 F600
G1 E0.8000 F1500
G1 X162.260 Y67.740 E2.9743 F1296
G1 X162.260 Y142.260 E2.9743
G1 X87.740 Y142.260 E2.9743
G1 X87.740 Y67.740 E2.9743
G1 X89.660 Y67.740 E-0.8000 F3600
G1 Z0.800 F600
; solid layer
G1 X161.252 Y68.618 F6000
G1 Z0.200 F600
G1 E0.8000 F1500
G1 X161.382 Y68.748 E0.0073 F1728
G1 X161.382 Y69.426 E0.0271
G1 X160.574 Y68.618 E0.0456
G1 X159.895 Y68.618 E0.0271
G1 X161.382 Y70.105 E0.0839
G1 X161.382 Y70.784 E0.0271
G1 X159.216 Y68.618 E0.1222
G1 X158.537 Y68.618 E0.0271
G1 X161.382 Y71.463 E0.1606
G1 X161.382 Y72.142 E0.0271
G1 X157.858 Y68.618 E0.1989
G1 X157.179 Y68.618 E0.0271
G1 X161.382 Y72.821 E0.2372
G1 X161.382 Y73.499 E0.0271
G1 X156.501 Y68.618 E0.2755
G1 X155.822 Y68.618 E0.0271
G1 X161.382 Y74.178 E0.3138
G1 X161.382 Y74.857 E0.0271
G1 X155.143 Y68.618 E0.3521
G1 X154.464 Y68.618 E0.0271
G1 X161.382 Y75.536 E0.3904
G1 X161.382 Y76.215 E0.0271
G1 X153.785 Y68.618 E0.4288
G1 X153.107 Y68.618 E0.0271
G1 X161.382 Y76.893 E0.4671
G1 X161.382 Y77.572 E0.0271
G1 X152.428 Y68.618 E0.5054
G1 X151.749 Y68.618 E0.0271
G1 X161.382 Y78.251 E0.5437
G1 X161.382 Y78.930 E0.0271
G1 X151.070 Y68.618 E0.5820
G1 X150.391 Y68.618 E0.0271
G1 X161.382 Y79.609 E0.6203
G1 X161.382 Y80.288 E0.0271
G1 X149.712 Y68.618 E0.6587
G1 X149.034 Y68.618 E0.0271
G1 X161.382 Y80.966 E0.6970
G1 X161.382 Y81.645 E0.0271
G1 X148.355 Y68.618 E0.7353
G1 X147.676 Y68.618 E0.0271
G1 X161.382 Y82.324 E0.7736
G1 X161.382 Y83.003 E0.0271
G1 X146.997 Y68.618 E0.8119
G1 X146.318 Y68.618 E0.0271
G1 X161.382 Y83.682 E0.8502
G1 X161.382 Y84.360 E0.0271
G1 X145.640 Y68.618 E0.8886
G1 X144.961 Y68.618 E0.0271
G1 X161.382 Y85.039 E0.9269
G1 X161.382 Y85.718 E0.0271
G1 X144.282 Y68.618 E0.9652
G1 X143.603 Y68.618 E0.0271
G1 X161.382 Y86.397 E1.0035
G1 X161.382 Y87.076 E0.0271
G1 X142.924 Y68.618 E1.0418
G1 X142.245 Y68.618 E0.0271
G1 X161.382 Y87.755 E1.0801
G1 X161.382 Y88.433 E0.0271
G1 X141.567 Y68.618 E1.1184
G1 X140.888 Y68.618 E0.0271
G1 X161.382 Y89.112 E1.1568
G1 X161.382 Y89.791 E0.0271
G1 X140.209 Y68.618 E1.1951
G1 X139.530 Y68.618 E0.0271
G1 X161.382 Y90.470 E1.2334
G1 X161.382 Y91.149 E0.0271
G1 X138.851 Y68.618 E1.2717
G1 X138.172 Y68.618 E0.0271
G1 X161.382 Y91.828 E1.3100
G1 X161.382 Y92.506 E0.0271
G1 X137.494 Y68.618 E1.3483
G1 X136.815 Y68.618 E0.0271
G1 X161.382 Y93.185 E1.3867
G1 X161.382 Y93.864 E0.0271
G1 X136.136 Y68.618 E1.4250
G1 X135.457 Y68.618 E0.0271
G1 X161.382 Y94.543 E1.4633
G1 X161.382 Y95.222 E0.0271
G1 X134.778 Y68.618 E1.5016
G1 X134.100 Y68.618 E0.0271
G1 X161.382 Y95.900 E1.5399
G1 X161.382 Y96.579 E0.0271
G1 X133.421 Y68.618 E1.5782
G1 X132.742 Y68.618 E0.0271
G1 X161.382 Y97.258 E1.6165
G1 X161.382 Y97.937 E0.0271
G1 X132.063 Y68.618 E1.6549
G1 X131.384 Y68.618 E0.0271
G1 X161.382 Y98.616 E1.6932
G1 X161.382 Y99.295 E0.0271
G1 X130.705 Y68.618 E1.7315
G1 X130.027 Y68.618 E0.0271
G1 X161.382 Y99.973 E1.7698
G1 X161.382 Y100.652 E0.0271
G1 X129.348 Y68.618 E1.8081
G1 X128.669 Y68.618 E0.0271
G1 X161.382 Y101.331 E1.8464
G1 X161.382 Y102.010 E0.0271
G1 X127.990 Y68.618 E1.8848
G1 X127.311 Y68.618 E0.0271
G1 X161.382 Y102.689 E1.9231
G1 X161.382 Y103.368 E0.0271
G1 X126.632 Y68.618 E1.9614
G1 X125.954 Y68.618 E0.0271
G1 X161.382 Y104.046 E1.9997
G1 X161.382 Y104.725 E0.0271
G1 X125.275 Y68.618 E2.0380
G1 X124.596 Y68.618 E0.0271
G1 X161.382 Y105.404 E2.0763
G1 X161.382 Y106.083 E0.0271
G1 X123.917 Y68.618 E2.1147
G1 X123.238 Y68.618 E0.0271
G1 X161.382 Y106.762 E2.1530
G1 X161.382 Y107.440 E0.0271
G1 X122.560 Y68.618 E2.1913
G1 X121.881 Y68.618 E0.0271
G1 X161.382 Y108.119 E2.2296
G1 X161.382 Y108.798 E0.0271
G1 X121.202 Y68.618 E2.2679
G1 X120.523 Y68.618 E0.0271
G1 X161.382 Y109.477 E2.3062
G1 X161.382 Y110.156 E0.0271
G1 X119.844 Y68.618 E2.3445
G1 X119.165 Y68.618 E0.0271
G1 X161.382 Y110.835 E2.3829
G1 X161.382 Y111.513 E0.0271
G1 X118.487 Y68.618 E2.4212
G1 X117.808 Y68.618 E0.0271
G1 X161.382 Y112.192 E2.4595
G1 X161.382 Y112.871 E0.0271
G1 X117.129 Y68.618 E2.4978
G1 X116.450 Y68.618 E0.0271
G1 X161.382 Y113.550 E2.5361
G1 X161.382 Y114.229 E0.0271
G1 X115.771 Y68.618 E2.5744
G1 X115.092 Y68.618 E0.0271
G1 X161.382 Y114.908 E2.6128
G1 X161.382 Y115.586 E0.0271
G1 X114.414 Y68.618 E2.6511
G1 X113.735 Y68.618 E0.0271
G1 X161.382 Y116.265 E2.6894
G1 X161.382 Y116.944 E0.0271
G1 X113.056 Y68.618 E2.7277
G1 X112.377 Y68.618 E0.0271
G1 X161.382 Y117.623 E2.7660
G1 X161.382 Y118.302 E0.0271
G1 X111.698 Y68.618 E2.8043
G1 X111.020 Y68.618 E0.0271
G1 X161.382 Y118.980 E2.8427
G1 X161.382 Y119.659 E0.0271
G1 X110.341 Y68.618 E2.8810
G1 X109.662 Y68.618 E0.0271
G1 X161.382 Y120.338 E2.9193
G1 X161.382 Y121.017 E0.0271
G1 X108.983 Y68.618 E2.9576
G1 X108.304 Y68.618 E0.0271
G1 X161.382 Y121.696 E2.9959
G1 X161.382 Y122.375 E0.0271
G1 X107.625 Y68.618 E3.0342
G1 X106.947 Y68.618 E0.0271
G1 X161.382 Y123.053 E3.0725
G1 X161.382 Y123.732 E0.0271
G1 X106.268 Y68.618 E3.1109
G1 X105.589 Y68.618 E0.0271
G1 X161.382 Y124.411 E3.1492
G1 X161.382 Y125.090 E0.0271
G1 X104.910 Y68.618 E3.1875
G1 X104.231 Y68.618 E0.0271
G1 X161.382 Y125.769 E3.2258
G1 X161.382 Y126.447 E0.0271
G1 X103.553 Y68.618 E3.2641
G1 X102.874 Y68.618 E0.0271
G1 X161.382 Y127.126 E3.3024
G1 X161.382 Y127.805 E0.0271
G1 X102.195 Y68.618 E3.3408
G1 X101.516 Y68.618 E0.0271
G1 X161.382 Y128.484 E3.3791
G1 X161.382 Y129.163 E0.0271
G1 X100.837 Y68.618 E3.4174
G1 X100.158 Y68.618 E0.0271
G1 X161.382 Y129.842 E3.4557
G1 X161.382 Y130.520 E0.0271
G1 X99.480 Y68.618 E3.4940
G1 X98.801 Y68.618 E0.0271
G1 X161.382 Y131.199 E3.5323
G1 X161.382 Y131.878 E0.0271
G1 X98.122 Y68.618 E3.5706
G1 X97.443 Y68.618 E0.0271
G1 X161.382 Y132.557 E3.6090
G1 X161.382 Y133.236 E0.0271
G1 X96.764 Y68.618 E3.6473
G1 X96.085 Y68.618 E0.0271
G1 X161.382 Y133.915 E3.6856
G1 X161.382 Y134.593 E0.0271
G1 X95.407 Y68.618 E3.7239
G1 X94.728 Y68.618 E0.0271
G1 X161.382 Y135.272 E3.7622
G1 X161.382 Y135.951 E0.0271
G1 X94.049 Y68.618 E3.8005
G1 X93.370 Y68.618 E0.0271
G1 X161.382 Y136.630 E3.8389
G1 X161.382 Y137.309 E0.0271
G1 X92.691 Y68.618 E3.8772
G1 X92.013 Y68.618 E0.0271
G1 X161.382 Y137.987 E3.9155
G1 X161.382 Y138.666 E0.0271
G1 X91.334 Y68.618 E3.9538
G1 X90.655 Y68.618 E0.0271
G1 X161.382 Y139.345 E3.9921
G1 X161.382 Y140.024 E0.0271
G1 X89.976 Y68.618 E4.0304
G1 X89.297 Y68.618 E0.0271
G1 X161.382 Y140.703 E4.0688
M300 S440 P500
G1 X161.382 Y141.382 E0.0271
M300 S880 P500
G1 X88.618 Y68.618 E4.1071
M300 S440 P500
G1 X88.618 Y69.297 E0.0271
M300 S880 P500
G1 X160.703 Y141.382 E4.0688
G1 X160.024 Y141.382 E0.0271
G1 X88.618 Y69.976 E4.0304
G1 X88.618 Y70.655 E0.0271
G1 X159.345 Y141.382 E3.9921
G1 X158.666 Y141.382 E0.0271
G1 X88.618 Y71.334 E3.9538
G1 X88.618 Y72.013 E0.0271
G1 X157.987 Y141.382 E3.9155
G1 X157.309 Y141.382 E0.0271
G1 X88.618 Y72.691 E3.8772
G1 X88.618 Y73.370 E0.0271
G1 X156.630 Y141.382 E3.8389
G1 X155.951 Y141.382 E0.0271
G1 X88.618 Y74.049 E3.8005
G1 X88.618 Y74.728 E0.0271
G1 X155.272 Y141.382 E3.7622
G1 X154.593 Y141.382 E0.0271
G1 X88.618 Y75.407 E3.7239
G1 X88.618 Y76.085 E0.0271
G1 X153.915 Y141.382 E3.6856
G1 X153.236 Y141.382 E0.0271
G1 X88.618 Y76.764 E3.6473
G1 X88.618 Y77.443 E0.0271
G1 X152.557 Y141.382 E3.6090
G1 X151.878 Y141.382 E0.0271
G1 X88.618 Y78.122 E3.5707
