; generated by PrusaSlicer 2.4.0+linux-x64 on 2022-02-27 at 13:17:46 UTC


;
;

;
;
; 

; external perimeters extrusion width = 0.45mm
; perimeters extrusion width = 0.45mm
; infill extrusion width = 0.45mm
; solid infill extrusion width = 0.45mm
; top infill extrusion width = 0.40mm
; first layer extrusion width = 0.42mm

M73 P0 R38
M201 X2500 Y2500 Z400 E5000 ; sets maximum accelerations, mm/sec^2
M203 X180 Y180 Z12 E80 ; sets maximum feedrates, mm/sec
M204 P1250 R1250 T2500 ; sets acceleration (P, T) and retract acceleration (R), mm/sec^2
M205 X8.00 Y8.00 Z2.00 E10.00 ; sets the jerk limits, mm/sec
M205 S0 T0 ; sets the minimum extruding and travel feed rate, mm/sec
M107
;TYPE:Custom
M862.3 P "MINI" ; printer model check
G90 ; use absolute coordinates
M83 ; extruder relative mode
M104 S170 ; set extruder temp for bed leveling
M140 S60 ; set bed temp
M109 R170 ; wait for bed leveling temp
M190 S60 ; wait for bed temp
M204 T1250 ; set travel acceleration
G28 ; home all without mesh bed level
G29 ; mesh bed leveling 
M204 T2500 ; restore travel acceleration
M104 S215 ; set extruder temp
G92 E0
G1 Y-2 X179 F2400
G1 Z3 F720
M109 S215 ; wait for extruder temp

; intro line
G1 X170 F1000
G1 Z0.2 F720
G1 X110 E8 F900
G1 X40 E10 F700
G92 E0

M221 S95 ; set flow
G21 ; set units to millimeters
G90 ; use absolute coordinates
M83 ; use relative distances for extrusion
M900 K0.2 ; Filament gcode LA 1.5
; ; Filament gcode LA 1.0
M107
;LAYER_CHANGE
;Z:0.2
;HEIGHT:0.2
;BEFORE_LAYER_CHANGE
G92 E0.0
;0.2


G1 Z.2 F720
;AFTER_LAYER_CHANGE
;0.2
G1 E-3.2 F4200
G1 Z.4 F720
G1 X70.222 Y57.841 F9000
G1 Z.2 F720
G1 E3.2 F2400
M204 P800
;TYPE:Skirt/Brim
;WIDTH:0.42
G1 F1200
G1 X70.713 Y57.296 E.02298
G1 X71.563 Y56.546 E.03555
G1 X72.365 Y56.004 E.03036
G1 X73.379 Y55.497 E.03554
G1 X74.068 Y55.246 E.02299
G1 X75.171 Y54.983 E.03554
G1 X76.5 Y54.873 E.04183
G1 X103.583 Y54.874 E.84917
G1 X105.108 Y55.035 E.04809
G1 X106.718 Y55.538 E.05287
G1 X107.876 Y56.153 E.04113
G1 X109.085 Y57.097 E.04809
G1 X109.954 Y58.063 E.04073
G1 X110.767 Y59.363 E.04809
G1 X111.254 Y60.568 E.04073
G1 X111.572 Y62.068 E.04809
G1 X111.627 Y63 E.02927
G1 X111.627 Y117 E1.69313
G1 X111.465 Y118.608 E.05068
M73 P0 R37
G1 X110.957 Y120.229 E.05326
G1 X110.435 Y121.236 E.03554
G1 X109.778 Y122.159 E.03555
G1 X109.287 Y122.704 E.02298
G1 X108.437 Y123.454 E.03554
G1 X107.491 Y124.078 E.03555
G1 X106.467 Y124.565 E.03555
G1 X105.546 Y124.864 E.03035
G1 X104.432 Y125.072 E.03554
G1 X103.5 Y125.127 E.02927
G1 X76.417 Y125.126 E.84917
G1 X74.892 Y124.965 E.04809
M73 P1 R37
G1 X73.271 Y124.457 E.05326
G1 X72.264 Y123.935 E.03555
G1 X71.341 Y123.278 E.03555
G1 X70.517 Y122.499 E.03555
G1 X69.81 Y121.613 E.03555
G1 X69.233 Y120.637 E.03555
G1 X68.798 Y119.59 E.03555
G1 X68.512 Y118.493 E.03554
G1 X68.382 Y117.366 E.03555
G1 X68.373 Y63 E1.70462
G1 X68.535 Y61.392 E.05068
G1 X69.043 Y59.771 E.05326
G1 X69.565 Y58.764 E.03555
G1 X70.187 Y57.889 E.03366
M204 P1000
; printing object battery-holder-aaa id:0 copy 0
G1 E-2.24 F4200
;WIPE_START
G1 F7200
G1 X70.713 Y57.296 E-.43926
G1 X71.352 Y56.731 E-.47274
;WIPE_END
G1 E-.048 F4200
G1 Z.4 F720
G1 X72.381 Y59.604 F9000
G1 Z.2 F720
G1 E3.2 F2400
M204 P800
;TYPE:External perimeter
G1 F1200
G1 X72.659 Y59.291 E.01311
G1 X72.927 Y59.032 E.01169
G1 X73.213 Y58.792 E.01169
G1 X73.514 Y58.573 E.01169
G1 X73.83 Y58.376 E.01169
G1 X74.159 Y58.201 E.01169
G1 X74.5 Y58.049 E.01169
G1 X74.85 Y57.922 E.01169
G1 X75.208 Y57.819 E.01169
G1 X75.573 Y57.741 E.01169
G1 X75.94 Y57.69 E.01163
G1 X76.507 Y57.66 E.01781
G1 X103.834 Y57.672 E.8568
G1 X104.244 Y57.712 E.01292
G1 X104.61 Y57.777 E.01166
G1 X104.972 Y57.867 E.01169
G1 X105.326 Y57.982 E.01169
G1 X105.672 Y58.122 E.01169
G1 X106.007 Y58.285 E.01169
G1 X106.33 Y58.472 E.01169
G1 X106.639 Y58.68 E.01169
G1 X106.932 Y58.91 E.01169
G1 X107.209 Y59.159 E.01169
G1 X107.468 Y59.427 E.01169
G1 X107.708 Y59.713 E.01169
G1 X107.924 Y60.01 E.01151
G1 X108.124 Y60.33 E.01186
G1 X108.299 Y60.659 E.01168
G1 X108.451 Y61 E.01169
G1 X108.578 Y61.35 E.01168
G1 X108.681 Y61.708 E.01169
G1 X108.759 Y62.073 E.01169
G1 X108.81 Y62.44 E.01163
G1 X108.84 Y63.007 E.01781
G1 X108.84 Y116.993 E1.69268
G1 X108.827 Y117.372 E.01191
G1 X108.788 Y117.743 E.01169
G1 X108.723 Y118.11 E.01169
G1 X108.633 Y118.472 E.01169
G1 X108.518 Y118.826 E.01169
G1 X108.378 Y119.172 E.01169
G1 X108.215 Y119.507 E.01169
G1 X108.028 Y119.83 E.01169
G1 X107.82 Y120.139 E.01169
G1 X107.59 Y120.432 E.01169
G1 X107.341 Y120.709 E.01169
G1 X107.074 Y120.968 E.01166
G1 X106.753 Y121.233 E.01304
G1 X106.17 Y121.624 E.02203
G1 X105.841 Y121.799 E.01169
G1 X105.5 Y121.951 E.01169
G1 X105.15 Y122.078 E.01168
G1 X104.792 Y122.181 E.01169
G1 X104.427 Y122.259 E.01169
G1 X104.06 Y122.31 E.01163
G1 X103.493 Y122.34 E.01781
G1 X76.507 Y122.34 E.84611
G1 X76.128 Y122.327 E.01191
G1 X75.757 Y122.288 E.01169
G1 X75.39 Y122.223 E.01169
G1 X75.028 Y122.133 E.01169
G1 X74.674 Y122.018 E.01169
G1 X74.328 Y121.878 E.01169
G1 X73.993 Y121.715 E.01169
G1 X73.67 Y121.528 E.01169
G1 X73.361 Y121.32 E.01169
G1 X73.068 Y121.09 E.01169
G1 X72.791 Y120.841 E.01169
G1 X72.532 Y120.573 E.01169
G1 X72.292 Y120.287 E.01169
G1 X72.073 Y119.986 E.01169
G1 X71.876 Y119.67 E.01169
G1 X71.701 Y119.341 E.01169
G1 X71.549 Y119 E.01169
G1 X71.422 Y118.65 E.01169
G1 X71.319 Y118.292 E.01169
G1 X71.241 Y117.927 E.01169
G1 X71.189 Y117.558 E.01169
G1 X71.163 Y117.185 E.01174
G1 X71.16 Y63.007 E1.6987
G1 X71.173 Y62.628 E.01191
G1 X71.212 Y62.257 E.01169
G1 X71.277 Y61.89 E.01169
G1 X71.367 Y61.528 E.01169
G1 X71.482 Y61.174 E.01169
G1 X71.622 Y60.828 E.01169
G1 X71.785 Y60.493 E.01169
G1 X71.972 Y60.17 E.01169
G1 X72.345 Y59.651 E.02005
M204 P1000
G1 E-2.24 F4200
;WIPE_START
G1 F7200
G1 X72.659 Y59.291 E-.26495
G1 X72.927 Y59.032 E-.20655
G1 X73.213 Y58.792 E-.20654
G1 X73.514 Y58.573 E-.20654
G1 X73.556 Y58.547 E-.02742
;WIPE_END
G1 E-.048 F4200
G1 Z.4 F720
G1 X108.01 Y60.361 F9000
G1 Z.2 F720
G1 E3.2 F2400
M204 P800
;TYPE:Solid infill
;WIDTH:0.421494
G1 F1200
G1 X107.003 Y59.353 E.04485
G1 X106.75 Y59.126 E.01068
G1 X106.18 Y58.712 E.02221
G1 X105.874 Y58.535 E.01111
G1 X105.452 Y58.338 E.01466
G1 X108.164 Y61.05 E.12072
G1 X108.309 Y61.437 E.01303
G1 X108.42 Y61.842 E.01321
G1 X104.659 Y58.081 E.16745
G1 X104.205 Y57.993 E.01454
G1 X104.017 Y57.974 E.00595
G1 X108.529 Y62.486 E.20087
G1 X108.557 Y63.049 E.01775
G1 X103.462 Y57.955 E.2268
G1 X102.927 Y57.955 E.01686
G1 X108.557 Y63.585 E.25065
G1 X108.557 Y64.12 E.01685
G1 X102.391 Y57.954 E.27449
G1 X101.856 Y57.954 E.01686
G1 X108.557 Y64.656 E.29834
G1 X108.557 Y65.191 E.01685
G1 X101.32 Y57.954 E.32218
G1 X100.784 Y57.954 E.01686
G1 X108.557 Y65.726 E.34603
G1 X108.557 Y66.262 E.01685
G1 X100.249 Y57.953 E.36987
G1 X99.713 Y57.953 E.01686
G1 X108.557 Y66.797 E.39371
G1 X108.557 Y67.333 E.01685
G1 X99.178 Y57.953 E.41756
G1 X98.642 Y57.953 E.01686
G1 X108.557 Y67.868 E.4414
G1 X108.557 Y68.403 E.01685
G1 X98.106 Y57.952 E.46525
G1 X97.571 Y57.952 E.01686
G1 X108.557 Y68.939 E.48909
G1 X108.557 Y69.474 E.01685
M73 P2 R37
G1 X97.035 Y57.952 E.51294
G1 X96.499 Y57.952 E.01686
G1 X108.557 Y70.009 E.53678
G1 X108.557 Y70.545 E.01685
G1 X95.964 Y57.951 E.56063
G1 X95.428 Y57.951 E.01686
G1 X108.557 Y71.08 E.58447
G1 X108.557 Y71.616 E.01685
G1 X94.893 Y57.951 E.60832
G1 X94.357 Y57.951 E.01686
G1 X108.557 Y72.151 E.63216
G1 X108.557 Y72.686 E.01685
G1 X93.821 Y57.95 E.656
G1 X93.286 Y57.95 E.01686
G1 X108.557 Y73.222 E.67985
G1 X108.557 Y73.757 E.01685
G1 X92.75 Y57.95 E.70369
G1 X92.214 Y57.95 E.01686
G1 X108.557 Y74.293 E.72754
G1 X108.557 Y74.828 E.01685
G1 X91.679 Y57.95 E.75138
G1 X91.143 Y57.949 E.01686
G1 X108.557 Y75.363 E.77523
G1 X108.557 Y75.899 E.01685
G1 X90.608 Y57.949 E.79907
G1 X90.072 Y57.949 E.01686
G1 X108.557 Y76.434 E.82292
G1 X108.557 Y76.969 E.01685
G1 X89.536 Y57.949 E.84676
G1 X89.001 Y57.948 E.01686
G1 X108.557 Y77.505 E.8706
G1 X108.557 Y78.04 E.01685
G1 X88.465 Y57.948 E.89445
G1 X87.929 Y57.948 E.01686
G1 X108.557 Y78.576 E.91829
G1 X108.557 Y79.111 E.01685
G1 X87.394 Y57.948 E.94214
G1 X86.858 Y57.947 E.01686
G1 X108.557 Y79.646 E.96598
G1 X108.557 Y80.182 E.01685
M73 P3 R37
G1 X86.323 Y57.947 E.98983
G1 X85.787 Y57.947 E.01686
G1 X108.557 Y80.717 E1.01367
G1 X108.557 Y81.253 E.01685
G1 X85.251 Y57.947 E1.03752
G1 X84.716 Y57.946 E.01686
G1 X108.557 Y81.788 E1.06136
G1 X108.557 Y82.323 E.01685
G1 X84.18 Y57.946 E1.08521
G1 X83.644 Y57.946 E.01686
G1 X108.557 Y82.859 E1.10905
G1 X108.557 Y83.394 E.01685
M73 P3 R36
G1 X83.109 Y57.946 E1.13289
G1 X82.573 Y57.945 E.01686
G1 X108.557 Y83.929 E1.15674
G1 X108.557 Y84.465 E.01685
G1 X82.038 Y57.945 E1.18058
G1 X81.502 Y57.945 E.01686
G1 X108.557 Y85 E1.20443
G1 X108.557 Y85.536 E.01685
G1 X80.966 Y57.945 E1.22827
G1 X80.431 Y57.945 E.01686
G1 X108.557 Y86.071 E1.25212
G1 X108.557 Y86.606 E.01685
M73 P4 R36
G1 X79.895 Y57.944 E1.27596
G1 X79.36 Y57.944 E.01686
G1 X108.557 Y87.142 E1.29981
G1 X108.557 Y87.677 E.01685
G1 X78.824 Y57.944 E1.32365
G1 X78.288 Y57.944 E.01686
G1 X108.557 Y88.213 E1.34749
G1 X108.557 Y88.748 E.01685
G1 X77.753 Y57.943 E1.37134
G1 X77.217 Y57.943 E.01686
G1 X108.557 Y89.283 E1.39518
G1 X108.557 Y89.819 E.01685
G1 X76.681 Y57.943 E1.41903
G1 X76.164 Y57.961 E.01629
G1 X108.557 Y90.354 E1.44205
G1 X108.557 Y90.889 E.01685
G1 X75.68 Y58.012 E1.46362
G1 X75.237 Y58.105 E.01423
G1 X108.557 Y91.425 E1.48332
G1 X108.557 Y91.96 E.01685
G1 X74.828 Y58.231 E1.50155
G1 X74.445 Y58.383 E.01297
M73 P5 R36
G1 X108.557 Y92.496 E1.5186
G1 X108.557 Y93.031 E.01685
G1 X74.086 Y58.56 E1.53457
G1 X73.75 Y58.759 E.0123
G1 X108.557 Y93.566 E1.54953
G1 X108.557 Y94.102 E.01685
G1 X73.435 Y58.98 E1.56353
G1 X73.141 Y59.221 E.01197
G1 X108.557 Y94.637 E1.57663
G1 X108.557 Y95.173 E.01685
G1 X72.867 Y59.483 E1.58882
G1 X72.614 Y59.765 E.01193
G1 X108.557 Y95.708 E1.60009
G1 X108.557 Y96.243 E.01685
G1 X72.382 Y60.068 E1.61043
G1 X72.17 Y60.392 E.01218
G1 X108.557 Y96.779 E1.61985
G1 X108.557 Y97.314 E.01685
M73 P6 R36
G1 X71.981 Y60.738 E1.62829
G1 X71.814 Y61.107 E.01274
M73 P6 R35
G1 X108.557 Y97.849 E1.63569
G1 X108.557 Y98.385 E.01685
G1 X71.673 Y61.501 E1.64198
G1 X71.56 Y61.923 E.01376
G1 X108.557 Y98.92 E1.64702
G1 X108.557 Y99.456 E.01685
G1 X71.483 Y62.382 E1.65043
G1 X71.447 Y62.881 E.01576
G1 X108.557 Y99.991 E1.65203
G1 X108.557 Y100.526 E.01685
G1 X71.443 Y63.412 E1.65224
G1 X71.443 Y63.947 E.01685
G1 X108.557 Y101.062 E1.65223
G1 X108.557 Y101.597 E.01685
G1 X71.443 Y64.483 E1.65223
M73 P7 R35
G1 X71.443 Y65.018 E.01685
G1 X108.557 Y102.133 E1.65223
G1 X108.557 Y102.668 E.01685
G1 X71.443 Y65.554 E1.65223
G1 X71.443 Y66.089 E.01685
G1 X108.557 Y103.203 E1.65223
G1 X108.557 Y103.739 E.01685
G1 X71.443 Y66.625 E1.65223
G1 X71.443 Y67.16 E.01685
G1 X108.557 Y104.274 E1.65223
G1 X108.557 Y104.809 E.01685
G1 X71.443 Y67.695 E1.65222
G1 X71.443 Y68.231 E.01685
G1 X108.557 Y105.345 E1.65222
G1 X108.557 Y105.88 E.01685
G1 X71.443 Y68.766 E1.65222
G1 X71.443 Y69.302 E.01685
M73 P8 R35
G1 X108.557 Y106.416 E1.65222
G1 X108.557 Y106.951 E.01685
G1 X71.443 Y69.837 E1.65222
G1 X71.443 Y70.372 E.01685
G1 X108.557 Y107.486 E1.65222
G1 X108.557 Y108.022 E.01685
G1 X71.443 Y70.908 E1.65221
G1 X71.443 Y71.443 E.01685
G1 X108.557 Y108.557 E1.65221
G1 X108.557 Y109.093 E.01685
G1 X71.443 Y71.979 E1.65221
G1 X71.443 Y72.514 E.01685
M73 P8 R34
G1 X108.557 Y109.628 E1.65221
G1 X108.557 Y110.163 E.01685
G1 X71.443 Y73.05 E1.65221
G1 X71.443 Y73.585 E.01685
G1 X108.557 Y110.699 E1.65221
G1 X108.557 Y111.234 E.01685
M73 P9 R34
G1 X71.443 Y74.12 E1.65221
G1 X71.444 Y74.656 E.01685
G1 X108.557 Y111.769 E1.6522
G1 X108.557 Y112.305 E.01685
G1 X71.444 Y75.191 E1.6522
G1 X71.444 Y75.727 E.01685
G1 X108.557 Y112.84 E1.6522
G1 X108.557 Y113.376 E.01685
G1 X71.444 Y76.262 E1.6522
G1 X71.444 Y76.797 E.01685
G1 X108.557 Y113.911 E1.6522
G1 X108.557 Y114.446 E.01685
G1 X71.444 Y77.333 E1.6522
G1 X71.444 Y77.868 E.01685
G1 X108.557 Y114.982 E1.6522
G1 X108.557 Y115.517 E.01685
M73 P10 R34
G1 X71.444 Y78.404 E1.65219
G1 X71.444 Y78.939 E.01685
G1 X108.557 Y116.053 E1.65219
G1 X108.557 Y116.588 E.01685
G1 X71.444 Y79.475 E1.65219
G1 X71.444 Y80.01 E.01685
G1 X108.553 Y117.119 E1.65199
G1 X108.517 Y117.618 E.01576
G1 X71.444 Y80.545 E1.65038
G1 X71.444 Y81.081 E.01685
G1 X108.44 Y118.077 E1.64697
G1 X108.327 Y118.499 E.01376
G1 X71.444 Y81.616 E1.64192
G1 X71.444 Y82.152 E.01685
G1 X108.186 Y118.893 E1.63564
G1 X108.019 Y119.262 E.01274
G1 X71.444 Y82.687 E1.62824
G1 X71.444 Y83.222 E.01685
M73 P11 R34
G1 X107.83 Y119.608 E1.61979
G1 X107.788 Y119.68 E.0026
G1 X107.618 Y119.932 E.00958
G1 X71.444 Y83.758 E1.61038
G1 X71.444 Y84.293 E.01685
G1 X107.386 Y120.235 E1.60003
G1 X107.133 Y120.517 E.01193
M73 P11 R33
G1 X71.444 Y84.829 E1.58876
G1 X71.444 Y85.364 E.01685
G1 X106.859 Y120.779 E1.57656
G1 X106.564 Y121.019 E.01198
G1 X71.444 Y85.9 E1.56343
G1 X71.444 Y86.435 E.01685
G1 X106.244 Y121.234 E1.54917
G1 X105.914 Y121.44 E.01223
G1 X71.444 Y86.97 E1.5345
G1 X71.444 Y87.506 E.01685
G1 X105.555 Y121.617 E1.51854
G1 X105.172 Y121.769 E.01297
M73 P12 R33
G1 X71.444 Y88.041 E1.50149
G1 X71.444 Y88.577 E.01685
G1 X104.763 Y121.895 E1.48326
G1 X104.32 Y121.988 E.01423
G1 X71.444 Y89.112 E1.46355
G1 X71.444 Y89.647 E.01685
G1 X103.836 Y122.039 E1.44198
G1 X103.319 Y122.057 E.01628
G1 X71.444 Y90.183 E1.41896
G1 X71.445 Y90.718 E.01685
G1 X102.783 Y122.057 E1.39513
G1 X102.248 Y122.057 E.01685
G1 X71.445 Y91.254 E1.37129
G1 X71.445 Y91.789 E.01685
G1 X101.713 Y122.057 E1.34746
G1 X101.177 Y122.057 E.01685
G1 X71.445 Y92.325 E1.32362
G1 X71.445 Y92.86 E.01685
G1 X100.642 Y122.057 E1.29978
G1 X100.106 Y122.057 E.01685
M73 P13 R33
G1 X71.445 Y93.395 E1.27595
G1 X71.445 Y93.931 E.01685
G1 X99.571 Y122.057 E1.25211
G1 X99.036 Y122.057 E.01685
G1 X71.445 Y94.466 E1.22828
G1 X71.445 Y95.002 E.01685
G1 X98.5 Y122.057 E1.20444
G1 X97.965 Y122.057 E.01685
G1 X71.445 Y95.537 E1.18061
G1 X71.445 Y96.072 E.01685
G1 X97.43 Y122.057 E1.15677
G1 X96.894 Y122.057 E.01685
G1 X71.445 Y96.608 E1.13294
G1 X71.445 Y97.143 E.01685
G1 X96.359 Y122.057 E1.1091
G1 X95.823 Y122.057 E.01685
G1 X71.445 Y97.679 E1.08527
G1 X71.445 Y98.214 E.01685
G1 X95.288 Y122.057 E1.06143
G1 X94.753 Y122.057 E.01685
G1 X71.445 Y98.75 E1.03759
G1 X71.445 Y99.285 E.01685
M73 P13 R32
G1 X94.217 Y122.057 E1.01376
G1 X93.682 Y122.057 E.01685
M73 P14 R32
G1 X71.445 Y99.82 E.98992
G1 X71.445 Y100.356 E.01685
G1 X93.146 Y122.057 E.96609
G1 X92.611 Y122.057 E.01685
G1 X71.445 Y100.891 E.94225
G1 X71.445 Y101.427 E.01685
G1 X92.076 Y122.057 E.91842
G1 X91.54 Y122.057 E.01685
G1 X71.445 Y101.962 E.89458
G1 X71.445 Y102.498 E.01685
G1 X91.005 Y122.057 E.87075
G1 X90.47 Y122.057 E.01685
G1 X71.445 Y103.033 E.84691
G1 X71.445 Y103.568 E.01685
G1 X89.934 Y122.057 E.82308
G1 X89.399 Y122.057 E.01685
G1 X71.445 Y104.104 E.79924
G1 X71.445 Y104.639 E.01685
G1 X88.863 Y122.057 E.7754
G1 X88.328 Y122.057 E.01685
G1 X71.445 Y105.175 E.75157
G1 X71.445 Y105.71 E.01685
G1 X87.793 Y122.057 E.72773
G1 X87.257 Y122.057 E.01685
G1 X71.446 Y106.245 E.7039
G1 X71.446 Y106.781 E.01685
G1 X86.722 Y122.057 E.68006
G1 X86.186 Y122.057 E.01685
G1 X71.446 Y107.316 E.65623
G1 X71.446 Y107.852 E.01685
G1 X85.651 Y122.057 E.63239
G1 X85.116 Y122.057 E.01685
G1 X71.446 Y108.387 E.60856
G1 X71.446 Y108.923 E.01685
G1 X84.58 Y122.057 E.58472
G1 X84.045 Y122.057 E.01685
M73 P15 R32
G1 X71.446 Y109.458 E.56089
G1 X71.446 Y109.993 E.01685
G1 X83.51 Y122.057 E.53705
G1 X82.974 Y122.057 E.01685
G1 X71.446 Y110.529 E.51322
G1 X71.446 Y111.064 E.01685
G1 X82.439 Y122.057 E.48938
G1 X81.903 Y122.057 E.01685
G1 X71.446 Y111.6 E.46554
G1 X71.446 Y112.135 E.01685
G1 X81.368 Y122.057 E.44171
G1 X80.833 Y122.057 E.01685
G1 X71.446 Y112.67 E.41787
G1 X71.446 Y113.206 E.01685
G1 X80.297 Y122.057 E.39404
G1 X79.762 Y122.057 E.01685
G1 X71.446 Y113.741 E.3702
G1 X71.446 Y114.277 E.01685
G1 X79.227 Y122.057 E.34637
G1 X78.691 Y122.057 E.01685
G1 X71.446 Y114.812 E.32253
G1 X71.446 Y115.348 E.01685
G1 X78.156 Y122.057 E.2987
G1 X77.62 Y122.057 E.01685
