; generated by PrusaSlicer 2.4.1+win64 on 2022-04-17 at 23:56:07 UTC

; 

; external perimeters extrusion width = 0.45mm
; perimeters extrusion width = 0.45mm
; infill extrusion width = 0.45mm
; solid infill extrusion width = 0.45mm
; top infill extrusion width = 0.40mm
; first layer extrusion width = 0.42mm

M73 P0 R72
M73 Q0 S72
M201 X1000 Y1000 Z200 E5000 ; sets maximum accelerations, mm/sec^2
M203 X200 Y200 Z12 E120 ; sets maximum feedrates, mm / sec
M204 P1250 R1250 T1250 ; sets acceleration (P, T) and retract acceleration (R), mm/sec^2
M205 X8.00 Y8.00 Z0.40 E4.50 ; sets the jerk limits, mm/sec
M205 S0 T0 ; sets the minimum extruding and travel feed rate, mm/sec
M107
;TYPE:Custom
M862.3 P "MK3S" ; printer model check
M862.1 P0.4 ; nozzle diameter check
M115 U3.10.1 ; tell printer latest fw version
G90 ; use absolute coordinates
M83 ; extruder relative mode
M104 S215 ; set extruder temp
M140 S60 ; set bed temp
M190 S60 ; wait for bed temp
M109 S215 ; wait for extruder temp
G28 W ; home all without mesh bed level
G80 ; mesh bed leveling
G1 Z0.2 F720
G1 Y-3 F1000 ; go outside print area
G92 E0
G1 X60 E9 F1000 ; intro line
G1 X100 E12.5 F1000 ; intro line
G92 E0
M221 S95

; Don't change E values below. Excessive value can damage the printer.
M907 E430 ; set extruder motor current
G21 ; set units to millimeters
G90 ; use absolute coordinates
M83 ; use relative distances for extrusion
M900 K0.05 ; Filament gcode LA 1.5
M900 K30 ; Filament gcode LA 1.0
M107
;LAYER_CHANGE
;Z:0.2
;HEIGHT:0.2
;BEFORE_LAYER_CHANGE
G92 E0.0
;0.2


G1 E-.8 F2100
G1 Z.4 F720
;AFTER_LAYER_CHANGE
;0.2
G1 X102.566 Y86.447 F10800
G1 Z.2 F720
G1 E.8 F2100
M204 S800
;TYPE:Skirt/Brim
;WIDTH:0.42
G1 F1200
G1 X106.129 Y82.833 E.15912
G1 X110.624 Y79.686 E.17204
G1 X115.238 Y77.574 E.15912
G1 X120.149 Y76.295 E.1591
G1 X125.207 Y75.889 E.1591
G1 X130.259 Y76.367 E.15911
G1 X135.151 Y77.715 E.15911
G1 X139.376 Y79.686 E.14617
G1 X143.553 Y82.566 E.15909
G1 X147.167 Y86.129 E.15912
G1 X150.314 Y90.624 E.17204
G1 X152.426 Y95.238 E.15912
G1 X153.705 Y100.149 E.1591
G1 X154.111 Y105.207 E.1591
G1 X153.633 Y110.259 E.15911
G1 X152.285 Y115.151 E.15911
G1 X150.314 Y119.376 E.14617
G1 X147.434 Y123.553 E.15909
G1 X143.871 Y127.167 E.15912
G1 X139.376 Y130.314 E.17204
G1 X134.762 Y132.426 E.15912
G1 X129.851 Y133.705 E.1591
G1 X124.793 Y134.111 E.1591
G1 X119.741 Y133.633 E.15911
G1 X114.849 Y132.285 E.15911
G1 X110.624 Y130.314 E.14617
G1 X106.447 Y127.434 E.15909
G1 X102.833 Y123.871 E.15912
G1 X99.686 Y119.376 E.17204
G1 X97.574 Y114.762 E.15912
G1 X96.295 Y109.851 E.1591
G1 X95.889 Y104.793 E.1591
G1 X96.367 Y99.741 E.15911
G1 X97.715 Y94.849 E.15911
G1 X99.686 Y90.624 E.14617
G1 X102.532 Y86.496 E.15721
M204 S1000
; printing object Boardgame Dish(1).stl id:0 copy 0
;WIPE_START
G1 F8640
G1 X104.838 Y84.147 E-.76
;WIPE_END
G1 E-.04 F2100
G1 Z.6 F720
G1 X104.125 Y89.833 F10800
G1 Z.2 F720
G1 E.8 F2100
M204 S800
;TYPE:Perimeter
G1 F1200
G1 X105.34 Y88.618 E.0539
G1 X105.39 Y88.546 E.00274
G1 X109.833 Y84.125 E.19652
G1 X111.747 Y83.15 E.06736
G1 X112.2 Y82.833 E.01734
G1 X113.969 Y82.018 E.06106
G1 X117.026 Y80.46 E.10759
G1 X119.549 Y80.06 E.08009
G1 X120.555 Y79.791 E.03264
G1 X122.107 Y79.655 E.04885
G1 X125 Y79.197 E.09184
G1 X127.893 Y79.655 E.09185
G1 X129.445 Y79.791 E.04884
G1 X130.45 Y80.06 E.03262
G1 X132.974 Y80.46 E.08012
G1 X136.031 Y82.018 E.1076
G1 X137.8 Y82.833 E.06106
G1 X138.253 Y83.15 E.01733
G1 X140.167 Y84.125 E.06736
G1 X144.61 Y88.546 E.19652
G1 X144.66 Y88.618 E.00274
G1 X145.875 Y89.833 E.05389
G1 X146.85 Y91.747 E.06733
G1 X147.167 Y92.2 E.01734
G1 X147.982 Y93.969 E.06106
G1 X149.54 Y97.026 E.10759
G1 X149.94 Y99.549 E.08009
G1 X150.209 Y100.555 E.03264
G1 X150.345 Y102.107 E.04885
G1 X150.803 Y105 E.09184
G1 X150.345 Y107.893 E.09185
G1 X150.209 Y109.445 E.04884
G1 X149.94 Y110.45 E.03262
G1 X149.54 Y112.974 E.08012
G1 X147.982 Y116.031 E.1076
G1 X147.167 Y117.8 E.06106
G1 X146.85 Y118.253 E.01733
G1 X145.875 Y120.167 E.06734
G1 X144.66 Y121.382 E.0539
G1 X144.61 Y121.454 E.00274
G1 X140.167 Y125.875 E.19652
G1 X138.253 Y126.85 E.06736
G1 X137.8 Y127.167 E.01734
G1 X136.031 Y127.982 E.06106
G1 X132.974 Y129.54 E.10759
G1 X130.451 Y129.94 E.08009
G1 X129.445 Y130.209 E.03264
G1 X127.893 Y130.345 E.04885
G1 X125 Y130.803 E.09184
G1 X122.107 Y130.345 E.09185
G1 X120.555 Y130.209 E.04884
G1 X119.55 Y129.94 E.03262
G1 X117.026 Y129.54 E.08012
G1 X113.969 Y127.982 E.1076
G1 X112.2 Y127.167 E.06106
G1 X111.747 Y126.85 E.01733
G1 X109.833 Y125.875 E.06734
G1 X108.618 Y124.66 E.0539
G1 X108.546 Y124.61 E.00274
G1 X104.125 Y120.167 E.19652
G1 X103.15 Y118.253 E.06736
G1 X102.833 Y117.8 E.01734
G1 X102.018 Y116.031 E.06106
G1 X100.46 Y112.974 E.10759
G1 X100.06 Y110.451 E.08009
G1 X99.791 Y109.445 E.03264
G1 X99.655 Y107.893 E.04885
G1 X99.197 Y105 E.09184
G1 X99.655 Y102.107 E.09185
G1 X99.791 Y100.555 E.04884
G1 X100.06 Y99.55 E.03262
G1 X100.46 Y97.026 E.08012
G1 X102.018 Y93.969 E.1076
G1 X102.833 Y92.2 E.06106
G1 X103.15 Y91.747 E.01733
G1 X104.097 Y89.887 E.06546
M204 S1000
G1 X103.816 Y89.609 F10800
M204 S800
;TYPE:External perimeter
G1 F1200
G1 X105.05 Y88.375 E.05473
G1 X105.101 Y88.303 E.00276
G1 X109.609 Y83.816 E.19942
G1 X111.552 Y82.826 E.06839
G1 X112.011 Y82.504 E.01758
G1 X113.804 Y81.678 E.06189
G1 X116.908 Y80.097 E.10923
G1 X119.471 Y79.691 E.08135
G1 X120.489 Y79.418 E.03305
G1 X122.061 Y79.281 E.04947
G1 X125 Y78.815 E.0933
G1 X127.939 Y79.281 E.09331
G1 X129.511 Y79.418 E.04947
G1 X130.529 Y79.691 E.03303
G1 X133.092 Y80.097 E.08137
G1 X136.196 Y81.678 E.10924
G1 X137.989 Y82.504 E.06188
G1 X138.448 Y82.826 E.01757
G1 X140.391 Y83.816 E.0684
G1 X144.899 Y88.303 E.19942
G1 X144.95 Y88.375 E.00276
G1 X146.184 Y89.609 E.05473
G1 X147.174 Y91.552 E.06838
G1 X147.496 Y92.011 E.01758
G1 X148.322 Y93.804 E.06189
G1 X149.903 Y96.908 E.10923
G1 X150.309 Y99.471 E.08135
G1 X150.582 Y100.489 E.03305
G1 X150.719 Y102.061 E.04947
G1 X151.185 Y105 E.0933
G1 X150.719 Y107.939 E.09331
G1 X150.582 Y109.511 E.04947
G1 X150.309 Y110.529 E.03303
G1 X149.903 Y113.092 E.08137
G1 X148.322 Y116.196 E.10924
G1 X147.496 Y117.989 E.06188
G1 X147.174 Y118.448 E.01757
G1 X146.184 Y120.391 E.06839
G1 X144.95 Y121.625 E.05473
G1 X144.899 Y121.697 E.00276
G1 X140.391 Y126.184 E.19942
G1 X138.448 Y127.174 E.06839
G1 X137.989 Y127.496 E.01758
G1 X136.196 Y128.322 E.06189
G1 X133.092 Y129.903 E.10923
G1 X130.529 Y130.309 E.08135
G1 X129.511 Y130.582 E.03305
G1 X127.939 Y130.719 E.04947
G1 X125 Y131.185 E.0933
G1 X122.061 Y130.719 E.09331
G1 X120.489 Y130.582 E.04947
G1 X119.471 Y130.309 E.03303
G1 X116.908 Y129.903 E.08137
G1 X113.804 Y128.322 E.10924
G1 X112.011 Y127.496 E.06188
G1 X111.552 Y127.174 E.01757
G1 X109.609 Y126.184 E.06839
G1 X108.375 Y124.95 E.05473
G1 X108.303 Y124.899 E.00276
G1 X103.816 Y120.391 E.19942
G1 X102.826 Y118.448 E.06839
G1 X102.504 Y117.989 E.01758
G1 X101.678 Y116.196 E.06189
G1 X100.097 Y113.092 E.10923
G1 X99.691 Y110.529 E.08135
G1 X99.418 Y109.511 E.03305
G1 X99.281 Y107.939 E.04947
G1 X98.815 Y105 E.0933
G1 X99.281 Y102.061 E.09331
G1 X99.418 Y100.489 E.04947
G1 X99.691 Y99.471 E.03303
G1 X100.097 Y96.908 E.08137
G1 X101.678 Y93.804 E.10924
G1 X102.504 Y92.011 E.06188
G1 X102.826 Y91.552 E.01757
G1 X103.789 Y89.662 E.06651
M204 S1000
G1 X104.21 Y89.675 F10800
;WIPE_START
G1 F8640
G1 X105.05 Y88.375 E-.41627
G1 X105.101 Y88.303 E-.0203
G1 X106.093 Y87.315 E-.32343
;WIPE_END
G1 E-.04 F2100
G1 Z.6 F720
G1 X139.651 Y83.989 F10800
G1 Z.2 F720
G1 E.8 F2100
M204 S800
;TYPE:Solid infill
;WIDTH:0.422119
G1 F1200
G1 X145.644 Y90.002 E.26768
G1 X146.18 Y91.054 E.03725
G1 X138.946 Y83.82 E.32259
G1 X138.107 Y83.393 E.02968
G1 X137.69 Y83.101 E.01603
G1 X146.899 Y92.31 E.41062
G1 X147.371 Y93.318 E.03511
G1 X136.682 Y82.629 E.47665
G1 X135.666 Y82.149 E.03544
M73 P0 R71
G1 X147.851 Y94.334 E.54337
G1 X148.408 Y95.428 E.03869
M73 Q0 S71
G1 X134.572 Y81.592 E.61696
G1 X133.479 Y81.035 E.03869
G1 X148.965 Y96.521 E.69055
G1 X149.268 Y97.115 E.02101
G1 X149.314 Y97.406 E.0093
G1 X132.594 Y80.686 E.74555
G1 X131.957 Y80.585 E.02034
G1 X149.415 Y98.043 E.77847
G1 X149.516 Y98.68 E.02034
G1 X131.32 Y80.484 E.81138
G1 X130.682 Y80.383 E.02034
M73 Q1 S71
G1 X149.617 Y99.318 E.8443
G1 X149.663 Y99.608 E.00928
M73 P1 R71
G1 X149.769 Y100.007 E.01301
G1 X129.993 Y80.231 E.88183
G1 X129.396 Y80.07 E.01951
G1 X129.288 Y80.061 E.00343
G1 X149.939 Y100.712 E.92087
G1 X149.99 Y101.3 E.0186
G1 X128.7 Y80.01 E.94936
G1 X128.112 Y79.958 E.0186
G1 X150.042 Y101.888 E.97786
G1 X150.121 Y102.504 E.01958
G1 X127.496 Y79.879 E1.00886
G1 X126.859 Y79.778 E.02034
G1 X150.222 Y103.141 E1.04178
G1 X150.323 Y103.778 E.02034
G1 X126.222 Y79.677 E1.07469
G1 X125.585 Y79.576 E.02034
G1 X150.424 Y104.415 E1.1076
G1 X150.511 Y105.038 E.01983
G1 X124.962 Y79.489 E1.13924
G1 X124.499 Y79.563 E.01478
G1 X150.437 Y105.501 E1.15662
G1 X150.364 Y105.964 E.01478
G1 X124.036 Y79.636 E1.17399
G1 X123.573 Y79.709 E.01478
G1 X150.291 Y106.427 E1.19136
G1 X150.217 Y106.89 E.01478
G1 X123.11 Y79.783 E1.20874
G1 X122.647 Y79.856 E.01478
G1 X150.144 Y107.353 E1.22611
G1 X150.071 Y107.816 E.01478
G1 X122.184 Y79.929 E1.24348
G1 X121.694 Y79.975 E.01553
G1 X150.025 Y108.306 E1.2633
G1 X149.982 Y108.799 E.01561
G1 X121.201 Y80.018 E1.28337
G1 X120.708 Y80.061 E.01561
G1 X149.939 Y109.292 E1.30343
G1 X149.93 Y109.396 E.00328
G1 X149.84 Y109.73 E.01091
G1 X120.27 Y80.16 E1.31855
G1 X119.847 Y80.273 E.01381
G1 X149.727 Y110.153 E1.33236
G1 X149.631 Y110.593 E.01421
G1 X119.407 Y80.369 E1.34772
G1 X118.944 Y80.442 E.01478
G1 X149.558 Y111.056 E1.36509
G1 X149.484 Y111.519 E.01478
G1 X118.481 Y80.516 E1.38247
G1 X118.018 Y80.589 E.01478
M73 P2 R71
M73 Q2 S71
G1 X149.411 Y111.982 E1.39984
G1 X149.338 Y112.445 E.01478
G1 X117.555 Y80.662 E1.41721
G1 X117.097 Y80.741 E.01464
G1 X149.259 Y112.903 E1.43412
G1 X149.078 Y113.258 E.01257
G1 X116.742 Y80.922 E1.44189
G1 X116.387 Y81.103 E.01257
M73 P2 R70
M73 Q2 S70
G1 X148.897 Y113.613 E1.44966
G1 X148.716 Y113.968 E.01257
G1 X116.032 Y81.284 E1.45743
G1 X115.676 Y81.465 E.01257
G1 X148.535 Y114.324 E1.4652
G1 X148.354 Y114.679 E.01257
G1 X115.321 Y81.646 E1.47297
G1 X114.966 Y81.827 E.01257
G1 X148.173 Y115.034 E1.48074
G1 X147.992 Y115.39 E.01257
G1 X114.61 Y82.008 E1.48851
G1 X114.255 Y82.189 E.01257
G1 X147.811 Y115.745 E1.49628
G1 X147.636 Y116.106 E.01266
G1 X113.894 Y82.364 E1.50462
G1 X113.526 Y82.533 E.01275
G1 X147.467 Y116.474 E1.51345
G1 X147.298 Y116.841 E.01275
G1 X113.159 Y82.702 E1.52228
G1 X112.792 Y82.871 E.01275
G1 X147.129 Y117.208 E1.53111
G1 X146.96 Y117.575 E.01275
G1 X112.425 Y83.04 E1.53993
G1 X112.341 Y83.079 E.00291
G1 X112.098 Y83.249 E.00937
G1 X146.751 Y117.902 E1.5452
G1 X146.607 Y118.107 E.00788
G1 X146.544 Y118.232 E.00441
G1 X111.768 Y83.456 E1.55067
G1 X111.413 Y83.637 E.01257
M73 P3 R70
M73 Q3 S70
G1 X146.363 Y118.587 E1.55844
G1 X146.182 Y118.942 E.01257
G1 X111.058 Y83.818 E1.56621
G1 X110.703 Y83.999 E.01257
G1 X146.001 Y119.297 E1.57398
G1 X145.82 Y119.653 E.01257
G1 X110.347 Y84.18 E1.58175
G1 X109.994 Y84.363 E.01254
G1 X145.636 Y120.006 E1.58932
G1 X145.368 Y120.274 E.01196
G1 X109.725 Y84.631 E1.58935
G1 X109.457 Y84.898 E.01196
G1 X145.1 Y120.542 E1.58938
G1 X144.832 Y120.81 E.01196
G1 X109.188 Y85.166 E1.5894
G1 X108.919 Y85.433 E.01196
G1 X144.564 Y121.078 E1.58943
G1 X144.392 Y121.271 E.00814
G1 X144.306 Y121.357 E.00383
G1 X108.65 Y85.701 E1.58993
G1 X108.382 Y85.968 E.01196
M73 P3 R69
G1 X144.037 Y121.624 E1.58993
G1 X143.769 Y121.892 E.01196
M73 Q3 S69
G1 X108.113 Y86.236 E1.58993
G1 X107.844 Y86.503 E.01196
G1 X143.5 Y122.159 E1.58993
G1 X143.231 Y122.427 E.01196
G1 X107.575 Y86.771 E1.58993
G1 X107.306 Y87.038 E.01196
G1 X142.962 Y122.694 E1.58993
G1 X142.694 Y122.962 E.01196
G1 X107.038 Y87.306 E1.58993
G1 X106.769 Y87.573 E.01196
G1 X142.425 Y123.229 E1.58993
G1 X142.156 Y123.497 E.01196
M73 P4 R69
M73 Q4 S69
G1 X106.5 Y87.841 E1.58993
G1 X106.231 Y88.108 E.01196
G1 X141.887 Y123.764 E1.58993
G1 X141.618 Y124.032 E.01196
G1 X105.963 Y88.376 E1.58993
G1 X105.694 Y88.643 E.01196
G1 X141.35 Y124.299 E1.58993
G1 X141.081 Y124.567 E.01196
G1 X105.436 Y88.922 E1.58943
G1 X105.168 Y89.19 E.01196
G1 X140.812 Y124.834 E1.5894
G1 X140.543 Y125.102 E.01196
G1 X104.9 Y89.458 E1.58938
G1 X104.632 Y89.726 E.01196
G1 X140.275 Y125.369 E1.58935
G1 X140.006 Y125.637 E.01196
G1 X104.364 Y89.994 E1.58932
G1 X104.18 Y90.347 E.01254
G1 X139.653 Y125.82 E1.58175
G1 X139.297 Y126.001 E.01257
G1 X103.999 Y90.703 E1.57398
G1 X103.818 Y91.058 E.01257
G1 X138.942 Y126.182 E1.56621
G1 X138.587 Y126.363 E.01257
G1 X103.637 Y91.413 E1.55844
G1 X103.456 Y91.768 E.01257
G1 X138.232 Y126.544 E1.55067
G1 X137.902 Y126.751 E.01226
G1 X103.249 Y92.098 E1.5452
G1 X103.079 Y92.341 E.00937
G1 X103.04 Y92.425 E.0029
G1 X137.575 Y126.96 E1.53993
G1 X137.208 Y127.129 E.01275
G1 X102.871 Y92.792 E1.53111
G1 X102.702 Y93.159 E.01275
M73 P4 R68
M73 Q4 S68
G1 X136.841 Y127.298 E1.52228
G1 X136.474 Y127.467 E.01275
M73 P5 R68
M73 Q5 S68
G1 X102.533 Y93.526 E1.51345
G1 X102.364 Y93.894 E.01275
G1 X136.107 Y127.636 E1.50462
G1 X135.745 Y127.811 E.01266
G1 X102.189 Y94.255 E1.49628
G1 X102.008 Y94.61 E.01257
G1 X135.39 Y127.992 E1.48851
G1 X135.034 Y128.173 E.01257
G1 X101.827 Y94.966 E1.48074
G1 X101.646 Y95.321 E.01257
G1 X134.679 Y128.354 E1.47297
G1 X134.324 Y128.535 E.01257
G1 X101.465 Y95.676 E1.4652
G1 X101.284 Y96.031 E.01257
G1 X133.969 Y128.716 E1.45743
G1 X133.613 Y128.897 E.01257
G1 X101.103 Y96.387 E1.44966
G1 X100.922 Y96.742 E.01257
G1 X133.258 Y129.078 E1.44189
G1 X132.903 Y129.259 E.01257
G1 X100.741 Y97.097 E1.43412
G1 X100.662 Y97.555 E.01464
G1 X132.445 Y129.338 E1.41722
G1 X131.982 Y129.411 E.01478
G1 X100.589 Y98.018 E1.39984
G1 X100.516 Y98.481 E.01478
G1 X131.519 Y129.484 E1.38247
G1 X131.056 Y129.558 E.01478
G1 X100.442 Y98.944 E1.3651
G1 X100.369 Y99.407 E.01478
G1 X130.593 Y129.631 E1.34772
G1 X130.153 Y129.727 E.01421
G1 X100.273 Y99.847 E1.33236
G1 X100.16 Y100.27 E.01381
G1 X129.73 Y129.84 E1.31855
G1 X129.396 Y129.93 E.01091
M73 Q6 S68
G1 X129.292 Y129.939 E.00328
G1 X100.061 Y100.708 E1.30343
G1 X100.018 Y101.201 E.01561
M73 P6 R68
G1 X128.799 Y129.982 E1.28337
G1 X128.306 Y130.025 E.01561
G1 X99.975 Y101.694 E1.2633
G1 X99.929 Y102.184 E.01553
G1 X127.816 Y130.071 E1.24348
G1 X127.353 Y130.144 E.01478
G1 X99.856 Y102.647 E1.22611
G1 X99.783 Y103.11 E.01478
G1 X126.89 Y130.217 E1.20874
G1 X126.427 Y130.291 E.01478
G1 X99.709 Y103.573 E1.19136
G1 X99.636 Y104.036 E.01478
G1 X125.964 Y130.364 E1.17399
G1 X125.501 Y130.437 E.01478
M73 P6 R67
M73 Q6 S67
G1 X99.563 Y104.499 E1.15662
G1 X99.489 Y104.962 E.01478
G1 X125.038 Y130.511 E1.13924
G1 X124.415 Y130.424 E.01983
G1 X99.576 Y105.585 E1.10761
G1 X99.677 Y106.222 E.02034
G1 X123.778 Y130.323 E1.07469
G1 X123.141 Y130.222 E.02034
G1 X99.778 Y106.859 E1.04178
G1 X99.879 Y107.496 E.02034
G1 X122.504 Y130.121 E1.00887
G1 X121.888 Y130.042 E.01958
G1 X99.958 Y108.112 E.97786
G1 X100.01 Y108.7 E.0186
G1 X121.3 Y129.99 E.94936
G1 X120.712 Y129.939 E.0186
G1 X100.061 Y109.288 E.92087
G1 X100.07 Y109.396 E.00343
G1 X100.231 Y109.993 E.0195
G1 X120.007 Y129.769 E.88183
G1 X119.609 Y129.663 E.01298
G1 X119.318 Y129.617 E.0093
G1 X100.383 Y110.682 E.8443
G1 X100.484 Y111.32 E.02034
G1 X118.68 Y129.516 E.81138
G1 X118.043 Y129.415 E.02034
G1 X100.585 Y111.957 E.77847
G1 X100.686 Y112.594 E.02034
G1 X117.406 Y129.314 E.74556
G1 X117.115 Y129.268 E.0093
G1 X116.521 Y128.965 E.021
G1 X101.035 Y113.479 E.69056
G1 X101.592 Y114.572 E.03869
G1 X115.428 Y128.408 E.61697
G1 X114.335 Y127.851 E.03869
G1 X102.149 Y115.666 E.54337
G1 X102.629 Y116.682 E.03544
G1 X113.318 Y127.371 E.47665
G1 X112.31 Y126.899 E.03511
G1 X103.101 Y117.69 E.41063
G1 X103.393 Y118.107 E.01605
G1 X103.82 Y118.945 E.02967
G1 X111.055 Y126.18 E.3226
G1 X110.002 Y125.644 E.03726
G1 X103.989 Y119.651 E.26768
M204 S1000
; stop printing object Boardgame Dish(1).stl id:0 copy 0
M106 S84.15
;LAYER_CHANGE
;Z:0.35
;HEIGHT:0.15
;BEFORE_LAYER_CHANGE
G92 E0.0
;0.35


;WIPE_START
G1 F8640
