; generated by PrusaSlicer 2.4.1+win64 on 2022-04-18 at 17:46:43 UTC

; 

; external perimeters extrusion width = 0.45mm
; perimeters extrusion width = 0.45mm
; infill extrusion width = 0.45mm
; solid infill extrusion width = 0.45mm
; top infill extrusion width = 0.40mm
; first layer extrusion width = 0.42mm

M73 P0 R48
M73 Q0 S48
M201 X1000 Y1000 Z200 E5000 ; sets maximum accelerations, mm/sec^2
M203 X200 Y200 Z12 E120 ; sets maximum feedrates, mm / sec
M204 P1250 R1250 T1250 ; sets acceleration (P, T) and retract acceleration (R), mm/sec^2
M205 X8.00 Y8.00 Z0.40 E4.50 ; sets the jerk limits, mm/sec
M205 S0 T0 ; sets the minimum extruding and travel feed rate, mm/sec
M107
;TYPE:Custom
M862.3 P "MK3S" ; printer model check
M862.1 P0.4 ; nozzle diameter check
M115 U3.10.1 ; tell printer latest fw version
G90 ; use absolute coordinates
M83 ; extruder relative mode
M140 S60 ; set bed temp
M190 S60 ; wait for bed temp
G4 S60 ; Wait a full minute after bed heated up
M104 S215 ; set extruder temp
M140 S60 ; set bed temp
M190 S60 ; wait for bed temp
M109 S215 ; wait for extruder temp
G28 W ; home all without mesh bed level
G80 ; mesh bed leveling
G1 Z0.2 F720
G1 Y-3 F1000 ; go outside print area
G92 E0
G1 X60 E9 F1000 ; intro line
G1 X100 E12.5 F1000 ; intro line
G92 E0
M221 S95

; Don't change E values below. Excessive value can damage the printer.
M907 E430 ; set extruder motor current
G21 ; set units to millimeters
G90 ; use absolute coordinates
M83 ; use relative distances for extrusion
M900 K0.05 ; Filament gcode LA 1.5
M900 K30 ; Filament gcode LA 1.0
M107
;LAYER_CHANGE
;Z:0.2
;HEIGHT:0.2
;BEFORE_LAYER_CHANGE
G92 E0.0
;0.2


G1 E-.8 F2100
G1 Z.4 F720
;AFTER_LAYER_CHANGE
;0.2
G1 X114.128 Y94.553 F10800
G1 Z.2 F720
G1 E.8 F2100
M204 S800
;TYPE:Skirt/Brim
;WIDTH:0.42
G1 F1200
G1 X114.553 Y94.128 E.01885
G1 X116.5 Y93.321 E.06609
G1 X133.5 Y93.321 E.53302
G1 X135.447 Y94.128 E.06609
G1 X135.872 Y94.553 E.01885
G1 X136.679 Y96.5 E.06609
G1 X136.679 Y113.5 E.53302
G1 X135.872 Y115.447 E.06609
G1 X135.447 Y115.872 E.01885
G1 X133.5 Y116.679 E.06609
G1 X116.5 Y116.679 E.53302
G1 X114.553 Y115.872 E.06609
G1 X114.128 Y115.447 E.01885
G1 X113.321 Y113.5 E.06609
G1 X113.321 Y96.5 E.53302
G1 X114.105 Y94.608 E.06421
M204 S1000
G1 X114.394 Y94.819 F10800
M204 S800
G1 F1200
G1 X114.819 Y94.394 E.01885
G1 X116.5 Y93.698 E.05704
G1 X133.5 Y93.698 E.53302
G1 X135.181 Y94.394 E.05704
G1 X135.606 Y94.819 E.01885
G1 X136.302 Y96.5 E.05704
G1 X136.302 Y113.5 E.53302
G1 X135.606 Y115.181 E.05704
G1 X135.181 Y115.606 E.01885
G1 X133.5 Y116.302 E.05704
G1 X116.5 Y116.302 E.53302
G1 X114.819 Y115.606 E.05704
G1 X114.394 Y115.181 E.01885
G1 X113.698 Y113.5 E.05704
G1 X113.698 Y96.5 E.53302
G1 X114.371 Y94.875 E.05516
M204 S1000
; printing object Electric dice.STL id:0 copy 0
;WIPE_START
G1 F8640
G1 X114.819 Y94.394 E-.15167
G1 X116.5 Y93.698 E-.42009
G1 X117.315 Y93.698 E-.18824
;WIPE_END
G1 E-.04 F2100
G1 Z.6 F720
G1 X126.934 Y111.259 F10800
G1 Z.2 F720
G1 E.8 F2100
M204 S800
;TYPE:Perimeter
G1 F1200
G1 X126.963 Y111.259 E.00092
G1 X127.177 Y111.686 E.01497
G1 X127.425 Y112.045 E.01367
G1 X127.732 Y112.382 E.01431
G1 X128.108 Y112.69 E.01522
G1 X128.317 Y112.814 E.00762
G1 X126.287 Y112.813 E.06363
G1 X126.287 Y112.327 E.01526
G1 X126.903 Y111.31 E.03726
M204 S1000
;WIPE_START
G1 F8640
G1 X126.963 Y111.259 E-.01829
G1 X127.177 Y111.686 E-.11023
G1 X127.425 Y112.045 E-.10067
G1 X127.732 Y112.382 E-.10538
G1 X128.108 Y112.69 E-.11212
G1 X128.317 Y112.814 E-.05614
G1 X127.203 Y112.814 E-.25718
;WIPE_END
G1 E-.04 F2100
G1 Z.6 F720
G1 X131.694 Y112.814 F10800
G1 Z.2 F720
G1 E.8 F2100
M204 S800
G1 F1200
G1 X132.04 Y112.579 E.01312
G1 X132.38 Y112.27 E.01441
G1 X132.671 Y111.917 E.01434
G1 X132.814 Y111.688 E.00848
G1 X132.813 Y112.813 E.0353
G1 X131.754 Y112.814 E.03322
M204 S1000
;WIPE_START
G1 F8640
G1 X132.04 Y112.579 E-.08552
G1 X132.38 Y112.27 E-.10611
G1 X132.671 Y111.917 E-.10562
G1 X132.814 Y111.688 E-.06248
G1 X132.813 Y112.813 E-.25994
G1 X132.206 Y112.814 E-.14033
;WIPE_END
G1 E-.04 F2100
G1 Z.6 F720
G1 X132.814 Y98.311 F10800
G1 Z.2 F720
G1 E.8 F2100
M204 S800
G1 F1200
G1 X132.719 Y98.151 E.00583
G1 X132.493 Y97.856 E.01165
G1 X132.253 Y97.605 E.0109
G1 X131.97 Y97.367 E.01158
G1 X131.7 Y97.187 E.01018
G1 X132.813 Y97.187 E.03491
G1 X132.814 Y98.251 E.03335
M204 S1000
;WIPE_START
G1 F8640
G1 X132.719 Y98.151 E-.03181
G1 X132.493 Y97.856 E-.08578
G1 X132.253 Y97.605 E-.0803
G1 X131.97 Y97.367 E-.0853
G1 X131.7 Y97.187 E-.07497
G1 X132.813 Y97.187 E-.2571
G1 X132.814 Y97.814 E-.14473
;WIPE_END
G1 E-.04 F2100
G1 Z.6 F720
G1 X125.484 Y108.685 F10800
G1 Z.2 F720
G1 E.8 F2100
M204 S800
G1 F1200
G1 X123.713 Y111.607 E.10714
G1 X123.713 Y112.814 E.03783
G1 X121.681 Y112.817 E.0637
G1 X121.912 Y112.675 E.00851
G1 X122.227 Y112.419 E.0127
G1 X122.522 Y112.11 E.01341
G1 X122.76 Y111.787 E.01258
G1 X122.946 Y111.461 E.01177
G1 X123.102 Y111.092 E.01255
G1 X123.214 Y110.698 E.01285
G1 X123.286 Y110.122 E.01819
G1 X123.281 Y109.793 E.01034
G1 X123.241 Y109.44 E.01114
G1 X123.083 Y108.855 E.01898
G1 X122.941 Y108.53 E.01115
G1 X122.779 Y108.243 E.01032
G1 X122.43 Y107.784 E.01808
G1 X122.196 Y107.553 E.0103
G1 X121.938 Y107.344 E.01042
G1 X121.423 Y107.035 E.01882
G1 X121.239 Y106.959 E.00625
G1 X121.239 Y104.217 E.08599
G1 X117.186 Y104.217 E.12708
G1 X117.183 Y101.67 E.07986
G1 X117.322 Y101.911 E.00872
G1 X117.726 Y102.376 E.01931
G1 X117.977 Y102.592 E.01038
G1 X118.267 Y102.795 E.0111
G1 X118.787 Y103.057 E.01825
G1 X119.12 Y103.168 E.01102
G1 X119.43 Y103.238 E.00995
G1 X119.769 Y103.28 E.01071
G1 X120.089 Y103.287 E.01002
G1 X120.455 Y103.256 E.01152
G1 X120.769 Y103.197 E.01003
G1 X121.096 Y103.1 E.01071
G1 X121.395 Y102.977 E.0101
G1 X121.716 Y102.805 E.01143
G1 X121.98 Y102.624 E.01004
G1 X122.226 Y102.417 E.01008
G1 X122.46 Y102.175 E.01057
G1 X122.532 Y102.069 E.00399
G1 X122.523 Y102.845 E.02432
G1 X122.21 Y103.261 E.01632
G1 X122.018 Y103.614 E.01262
G1 X121.872 Y103.988 E.01257
G1 X121.772 Y104.376 E.01257
G1 X121.72 Y104.773 E.01255
G1 X121.715 Y105.148 E.01177
G1 X121.758 Y105.552 E.01275
G1 X121.892 Y106.076 E.01694
G1 X122.127 Y106.602 E.01807
G1 X122.463 Y107.094 E.01869
G1 X122.866 Y107.503 E.01801
G1 X123.334 Y107.837 E.01802
G1 X123.876 Y108.091 E.01876
G1 X124.41 Y108.236 E.01735
G1 X124.991 Y108.288 E.0183
G1 X125.319 Y108.272 E.01031
G1 X125.671 Y108.219 E.01115
G1 X126.249 Y108.042 E.01894
G1 X126.548 Y107.901 E.01038
G1 X126.841 Y107.724 E.01071
G1 X127.098 Y107.531 E.0101
G1 X127.376 Y107.274 E.01186
G1 X127.752 Y106.8 E.01898
G1 X127.921 Y106.51 E.0105
G1 X128.071 Y106.176 E.01149
G1 X128.177 Y105.848 E.0108
G1 X128.251 Y105.499 E.0112
G1 X128.287 Y104.894 E.01899
G1 X128.255 Y104.538 E.01122
G1 X128.183 Y104.175 E.01161
G1 X128.078 Y103.844 E.01088
G1 X127.929 Y103.506 E.01159
G1 X127.754 Y103.204 E.01093
G1 X127.553 Y102.929 E.01069
G1 X127.322 Y102.673 E.01081
G1 X127.067 Y102.443 E.01077
G1 X126.788 Y102.241 E.0108
G1 X126.49 Y102.069 E.0108
G1 X126.174 Y101.929 E.01084
G1 X125.821 Y101.816 E.01161
G1 X125.48 Y101.747 E.01091
G1 X125.096 Y101.716 E.01209
G1 X125.096 Y97.187 E.14199
G1 X128.303 Y97.187 E.10057
G1 X128.1 Y97.317 E.00758
G1 X127.849 Y97.514 E.01
G1 X127.62 Y97.732 E.00993
G1 X127.399 Y97.989 E.0106
G1 X127.217 Y98.25 E.01
G1 X127.046 Y98.556 E.01098
G1 X126.875 Y98.974 E.01417
G1 X126.759 Y99.445 E.01519
G1 X126.713 Y99.905 E.01452
G1 X126.738 Y100.42 E.01617
G1 X126.861 Y100.983 E.01806
G1 X127.102 Y101.557 E.01952
G1 X127.421 Y102.041 E.01818
G1 X127.831 Y102.473 E.01869
G1 X128.299 Y102.815 E.01815
G1 X128.836 Y103.077 E.01874
G1 X129.414 Y103.237 E.01881
G1 X129.988 Y103.289 E.01808
G1 X130.584 Y103.237 E.01874
G1 X131.115 Y103.095 E.01725
G1 X131.658 Y102.841 E.01877
G1 X132.147 Y102.492 E.01886
G1 X132.564 Y102.06 E.01883
G1 X132.815 Y101.687 E.0141
G1 X132.815 Y108.317 E.20788
G1 X132.701 Y108.124 E.00703
G1 X132.428 Y107.782 E.0137
G1 X132.099 Y107.469 E.01425
G1 X131.728 Y107.202 E.01434
G1 X131.345 Y106.999 E.01357
G1 X130.916 Y106.842 E.01434
G1 X130.468 Y106.745 E.01438
G1 X130.007 Y106.711 E.01449
G1 X129.464 Y106.755 E.01706
G1 X128.94 Y106.886 E.01694
G1 X128.461 Y107.093 E.01636
G1 X128.008 Y107.383 E.01689
G1 X127.621 Y107.729 E.01625
G1 X127.28 Y108.151 E.01704
G1 X126.99 Y108.685 E.01903
G1 X125.544 Y108.685 E.04533
M204 S1000
;WIPE_START
G1 F8640
G1 X123.796 Y111.474 E-.76
;WIPE_END
G1 E-.04 F2100
G1 Z.6 F720
G1 X121.69 Y97.185 F10800
G1 Z.2 F720
G1 E.8 F2100
M204 S800
G1 F1200
G1 X122.524 Y97.186 E.02615
G1 X122.53 Y97.922 E.02307
G1 X122.285 Y97.64 E.01169
G1 X122.048 Y97.428 E.00997
G1 X121.742 Y97.215 E.01169
M204 S1000
G1 X121.555 Y97.543 F10800
M204 S800
;TYPE:External perimeter
G1 F1200
G1 X121.812 Y97.723 E.00983
G1 X122.182 Y98.083 E.01619
G1 X122.451 Y98.497 E.0155
G1 X122.555 Y98.766 E.00905
G1 X122.667 Y99.288 E.01672
G1 X122.715 Y99.884 E.01875
G1 X122.692 Y100.503 E.01944
G1 X122.592 Y101.116 E.01947
G1 X122.44 Y101.53 E.01382
G1 X122.166 Y101.937 E.01536
G1 X121.968 Y102.141 E.00893
G1 X121.752 Y102.324 E.00889
G1 X121.52 Y102.482 E.00881
G1 X121.233 Y102.636 E.01019
G1 X120.971 Y102.743 E.00889
G1 X120.68 Y102.83 E.00952
G1 X120.404 Y102.882 E.00882
G1 X120.077 Y102.909 E.01028
G1 X119.796 Y102.903 E.00881
G1 X119.495 Y102.866 E.00952
G1 X119.222 Y102.804 E.00877
G1 X118.932 Y102.707 E.00958
G1 X118.461 Y102.47 E.01654
G1 X118.209 Y102.294 E.00966
G1 X117.993 Y102.108 E.00893
G1 X117.631 Y101.691 E.01732
G1 X117.363 Y101.227 E.01679
G1 X117.204 Y100.748 E.01581
G1 X117.164 Y100.514 E.00746
G1 X117.14 Y100.121 E.01235
G1 X117.163 Y99.494 E.01968
G1 X117.208 Y99.234 E.00825
G1 X117.279 Y98.991 E.00795
G1 X117.385 Y98.727 E.0089
G1 X117.532 Y98.459 E.00959
G1 X117.692 Y98.228 E.00881
G1 X117.889 Y97.996 E.00955
G1 X118.11 Y97.787 E.00954
G1 X118.331 Y97.616 E.00877
G1 X118.569 Y97.467 E.00879
G1 X118.819 Y97.344 E.00875
G1 X119.111 Y97.241 E.0097
G1 X119.363 Y97.183 E.00813
G1 X119.951 Y97.138 E.01849
G1 X120.534 Y97.166 E.0183
G1 X120.792 Y97.213 E.00821
G1 X121.082 Y97.305 E.00956
G1 X121.319 Y97.408 E.0081
G1 X121.503 Y97.513 E.00663
M204 S1000
G1 X121.833 Y97.397 F10800
;WIPE_START
G1 F8640
G1 X121.812 Y97.723 E-.08622
G1 X122.182 Y98.083 E-.1192
G1 X122.451 Y98.497 E-.11413
G1 X122.555 Y98.766 E-.06663
G1 X122.667 Y99.288 E-.12316
G1 X122.715 Y99.884 E-.13808
G1 X122.697 Y100.371 E-.11258
;WIPE_END
G1 E-.04 F2100
G1 Z.6 F720
G1 X118.308 Y97.186 F10800
G1 Z.2 F720
G1 E.8 F2100
M204 S800
;TYPE:Perimeter
G1 F1200
G1 X118.115 Y97.306 E.00712
G1 X117.864 Y97.5 E.00995
G1 X117.615 Y97.736 E.01076
G1 X117.392 Y97.998 E.01078
G1 X117.182 Y98.313 E.01188
G1 X117.185 Y97.187 E.03532
G1 X118.248 Y97.186 E.03332
M204 S1000
;WIPE_START
G1 F8640
G1 X118.115 Y97.306 E-.04133
G1 X117.864 Y97.5 E-.07331
G1 X117.615 Y97.736 E-.07922
G1 X117.392 Y97.998 E-.07935
G1 X117.182 Y98.313 E-.08747
G1 X117.185 Y97.187 E-.26008
G1 X117.788 Y97.186 E-.13925
;WIPE_END
G1 E-.04 F2100
G1 Z.6 F720
G1 X118.665 Y106.996 F10800
G1 Z.2 F720
G1 E.8 F2100
M204 S800
G1 F1200
G1 X118.251 Y107.215 E.01469
G1 X117.88 Y107.486 E.01442
G1 X117.551 Y107.806 E.01437
G1 X117.269 Y108.168 E.0144
G1 X117.186 Y108.314 E.00527
G1 X117.187 Y106.791 E.04775
G1 X118.665 Y106.791 E.04636
G1 X118.665 Y106.936 E.00453
M204 S1000
;WIPE_START
G1 F8640
G1 X118.251 Y107.215 E-.11535
G1 X117.88 Y107.486 E-.10622
G1 X117.551 Y107.806 E-.10583
G1 X117.269 Y108.168 E-.10604
G1 X117.186 Y108.314 E-.0388
G1 X117.186 Y107.068 E-.28776
;WIPE_END
G1 E-.04 F2100
G1 Z.6 F720
G1 X118.313 Y112.818 F10800
G1 Z.2 F720
G1 E.8 F2100
M204 S800
G1 F1200
G1 X117.187 Y112.815 E.03532
G1 X117.186 Y111.69 E.03526
G1 X117.395 Y112.007 E.01191
G1 X117.7 Y112.351 E.01441
G1 X118.048 Y112.646 E.0143
G1 X118.263 Y112.785 E.00803
M204 S1000
;WIPE_START
G1 F8640
G1 X117.187 Y112.815 E-.2486
G1 X117.186 Y111.69 E-.25968
G1 X117.395 Y112.007 E-.08774
G1 X117.7 Y112.351 E-.10614
G1 X117.891 Y112.513 E-.05784
;WIPE_END
G1 E-.04 F2100
G1 Z.6 F720
G1 X125.697 Y109.062 F10800
G1 Z.2 F720
G1 E.8 F2100
M204 S800
;TYPE:External perimeter
G1 F1200
G1 X124.09 Y111.713 E.09718
G1 X124.09 Y113.19 E.04633
G1 X121.203 Y113.195 E.09053
G1 X119.795 Y113.235 E.04414
G1 X118.858 Y113.196 E.02943
G1 X116.81 Y113.191 E.06421
G1 X116.808 Y111.498 E.05308
G1 X116.762 Y110.002 E.04692
G1 X116.808 Y108.506 E.04692
G1 X116.81 Y106.414 E.06559
G1 X119.042 Y106.414 E.07
G1 X119.042 Y107.258 E.02646
G1 X118.832 Y107.334 E.00702
G1 X118.452 Y107.536 E.01348
G1 X118.123 Y107.775 E.01274
G1 X117.832 Y108.058 E.01271
G1 X117.583 Y108.379 E.01274
G1 X117.392 Y108.712 E.01205
G1 X117.239 Y109.116 E.01354
G1 X117.169 Y109.448 E.01063
G1 X117.138 Y109.958 E.01603
G1 X117.157 Y110.444 E.01526
G1 X117.214 Y110.796 E.01116
G1 X117.309 Y111.092 E.00975
G1 X117.471 Y111.437 E.01196
G1 X117.695 Y111.777 E.01276
G1 X117.965 Y112.08 E.01274
M73 Q1 S48
G1 X118.273 Y112.343 E.0127
G1 X118.552 Y112.523 E.0104
G1 X118.828 Y112.66 E.00967
G1 X119.189 Y112.782 E.01193
G1 X119.47 Y112.834 E.00898
G1 X119.958 Y112.862 E.01531
G1 X120.467 Y112.841 E.01598
G1 X120.771 Y112.791 E.00967
G1 X121.089 Y112.692 E.01042
G1 X121.37 Y112.566 E.00967
G1 X121.694 Y112.367 E.01193
G1 X121.97 Y112.142 E.01118
G1 X122.233 Y111.867 E.01191
G1 X122.443 Y111.581 E.01114
G1 X122.607 Y111.294 E.01037
G1 X122.745 Y110.967 E.01113
G1 X122.843 Y110.622 E.01123
G1 X122.909 Y110.101 E.01646
G1 X122.905 Y109.817 E.00892
M73 P1 R48
G1 X122.869 Y109.511 E.00966
G1 X122.726 Y108.981 E.01722
G1 X122.603 Y108.698 E.00968
G1 X122.464 Y108.45 E.0089
G1 X122.146 Y108.034 E.01643
G1 X121.944 Y107.834 E.0089
G1 X121.721 Y107.653 E.009
G1 X121.254 Y107.373 E.01709
G1 X120.862 Y107.224 E.01314
G1 X120.862 Y104.594 E.08245
G1 X116.81 Y104.594 E.12706
G1 X116.805 Y101.221 E.10575
G1 X116.764 Y99.808 E.04432
M73 P1 R47
G1 X116.803 Y98.867 E.02955
G1 X116.809 Y96.81 E.0645
G1 X118.449 Y96.809 E.0514
G1 X119.906 Y96.762 E.0457
G1 X121.359 Y96.808 E.04561
G1 X122.9 Y96.81 E.04829
G1 X122.904 Y97.854 E.03275
G1 X122.93 Y98.35 E.01558
G1 X123.057 Y99.318 E.03059
G1 X123.089 Y99.786 E.01473
G1 X123.088 Y100.254 E.01466
G1 X123.052 Y100.724 E.01477
G1 X122.927 Y101.692 E.03061
G1 X122.903 Y102.188 E.01556
G1 X122.899 Y102.991 E.0252
G1 X122.735 Y103.172 E.00764
G1 X122.53 Y103.46 E.01111
G1 X122.361 Y103.774 E.01117
G1 X122.231 Y104.104 E.01112
G1 X122.143 Y104.448 E.01113
G1 X122.097 Y104.8 E.01113
G1 X122.093 Y105.13 E.01037
G1 X122.13 Y105.485 E.0112
G1 X122.249 Y105.951 E.01507
G1 X122.457 Y106.417 E.01599
G1 X122.755 Y106.853 E.01657
G1 X123.112 Y107.215 E.01592
G1 X123.526 Y107.51 E.01592
G1 X124.006 Y107.736 E.01666
G1 X124.476 Y107.863 E.01527
G1 X124.999 Y107.91 E.01644
G1 X125.282 Y107.897 E.00889
G1 X125.587 Y107.851 E.00968
G1 X126.112 Y107.69 E.0172
G1 X126.369 Y107.568 E.00893
G1 X126.63 Y107.411 E.00952
G1 X126.856 Y107.241 E.00888
G1 X127.098 Y107.017 E.01034
G1 X127.44 Y106.587 E.01722
G1 X127.585 Y106.338 E.00903
G1 X127.718 Y106.04 E.01023
G1 X127.812 Y105.751 E.00954
G1 X127.876 Y105.448 E.0097
G1 X127.909 Y104.9 E.01723
G1 X127.882 Y104.592 E.00969
G1 X127.817 Y104.269 E.01032
G1 X127.725 Y103.977 E.00959
G1 X127.592 Y103.677 E.01029
G1 X127.438 Y103.41 E.00966
G1 X127.26 Y103.167 E.00945
G1 X127.056 Y102.94 E.00957
G1 X126.83 Y102.737 E.00953
G1 X126.583 Y102.558 E.00956
G1 X126.319 Y102.406 E.00956
G1 X126.04 Y102.282 E.00958
G1 X125.726 Y102.182 E.01032
G1 X125.425 Y102.121 E.00964
G1 X125.123 Y102.092 E.00949
G1 X124.719 Y102.107 E.01269
G1 X124.719 Y96.81 E.16607
G1 X128.95 Y96.81 E.13268
G1 X128.95 Y97.29 E.01504
G1 X128.554 Y97.475 E.01373
G1 X128.318 Y97.625 E.00877
G1 X128.096 Y97.799 E.00885
G1 X127.893 Y97.992 E.00877
G1 X127.698 Y98.22 E.00942
G1 X127.537 Y98.45 E.00881
G1 X127.386 Y98.72 E.00966
G1 X127.235 Y99.092 E.0126
G1 X127.131 Y99.509 E.01349
G1 X127.091 Y99.915 E.01278
G1 X127.113 Y100.371 E.0143
G1 X127.222 Y100.869 E.01599
G1 X127.436 Y101.379 E.01735
G1 X127.717 Y101.806 E.01603
G1 X128.081 Y102.189 E.01657
G1 X128.494 Y102.491 E.01603
G1 X128.97 Y102.723 E.0166
