; generated by PrusaSlicer 2.4.1+win64 on 2022-04-19 at 01:23:34 UTC

; 

; external perimeters extrusion width = 0.45mm
; perimeters extrusion width = 0.45mm
; infill extrusion width = 0.45mm
; solid infill extrusion width = 0.45mm
; top infill extrusion width = 0.40mm
; first layer extrusion width = 0.42mm

M73 P0 R45
M73 Q0 S45
M201 X1000 Y1000 Z200 E5000 ; sets maximum accelerations, mm/sec^2
M203 X200 Y200 Z12 E120 ; sets maximum feedrates, mm / sec
M204 P1250 R1250 T1250 ; sets acceleration (P, T) and retract acceleration (R), mm/sec^2
M205 X8.00 Y8.00 Z0.40 E4.50 ; sets the jerk limits, mm/sec
M205 S0 T0 ; sets the minimum extruding and travel feed rate, mm/sec
M107
;TYPE:Custom
M862.3 P "MK3S" ; printer model check
M862.1 P0.4 ; nozzle diameter check
M115 U3.10.1 ; tell printer latest fw version
G90 ; use absolute coordinates
M83 ; extruder relative mode
M104 S215 ; set extruder temp
M140 S60 ; set bed temp
M190 S60 ; wait for bed temp
M109 S215 ; wait for extruder temp
G28 W ; home all without mesh bed level
G80 ; mesh bed leveling
G1 Z0.2 F720
G1 Y-3 F1000 ; go outside print area
G92 E0
G1 X60 E9 F1000 ; intro line
G1 X100 E12.5 F1000 ; intro line
G92 E0
M221 S95

; Don't change E values below. Excessive value can damage the printer.
M907 E430 ; set extruder motor current
G21 ; set units to millimeters
G90 ; use absolute coordinates
M83 ; use relative distances for extrusion
M900 K0.05 ; Filament gcode LA 1.5
M900 K30 ; Filament gcode LA 1.0
M107
;LAYER_CHANGE
;Z:0.2
;HEIGHT:0.2
;BEFORE_LAYER_CHANGE
G92 E0.0
;0.2


G1 E-.8 F2100
G1 Z.4 F720
;AFTER_LAYER_CHANGE
;0.2
G1 X102.408 Y107.866 F10800
G1 Z.2 F720
G1 E.8 F2100
M204 S800
;TYPE:Skirt/Brim
;WIDTH:0.42
G1 F1200
G1 X104.355 Y107.06 E.06609
G1 X141.453 Y107.088 E1.16317
G1 X143.397 Y107.895 E.066
G1 X143.822 Y108.32 E.01885
G1 X144.629 Y110.267 E.06609
G1 X144.629 Y122.867 E.39506
G1 X143.822 Y124.815 E.06609
G1 X143.397 Y125.24 E.01885
G1 X141.45 Y126.047 E.06609
G1 X104.352 Y126.018 E1.16317
G1 X102.408 Y125.211 E.066
G1 X101.983 Y124.786 E.01885
G1 X101.176 Y122.839 E.06609
G1 X101.176 Y110.239 E.39506
G1 X101.983 Y108.291 E.06609
G1 X102.365 Y107.909 E.01696
M204 S1000
G1 X102.632 Y108.175 F10800
M204 S800
G1 F1200
G1 X102.674 Y108.133 E.00188
G1 X104.355 Y107.437 E.05704
G1 X141.453 Y107.465 E1.16316
G1 X143.131 Y108.162 E.05696
G1 X143.556 Y108.587 E.01885
G1 X144.252 Y110.267 E.05704
G1 X144.252 Y122.867 E.39506
G1 X143.556 Y124.548 E.05704
G1 X143.131 Y124.973 E.01885
G1 X141.45 Y125.669 E.05704
G1 X104.352 Y125.641 E1.16316
G1 X102.674 Y124.945 E.05696
G1 X102.249 Y124.52 E.01885
G1 X101.553 Y122.839 E.05704
G1 X101.553 Y110.239 E.39506
G1 X102.249 Y108.558 E.05704
G1 X102.59 Y108.218 E.01508
M204 S1000
; printing object Future dice.STL id:0 copy 1
;WIPE_START
G1 F8640
G1 X102.674 Y108.133 E-.02771
G1 X104.355 Y107.437 E-.42009
G1 X105.707 Y107.438 E-.3122
;WIPE_END
G1 E-.04 F2100
G1 Z.6 F720
G1 X129.537 Y116.354 F10800
G1 Z.2 F720
G1 E.8 F2100
M204 S800
;TYPE:Perimeter
G1 F1200
G1 X140.763 Y116.354 E.35198
G1 X140.763 Y122.18 E.18267
G1 X129.537 Y122.18 E.35198
G1 X129.537 Y116.414 E.18078
M204 S1000
G1 X129.16 Y115.977 F10800
M204 S800
;TYPE:External perimeter
G1 F1200
G1 X141.14 Y115.977 E.37562
G1 X141.14 Y122.557 E.20631
G1 X129.16 Y122.557 E.37562
G1 X129.16 Y116.037 E.20443
M204 S1000
G1 X129.554 Y116.044 F10800
;WIPE_START
G1 F8640
G1 X132.451 Y116.021 E-.76
;WIPE_END
G1 E-.04 F2100
G1 Z.6 F720
G1 X139.88 Y116.468 F10800
G1 Z.2 F720
G1 E.8 F2100
M204 S800
;TYPE:Solid infill
;WIDTH:0.423267
G1 F1200
M73 P0 R44
G1 X140.48 Y117.067 E.02681
G1 X140.48 Y117.605 E.01701
G1 X139.512 Y116.637 E.04328
G1 X138.974 Y116.637 E.01701
G1 X140.48 Y118.143 E.06734
G1 X140.48 Y118.681 E.01701
G1 X138.436 Y116.637 E.0914
G1 X137.898 Y116.637 E.01701
G1 X140.48 Y119.219 E.11546
G1 X140.48 Y119.757 E.01701
G1 X137.361 Y116.637 E.13951
G1 X136.823 Y116.637 E.01701
G1 X140.48 Y120.294 E.16357
G1 X140.48 Y120.832 E.01701
G1 X136.285 Y116.637 E.18763
G1 X135.747 Y116.637 E.01701
G1 X140.48 Y121.37 E.21169
G1 X140.48 Y121.898 E.01668
G1 X135.209 Y116.637 E.23551
G1 X134.671 Y116.637 E.01701
G1 X139.931 Y121.898 E.23527
G1 X139.393 Y121.898 E.01701
G1 X134.133 Y116.637 E.23527
G1 X133.595 Y116.637 E.01701
M73 Q1 S45
G1 X138.856 Y121.898 E.23527
G1 X138.318 Y121.898 E.01701
M73 P1 R44
G1 X133.057 Y116.637 E.23527
G1 X132.52 Y116.637 E.01701
G1 X137.78 Y121.898 E.23527
G1 X137.242 Y121.898 E.01701
G1 X131.982 Y116.637 E.23527
G1 X131.444 Y116.637 E.01701
G1 X136.704 Y121.898 E.23527
G1 X136.166 Y121.898 E.01701
G1 X130.906 Y116.637 E.23527
G1 X130.368 Y116.637 E.01701
G1 X135.628 Y121.898 E.23527
G1 X135.09 Y121.898 E.01701
G1 X129.82 Y116.637 E.2355
G1 X129.82 Y117.165 E.01668
G1 X134.552 Y121.898 E.21168
G1 X134.015 Y121.898 E.01701
G1 X129.82 Y117.703 E.18762
G1 X129.82 Y118.24 E.01701
G1 X133.477 Y121.898 E.16357
G1 X132.939 Y121.898 E.01701
G1 X129.82 Y118.778 E.13951
G1 X129.82 Y119.316 E.01701
G1 X132.401 Y121.898 E.11545
G1 X131.863 Y121.898 E.01701
G1 X129.82 Y119.854 E.09139
G1 X129.82 Y120.392 E.01701
G1 X131.325 Y121.898 E.06734
G1 X130.787 Y121.898 E.01701
G1 X129.82 Y120.93 E.04328
G1 X129.82 Y121.468 E.01701
G1 X130.419 Y122.067 E.02681
M204 S1000
;WIPE_START
G1 F8640
G1 X129.82 Y121.468 E-.19574
G1 X129.82 Y120.93 E-.1242
G1 X130.787 Y121.898 E-.31597
G1 X131.325 Y121.898 E-.12409
;WIPE_END
G1 E-.04 F2100
G1 Z.6 F720
G1 X129.537 Y112.78 F10800
G1 Z.2 F720
G1 E.8 F2100
M204 S800
;TYPE:Perimeter
;WIDTH:0.42
G1 F1200
G1 X129.537 Y110.954 E.05725
G1 X140.763 Y110.954 E.35198
G1 X140.763 Y112.78 E.05725
G1 X129.597 Y112.78 E.3501
M204 S1000
G1 X129.16 Y113.157 F10800
M204 S800
;TYPE:External perimeter
M73 Q1 S44
G1 F1200
G1 X129.16 Y110.577 E.08089
G1 X141.14 Y110.577 E.37562
G1 X141.14 Y113.157 E.08089
G1 X129.22 Y113.157 E.37374
M204 S1000
G1 X129.335 Y112.798 F10800
;WIPE_START
G1 F8640
G1 X129.16 Y110.577 E-.59589
G1 X129.87 Y110.577 E-.16411
;WIPE_END
G1 E-.04 F2100
G1 Z.6 F720
G1 X139.861 Y111.068 F10800
G1 Z.2 F720
G1 E.8 F2100
M204 S800
;TYPE:Solid infill
;WIDTH:0.432587
G1 F1200
G1 X140.48 Y111.687 E.02838
G1 X140.48 Y112.238 E.01786
G1 X139.479 Y111.237 E.04585
G1 X138.928 Y111.237 E.01786
G1 X140.188 Y112.498 E.05775
G1 X139.637 Y112.498 E.01786
G1 X138.377 Y111.237 E.05775
G1 X137.826 Y111.237 E.01786
G1 X139.086 Y112.498 E.05775
G1 X138.535 Y112.498 E.01786
G1 X137.275 Y111.237 E.05775
G1 X136.724 Y111.237 E.01786
G1 X137.984 Y112.498 E.05775
G1 X137.433 Y112.498 E.01786
G1 X136.173 Y111.237 E.05775
G1 X135.622 Y111.237 E.01786
G1 X136.882 Y112.498 E.05775
G1 X136.331 Y112.498 E.01786
G1 X135.071 Y111.237 E.05775
G1 X134.52 Y111.237 E.01786
G1 X135.78 Y112.498 E.05775
G1 X135.229 Y112.498 E.01786
G1 X133.968 Y111.237 E.05775
G1 X133.417 Y111.237 E.01786
G1 X134.678 Y112.498 E.05775
G1 X134.127 Y112.498 E.01786
G1 X132.866 Y111.237 E.05775
G1 X132.315 Y111.237 E.01786
G1 X133.576 Y112.498 E.05775
G1 X133.024 Y112.498 E.01786
G1 X131.764 Y111.237 E.05775
G1 X131.213 Y111.237 E.01786
G1 X132.473 Y112.498 E.05775
G1 X131.922 Y112.498 E.01786
G1 X130.662 Y111.237 E.05775
G1 X130.111 Y111.237 E.01786
G1 X131.371 Y112.498 E.05775
G1 X130.82 Y112.498 E.01786
G1 X129.82 Y111.497 E.04585
G1 X129.82 Y112.048 E.01786
G1 X130.439 Y112.667 E.02837
M204 S1000
; stop printing object Future dice.STL id:0 copy 1
; printing object Future dice.STL id:0 copy 0
;WIPE_START
G1 F8640
G1 X129.82 Y112.048 E-.20219
G1 X129.82 Y111.497 E-.12724
G1 X130.82 Y112.498 E-.32673
G1 X131.27 Y112.498 E-.10384
;WIPE_END
G1 E-.04 F2100
G1 Z.6 F720
G1 X116.268 Y116.326 F10800
G1 Z.2 F720
G1 E.8 F2100
M204 S800
;TYPE:Perimeter
;WIDTH:0.42
G1 F1200
G1 X116.268 Y122.152 E.18267
G1 X105.042 Y122.152 E.35198
G1 X105.042 Y116.326 E.18267
G1 X116.208 Y116.326 E.3501
M204 S1000
G1 X116.645 Y115.949 F10800
M204 S800
;TYPE:External perimeter
G1 F1200
G1 X116.645 Y122.529 E.20631
G1 X104.665 Y122.529 E.37562
G1 X104.665 Y115.949 E.20631
G1 X116.585 Y115.949 E.37374
M204 S1000
G1 X116.506 Y116.324 F10800
;WIPE_START
G1 F8640
G1 X116.615 Y119.24 E-.76
;WIPE_END
G1 E-.04 F2100
G1 Z.6 F720
G1 X115.386 Y116.439 F10800
G1 Z.2 F720
G1 E.8 F2100
M204 S800
;TYPE:Solid infill
;WIDTH:0.423267
G1 F1200
G1 X115.985 Y117.038 E.02681
G1 X115.985 Y117.576 E.01701
G1 X115.018 Y116.609 E.04328
G1 X114.48 Y116.609 E.01701
G1 X115.985 Y118.114 E.06734
G1 X115.985 Y118.652 E.01701
G1 X113.942 Y116.609 E.0914
G1 X113.404 Y116.609 E.01701
G1 X115.985 Y119.19 E.11546
G1 X115.985 Y119.728 E.01701
G1 X112.866 Y116.609 E.13951
G1 X112.328 Y116.609 E.01701
G1 X115.985 Y120.266 E.16357
G1 X115.985 Y120.804 E.01701
G1 X111.79 Y116.609 E.18763
G1 X111.252 Y116.609 E.01701
G1 X115.985 Y121.342 E.21169
G1 X115.985 Y121.869 E.01668
G1 X110.714 Y116.609 E.23551
G1 X110.177 Y116.609 E.01701
G1 X115.437 Y121.869 E.23527
G1 X114.899 Y121.869 E.01701
G1 X109.639 Y116.609 E.23527
G1 X109.101 Y116.609 E.01701
G1 X114.361 Y121.869 E.23527
G1 X113.823 Y121.869 E.01701
G1 X108.563 Y116.609 E.23527
G1 X108.025 Y116.609 E.01701
G1 X113.285 Y121.869 E.23527
G1 X112.747 Y121.869 E.01701
G1 X107.487 Y116.609 E.23527
G1 X106.949 Y116.609 E.01701
G1 X112.21 Y121.869 E.23527
G1 X111.672 Y121.869 E.01701
G1 X106.411 Y116.609 E.23527
G1 X105.873 Y116.609 E.01701
G1 X111.134 Y121.869 E.23527
G1 X110.596 Y121.869 E.01701
G1 X105.325 Y116.609 E.2355
G1 X105.325 Y117.136 E.01668
G1 X110.058 Y121.869 E.21168
G1 X109.52 Y121.869 E.01701
G1 X105.325 Y117.674 E.18762
G1 X105.325 Y118.212 E.01701
G1 X108.982 Y121.869 E.16357
G1 X108.444 Y121.869 E.01701
G1 X105.325 Y118.75 E.13951
G1 X105.325 Y119.288 E.01701
G1 X107.906 Y121.869 E.11545
G1 X107.368 Y121.869 E.01701
G1 X105.325 Y119.825 E.09139
G1 X105.325 Y120.363 E.01701
G1 X106.831 Y121.869 E.06734
G1 X106.293 Y121.869 E.01701
G1 X105.325 Y120.901 E.04328
G1 X105.325 Y121.439 E.01701
G1 X105.924 Y122.039 E.02681
M204 S1000
;WIPE_START
G1 F8640
G1 X105.325 Y121.439 E-.19574
G1 X105.325 Y120.901 E-.1242
G1 X106.293 Y121.869 E-.31597
G1 X106.83 Y121.869 E-.12409
;WIPE_END
G1 E-.04 F2100
G1 Z.6 F720
G1 X105.042 Y112.752 F10800
G1 Z.2 F720
G1 E.8 F2100
M204 S800
;TYPE:Perimeter
;WIDTH:0.42
G1 F1200
G1 X105.042 Y110.926 E.05725
G1 X116.268 Y110.926 E.35198
G1 X116.268 Y112.752 E.05725
G1 X105.102 Y112.752 E.3501
M204 S1000
G1 X104.665 Y113.129 F10800
M204 S800
;TYPE:External perimeter
G1 F1200
G1 X104.665 Y110.549 E.08089
G1 X116.645 Y110.549 E.37562
G1 X116.645 Y113.129 E.08089
M73 P2 R44
M73 Q2 S44
G1 X104.725 Y113.129 E.37374
M204 S1000
G1 X104.84 Y112.769 F10800
;WIPE_START
G1 F8640
G1 X104.665 Y110.549 E-.59589
G1 X105.376 Y110.549 E-.16411
;WIPE_END
G1 E-.04 F2100
G1 Z.6 F720
G1 X115.366 Y111.039 F10800
G1 Z.2 F720
G1 E.8 F2100
M204 S800
;TYPE:Solid infill
;WIDTH:0.432587
G1 F1200
G1 X115.985 Y111.658 E.02838
G1 X115.985 Y112.209 E.01786
G1 X114.985 Y111.209 E.04585
G1 X114.434 Y111.209 E.01786
G1 X115.694 Y112.469 E.05775
G1 X115.143 Y112.469 E.01786
G1 X113.883 Y111.209 E.05775
G1 X113.331 Y111.209 E.01786
G1 X114.592 Y112.469 E.05775
G1 X114.041 Y112.469 E.01786
G1 X112.78 Y111.209 E.05775
G1 X112.229 Y111.209 E.01786
G1 X113.49 Y112.469 E.05775
G1 X112.938 Y112.469 E.01786
G1 X111.678 Y111.209 E.05775
G1 X111.127 Y111.209 E.01786
G1 X112.387 Y112.469 E.05775
G1 X111.836 Y112.469 E.01786
G1 X110.576 Y111.209 E.05775
G1 X110.025 Y111.209 E.01786
G1 X111.285 Y112.469 E.05775
G1 X110.734 Y112.469 E.01786
G1 X109.474 Y111.209 E.05775
G1 X108.923 Y111.209 E.01786
G1 X110.183 Y112.469 E.05775
G1 X109.632 Y112.469 E.01786
G1 X108.372 Y111.209 E.05775
G1 X107.821 Y111.209 E.01786
G1 X109.081 Y112.469 E.05775
G1 X108.53 Y112.469 E.01786
G1 X107.27 Y111.209 E.05775
G1 X106.719 Y111.209 E.01786
G1 X107.979 Y112.469 E.05775
G1 X107.428 Y112.469 E.01786
G1 X106.168 Y111.209 E.05775
G1 X105.616 Y111.209 E.01786
G1 X106.877 Y112.469 E.05775
G1 X106.326 Y112.469 E.01786
G1 X105.325 Y111.468 E.04585
G1 X105.325 Y112.019 E.01786
G1 X105.944 Y112.639 E.02837
M204 S1000
; stop printing object Future dice.STL id:0 copy 0
M106 S84.15
;LAYER_CHANGE
;Z:0.35
;HEIGHT:0.15
;BEFORE_LAYER_CHANGE
G92 E0.0
;0.35


;WIPE_START
G1 F8640
G1 X105.325 Y112.019 E-.20219
G1 X105.325 Y111.468 E-.12724
G1 X106.326 Y112.469 E-.32673
G1 X106.775 Y112.469 E-.10384
;WIPE_END
G1 E-.04 F2100
G1 Z.6 F720
;AFTER_LAYER_CHANGE
;0.35
G1 X106.775 Y107.06 F10800
G1 Z.35 F720
G1 E.8 F2100
;TYPE:Skirt/Brim
;WIDTH:0.42
G1 F3000
G1 X141.453 Y107.088 E.83867
G1 X143.397 Y107.895 E.05091
G1 X143.822 Y108.32 E.01454
G1 X144.629 Y110.267 E.05098
G1 X144.629 Y122.867 E.30473
G1 X143.822 Y124.815 E.05098
G1 X143.397 Y125.24 E.01454
G1 X141.45 Y126.047 E.05098
G1 X104.352 Y126.018 E.8972
G1 X102.408 Y125.211 E.05091
G1 X101.983 Y124.786 E.01454
G1 X101.176 Y122.839 E.05098
G1 X101.176 Y110.239 E.30473
G1 X101.983 Y108.291 E.05098
G1 X102.408 Y107.866 E.01454
G1 X104.355 Y107.06 E.05098
G1 X106.715 Y107.06 E.05708
G1 X106.715 Y107.437 F10800
G1 F3000
G1 X141.453 Y107.465 E.84011
G1 X143.131 Y108.162 E.04394
G1 X143.556 Y108.587 E.01454
G1 X144.252 Y110.267 E.044
G1 X144.252 Y122.867 E.30473
G1 X143.556 Y124.548 E.044
G1 X143.131 Y124.973 E.01454
G1 X141.45 Y125.669 E.044
G1 X104.352 Y125.641 E.89719
G1 X102.674 Y124.945 E.04394
G1 X102.249 Y124.52 E.01454
G1 X101.553 Y122.839 E.044
G1 X101.553 Y110.239 E.30473
G1 X102.249 Y108.558 E.044
G1 X102.674 Y108.133 E.01454
G1 X104.355 Y107.437 E.044
G1 X106.655 Y107.437 E.05563
; printing object Future dice.STL id:0 copy 1
;WIPE_START
G1 F8640
G1 X109.947 Y107.439 E-.76
;WIPE_END
G1 E-.04 F2100
G1 Z.75 F720
G1 X129.218 Y110.635 F10800
G1 Z.35 F720
G1 E.8 F2100
M204 S800
;TYPE:Perimeter
;WIDTH:0.45
G1 F1500
G1 X141.082 Y110.635 E.30914
G1 X141.082 Y112.925 E.05965
G1 X129.218 Y112.925 E.30914
G1 X129.218 Y110.695 E.05809
M204 S1000
G1 X128.8 Y110.361 F10800
M204 S800
;TYPE:External perimeter
G1 F1500
G1 X128.943 Y110.217 E.00528
G1 X141.357 Y110.217 E.32345
G1 X141.5 Y110.361 E.00528
G1 X141.5 Y113.342 E.07769
G1 X128.8 Y113.342 E.33091
G1 X128.8 Y110.421 E.07613
M204 S1000
G1 X128.982 Y110.273 F10800
;WIPE_START
G1 F8640
G1 X128.943 Y110.217 E-.0574
G1 X131.986 Y110.217 E-.7026
;WIPE_END
G1 E-.04 F2100
G1 Z.75 F720
G1 X140.102 Y112.799 F10800
G1 Z.35 F720
G1 E.8 F2100
;TYPE:Solid infill
;WIDTH:0.454486
G1 F4800
G1 X140.769 Y112.133 E.02481
G1 X140.769 Y111.536 E.01573
G1 X139.693 Y112.611 E.04005
G1 X139.096 Y112.611 E.01573
G1 X140.759 Y110.949 E.06193
G1 X140.162 Y110.949 E.01573
G1 X138.499 Y112.611 E.06193
G1 X137.902 Y112.611 E.01573
G1 X139.564 Y110.949 E.06193
G1 X138.967 Y110.949 E.01573
G1 X137.304 Y112.611 E.06193
G1 X136.707 Y112.611 E.01573
G1 X138.37 Y110.949 E.06193
G1 X137.773 Y110.949 E.01573
G1 X136.11 Y112.611 E.06193
G1 X135.513 Y112.611 E.01573
G1 X137.175 Y110.949 E.06193
G1 X136.578 Y110.949 E.01573
G1 X134.916 Y112.611 E.06193
G1 X134.318 Y112.611 E.01573
G1 X135.981 Y110.949 E.06193
G1 X135.384 Y110.949 E.01573
G1 X133.721 Y112.611 E.06193
G1 X133.124 Y112.611 E.01573
G1 X134.787 Y110.949 E.06193
G1 X134.189 Y110.949 E.01573
G1 X132.527 Y112.611 E.06193
G1 X131.929 Y112.611 E.01573
G1 X133.592 Y110.949 E.06193
G1 X132.995 Y110.949 E.01573
G1 X131.332 Y112.611 E.06193
G1 X130.735 Y112.611 E.01573
G1 X132.398 Y110.949 E.06193
G1 X131.8 Y110.949 E.01573
G1 X130.138 Y112.611 E.06193
G1 X129.541 Y112.611 E.01573
G1 X131.203 Y110.949 E.06193
G1 X130.606 Y110.949 E.01573
G1 X129.531 Y112.024 E.04004
G1 X129.531 Y111.427 E.01573
G1 X130.197 Y110.761 E.0248
;WIPE_START
G1 F8640
G1 X129.531 Y111.427 E-.21747
G1 X129.531 Y112.024 E-.1379
G1 X130.606 Y110.949 E-.3511
G1 X130.838 Y110.949 E-.05353
;WIPE_END
G1 E-.04 F2100
G1 Z.75 F720
G1 X129.218 Y116.21 F10800
G1 Z.35 F720
G1 E.8 F2100
M204 S800
;TYPE:Perimeter
;WIDTH:0.45
G1 F1500
G1 X141.082 Y116.21 E.30914
G1 X141.082 Y122.5 E.16387
G1 X129.218 Y122.5 E.30914
G1 X129.218 Y116.27 E.16231
M204 S1000
G1 X128.8 Y115.792 F10800
M204 S800
;TYPE:External perimeter
G1 F1500
G1 X141.5 Y115.792 E.33091
G1 X141.5 Y122.774 E.18192
G1 X141.357 Y122.917 E.00528
G1 X128.943 Y122.917 E.32345
G1 X128.8 Y122.774 E.00528
G1 X128.8 Y115.852 E.18035
