; generated by PrusaSlicer 2.4.1+win64 on 2022-04-21 at 15:38:44 UTC

; 

; external perimeters extrusion width = 0.45mm
; perimeters extrusion width = 0.45mm
; infill extrusion width = 0.45mm
; solid infill extrusion width = 0.45mm
; top infill extrusion width = 0.40mm
; first layer extrusion width = 0.42mm

M73 P0 R212
M73 Q0 S213
M201 X1000 Y1000 Z200 E5000 ; sets maximum accelerations, mm/sec^2
M203 X200 Y200 Z12 E120 ; sets maximum feedrates, mm / sec
M204 P1250 R1250 T1250 ; sets acceleration (P, T) and retract acceleration (R), mm/sec^2
M205 X8.00 Y8.00 Z0.40 E4.50 ; sets the jerk limits, mm/sec
M205 S0 T0 ; sets the minimum extruding and travel feed rate, mm/sec
M107
;TYPE:Custom
M862.3 P "MK3S" ; printer model check
M862.1 P0.4 ; nozzle diameter check
M115 U3.10.1 ; tell printer latest fw version
G90 ; use absolute coordinates
M83 ; extruder relative mode
M104 S215 ; set extruder temp
M140 S60 ; set bed temp
M190 S60 ; wait for bed temp
M109 S215 ; wait for extruder temp
G28 W ; home all without mesh bed level
G80 ; mesh bed leveling
G1 Z0.2 F720
G1 Y-3 F1000 ; go outside print area
G92 E0
G1 X60 E9 F1000 ; intro line
G1 X100 E12.5 F1000 ; intro line
G92 E0
M221 S95

; Don't change E values below. Excessive value can damage the printer.
M907 E430 ; set extruder motor current
G21 ; set units to millimeters
G90 ; use absolute coordinates
M83 ; use relative distances for extrusion
M900 K0.05 ; Filament gcode LA 1.5
M900 K30 ; Filament gcode LA 1.0
M107
;LAYER_CHANGE
;Z:0.2
;HEIGHT:0.2
;BEFORE_LAYER_CHANGE
G92 E0.0
;0.2


G1 E-.8 F2100
G1 Z.4 F720
;AFTER_LAYER_CHANGE
;0.2
G1 X102.51 Y71.001 F10800
G1 Z.2 F720
G1 E.8 F2100
M204 S800
;TYPE:Skirt/Brim
;WIDTH:0.42
G1 F1200
G1 X103.913 Y69.905 E.05582
G1 X115.06 Y66.705 E.36362
G1 X115.716 Y66.613 E.02077
G1 X132.863 Y66.613 E.53763
G1 X133.519 Y66.705 E.02077
G1 X144.666 Y69.905 E.36362
G1 X146.069 Y71.001 E.05582
G1 X165.789 Y105.158 E1.23664
G1 X166.037 Y106.921 E.05582
G1 X163.235 Y118.175 E.36362
G1 X162.987 Y118.789 E.02077
G1 X154.413 Y133.638 E.53763
G1 X154.006 Y134.16 E.02077
G1 X145.661 Y142.214 E.36362
G1 X144.01 Y142.881 E.05582
G1 X104.569 Y142.881 E1.23664
G1 X102.918 Y142.214 E.05582
G1 X94.573 Y134.16 E.36362
G1 X94.166 Y133.638 E.02077
G1 X85.623 Y118.843 E.53567
G1 X85.344 Y118.175 E.02271
G1 X82.542 Y106.921 E.36362
G1 X82.79 Y105.158 E.05582
G1 X102.48 Y71.053 E1.23476
M204 S1000
; printing object Hex_Socket_Keyhole_Tight.stl id:0 copy 0
;WIPE_START
G1 F8640
G1 X103.913 Y69.905 E-.42395
G1 X105.312 Y69.503 E-.33605
;WIPE_END
G1 E-.04 F2100
G1 Z.6 F720
G1 X127.577 Y124.463 F10800
G1 Z.2 F720
G1 E.8 F2100
M204 S800
;TYPE:Perimeter
G1 F1200
G1 X127.577 Y130.388 E.18576
G1 X127.509 Y131.031 E.02028
G1 X127.296 Y131.685 E.02157
G1 X126.952 Y132.281 E.02158
G1 X126.492 Y132.793 E.02158
G1 X125.935 Y133.197 E.02158
G1 X125.307 Y133.477 E.02157
G1 X124.634 Y133.62 E.02157
G1 X123.945 Y133.62 E.02158
G1 X123.272 Y133.477 E.02157
G1 X122.644 Y133.197 E.02157
G1 X122.087 Y132.793 E.02158
G1 X121.627 Y132.281 E.02158
G1 X121.283 Y131.685 E.02158
G1 X121.07 Y131.031 E.02157
G1 X121.002 Y130.388 E.02028
G1 X121.002 Y124.463 E.18576
G1 X120.749 Y124.279 E.00983
G1 X120.009 Y123.457 E.03469
G1 X119.456 Y122.499 E.03468
G1 X119.114 Y121.447 E.03468
G1 X118.998 Y120.347 E.03468
G1 X119.114 Y119.246 E.03468
G1 X119.456 Y118.194 E.03468
G1 X120.009 Y117.236 E.03468
G1 X120.749 Y116.414 E.03469
G1 X121.644 Y115.764 E.03468
G1 X122.654 Y115.314 E.03468
G1 X123.736 Y115.084 E.03468
G1 X124.843 Y115.084 E.03468
G1 X125.925 Y115.314 E.03468
G1 X126.935 Y115.764 E.03468
G1 X127.83 Y116.414 E.03468
G1 X128.57 Y117.236 E.03469
G1 X129.123 Y118.194 E.03468
G1 X129.465 Y119.246 E.03468
G1 X129.581 Y120.347 E.03468
G1 X129.465 Y121.447 E.03468
G1 X129.123 Y122.499 E.03468
G1 X128.57 Y123.457 E.03468
G1 X127.83 Y124.279 E.03469
G1 X127.625 Y124.428 E.00795
M204 S1000
G1 X127.2 Y124.271 F10800
M204 S800
;TYPE:External perimeter
G1 F1200
G1 X127.2 Y130.368 E.19117
G1 X127.138 Y130.952 E.01841
G1 X126.95 Y131.531 E.01909
G1 X126.646 Y132.058 E.01909
G1 X126.238 Y132.511 E.01909
G1 X125.746 Y132.869 E.01909
G1 X125.189 Y133.116 E.01909
G1 X124.594 Y133.243 E.01909
G1 X123.985 Y133.243 E.01909
G1 X123.39 Y133.116 E.01909
G1 X122.833 Y132.869 E.01909
G1 X122.341 Y132.511 E.01909
G1 X121.933 Y132.058 E.01909
G1 X121.629 Y131.531 E.01909
G1 X121.441 Y130.952 E.01909
G1 X121.38 Y130.368 E.01841
G1 X121.38 Y124.271 E.19117
G1 X121.003 Y123.997 E.01461
G1 X120.315 Y123.234 E.0322
G1 X119.802 Y122.345 E.0322
G1 X119.485 Y121.368 E.0322
G1 X119.377 Y120.347 E.0322
G1 X119.485 Y119.325 E.0322
G1 X119.802 Y118.349 E.0322
G1 X120.315 Y117.459 E.0322
G1 X121.003 Y116.696 E.0322
G1 X121.833 Y116.092 E.0322
G1 X122.772 Y115.675 E.0322
G1 X123.776 Y115.461 E.0322
G1 X124.803 Y115.461 E.0322
G1 X125.808 Y115.675 E.0322
G1 X126.746 Y116.092 E.0322
G1 X127.576 Y116.696 E.0322
G1 X128.264 Y117.459 E.0322
G1 X128.777 Y118.349 E.0322
G1 X129.094 Y119.325 E.0322
G1 X129.202 Y120.347 E.0322
G1 X129.094 Y121.368 E.0322
G1 X128.777 Y122.345 E.0322
G1 X128.264 Y123.234 E.0322
G1 X127.576 Y123.997 E.0322
G1 X127.248 Y124.236 E.01273
M204 S1000
G1 X127.481 Y124.555 F10800
;WIPE_START
G1 F8640
G1 X127.222 Y127.527 E-.76
;WIPE_END
G1 E-.04 F2100
G1 Z.6 F720
G1 X127.926 Y136.566 F10800
G1 Z.2 F720
G1 E.8 F2100
M204 S800
;TYPE:Perimeter
G1 F1200
G1 X127.926 Y139.716 E.09877
G1 X120.653 Y139.716 E.22804
G1 X120.653 Y136.566 E.09877
G1 X114.779 Y136.566 E.18418
G1 X114.779 Y139.716 E.09877
G1 X105.023 Y139.716 E.30588
G1 X98.684 Y128.735 E.39756
G1 X95.935 Y130.323 E.09952
G1 X96.535 Y131.362 E.03762
G1 X96.512 Y131.375 E.00081
G1 X95.299 Y129.274 E.07606
G1 X95.322 Y129.261 E.00081
G1 X95.922 Y130.3 E.03763
G1 X98.671 Y128.713 E.09952
G1 X92.11 Y117.35 E.4114
G1 X89.361 Y118.937 E.09952
G1 X89.961 Y119.976 E.03763
G1 X89.939 Y119.989 E.00081
G1 X88.726 Y117.888 E.07606
G1 X88.748 Y117.875 E.00081
G1 X89.348 Y118.915 E.03763
G1 X92.097 Y117.327 E.09952
G1 X85.757 Y106.347 E.39756
G1 X90.635 Y97.898 E.30588
G1 X93.363 Y99.473 E.09877
G1 X95.668 Y95.481 E.14452
G1 X96.3 Y94.386 E.03966
G1 X93.572 Y92.811 E.09877
G1 X97.209 Y86.512 E.22803
G1 X99.937 Y88.087 E.09877
M73 P0 R211
G1 X102.241 Y84.096 E.14452
G1 X102.874 Y83 E.03966
G1 X100.146 Y81.425 E.09877
G1 X105.023 Y72.977 E.30588
G1 X117.703 Y72.977 E.39756
G1 X117.703 Y69.803 E.09952
G1 X116.503 Y69.803 E.03763
M73 Q0 S212
G1 X116.503 Y69.777 E.00081
G1 X118.929 Y69.777 E.07606
G1 X118.929 Y69.803 E.00081
G1 X117.729 Y69.803 E.03763
G1 X117.729 Y72.977 E.09952
G1 X130.85 Y72.977 E.41141
G1 X130.85 Y69.803 E.09952
G1 X129.65 Y69.803 E.03763
G1 X129.65 Y69.777 E.00081
G1 X132.076 Y69.777 E.07606
G1 X132.076 Y69.803 E.00081
G1 X130.876 Y69.803 E.03763
G1 X130.876 Y72.977 E.09952
G1 X143.556 Y72.977 E.39756
G1 X148.433 Y81.425 E.30588
G1 X145.705 Y83 E.09877
G1 X146.338 Y84.096 E.03966
G1 X148.642 Y88.087 E.14452
G1 X151.37 Y86.512 E.09877
G1 X155.007 Y92.811 E.22803
G1 X152.279 Y94.386 E.09877
G1 X155.216 Y99.473 E.18418
G1 X157.944 Y97.898 E.09877
G1 X162.822 Y106.347 E.30588
G1 X156.482 Y117.327 E.39756
G1 X159.231 Y118.915 E.09952
G1 X159.831 Y117.875 E.03763
G1 X159.853 Y117.888 E.00081
G1 X158.64 Y119.989 E.07606
G1 X158.618 Y119.976 E.00081
G1 X159.218 Y118.937 E.03763
G1 X156.469 Y117.35 E.09952
G1 X149.908 Y128.713 E.4114
G1 X152.657 Y130.3 E.09952
G1 X153.257 Y129.261 E.03763
G1 X153.28 Y129.274 E.00081
G1 X152.067 Y131.375 E.07606
G1 X152.044 Y131.362 E.00081
G1 X152.644 Y130.323 E.03762
G1 X149.895 Y128.735 E.09952
G1 X143.556 Y139.716 E.39756
G1 X133.8 Y139.716 E.30588
G1 X133.8 Y136.566 E.09877
G1 X127.986 Y136.566 E.1823
M204 S1000
G1 X128.303 Y136.943 F10800
M204 S800
;TYPE:External perimeter
G1 F1200
G1 X128.303 Y139.663 E.08528
G1 X129.503 Y139.663 E.03763
G1 X129.503 Y140.093 E.01348
G1 X119.076 Y140.093 E.32693
G1 X119.076 Y139.663 E.01348
G1 X120.276 Y139.663 E.03763
G1 X120.276 Y136.943 E.08528
G1 X115.156 Y136.943 E.16053
G1 X115.156 Y139.663 E.08528
G1 X116.356 Y139.663 E.03763
G1 X116.356 Y140.093 E.01348
G1 X104.806 Y140.093 E.36215
G1 X98.546 Y129.251 E.39256
G1 X96.45 Y130.461 E.07588
G1 X97.05 Y131.5 E.03762
G1 X96.374 Y131.89 E.02446
G1 X94.784 Y129.136 E.09971
G1 X95.46 Y128.746 E.02446
G1 X96.06 Y129.785 E.03763
G1 X98.156 Y128.575 E.07588
G1 X91.972 Y117.865 E.38776
G1 X89.876 Y119.075 E.07588
G1 X90.476 Y120.114 E.03763
G1 X89.801 Y120.504 E.02446
G1 X88.211 Y117.75 E.09971
G1 X88.886 Y117.36 E.02446
G1 X89.486 Y118.399 E.03762
G1 X91.582 Y117.189 E.07588
G1 X85.322 Y106.347 E.39256
G1 X91.097 Y96.344 E.36215
G1 X91.469 Y96.559 E.01348
G1 X90.869 Y97.598 E.03763
G1 X93.225 Y98.958 E.08528
G1 X95.341 Y95.293 E.1327
G1 X95.785 Y94.524 E.02784
G1 X93.429 Y93.164 E.08528
G1 X92.829 Y94.203 E.03762
G1 X92.457 Y93.988 E.01348
G1 X97.671 Y84.958 E.32693
G1 X98.043 Y85.173 E.01348
G1 X97.443 Y86.212 E.03763
G1 X99.799 Y87.572 E.08528
G1 X101.915 Y83.907 E.1327
G1 X102.359 Y83.138 E.02784
G1 X100.003 Y81.778 E.08528
G1 X99.403 Y82.817 E.03762
G1 X99.031 Y82.602 E.01348
G1 X104.806 Y72.6 E.36215
G1 X117.326 Y72.6 E.39257
G1 X117.326 Y70.18 E.07588
G1 X116.126 Y70.18 E.03763
G1 X116.126 Y69.4 E.02446
G1 X119.306 Y69.4 E.09971
G1 X119.306 Y70.18 E.02446
G1 X118.106 Y70.18 E.03763
G1 X118.106 Y72.6 E.07588
G1 X130.473 Y72.6 E.38776
G1 X130.473 Y70.18 E.07588
G1 X129.273 Y70.18 E.03763
G1 X129.273 Y69.4 E.02446
G1 X132.453 Y69.4 E.09971
G1 X132.453 Y70.18 E.02446
G1 X131.253 Y70.18 E.03763
G1 X131.253 Y72.6 E.07588
G1 X143.773 Y72.6 E.39257
G1 X149.548 Y82.602 E.36215
G1 X149.176 Y82.817 E.01348
G1 X148.576 Y81.778 E.03762
G1 X146.22 Y83.138 E.08528
G1 X146.664 Y83.907 E.02784
G1 X148.78 Y87.572 E.1327
G1 X151.136 Y86.212 E.08528
G1 X150.536 Y85.173 E.03763
G1 X150.908 Y84.958 E.01348
G1 X156.122 Y93.988 E.32693
G1 X155.75 Y94.203 E.01348
G1 X155.15 Y93.164 E.03762
G1 X152.794 Y94.524 E.08528
G1 X153.238 Y95.293 E.02784
G1 X155.354 Y98.958 E.1327
G1 X157.71 Y97.598 E.08528
G1 X157.11 Y96.559 E.03763
G1 X157.482 Y96.344 E.01348
G1 X163.257 Y106.347 E.36215
G1 X156.997 Y117.189 E.39256
G1 X159.093 Y118.399 E.07588
G1 X159.693 Y117.36 E.03762
G1 X160.368 Y117.75 E.02446
G1 X158.778 Y120.504 E.09971
G1 X158.103 Y120.114 E.02446
G1 X158.703 Y119.075 E.03763
G1 X156.607 Y117.865 E.07588
G1 X150.423 Y128.575 E.38776
G1 X152.519 Y129.785 E.07588
G1 X153.119 Y128.746 E.03763
G1 X153.795 Y129.136 E.02446
G1 X152.205 Y131.89 E.09971
G1 X151.529 Y131.5 E.02446
G1 X152.129 Y130.461 E.03762
G1 X150.033 Y129.251 E.07588
G1 X143.773 Y140.093 E.39256
G1 X132.223 Y140.093 E.36215
G1 X132.223 Y139.663 E.01348
G1 X133.423 Y139.663 E.03763
G1 X133.423 Y136.943 E.08528
G1 X128.363 Y136.943 E.15865
M204 S1000
G1 X127.908 Y136.879 F10800
;WIPE_START
G1 F8640
G1 X128.303 Y139.663 E-.62821
G1 X128.874 Y139.663 E-.13179
;WIPE_END
G1 E-.04 F2100
G1 Z.6 F720
G1 X128.115 Y139.878 F10800
G1 Z.2 F720
G1 E.8 F2100
M204 S800
;TYPE:Gap fill
;WIDTH:0.0958424
G1 F1200
G1 X129.315 Y139.878 E.00528
M204 S1000
;WIPE_START
G1 F8640
G1 X128.115 Y139.878 E-.27708
;WIPE_END
G1 E-.52292 F2100
G1 Z.6 F720
G1 X132.412 Y139.878 F10800
G1 Z.2 F720
G1 E.8 F2100
M204 S800
G1 F1200
G1 X133.612 Y139.878 E.00528
M204 S1000
;WIPE_START
G1 F8640
G1 X132.412 Y139.878 E-.27709
;WIPE_END
G1 E-.52291 F2100
G1 Z.6 F720
G1 X120.465 Y139.878 F10800
G1 Z.2 F720
G1 E.8 F2100
M204 S800
G1 F1200
G1 X119.265 Y139.878 E.00528
M204 S1000
;WIPE_START
G1 F8640
G1 X120.465 Y139.878 E-.27708
;WIPE_END
G1 E-.52292 F2100
G1 Z.6 F720
G1 X116.168 Y139.878 F10800
G1 Z.2 F720
G1 E.8 F2100
M204 S800
G1 F1200
G1 X114.968 Y139.878 E.00528
M204 S1000
;WIPE_START
G1 F8640
G1 X116.168 Y139.878 E-.27709
;WIPE_END
G1 E-.52291 F2100
G1 Z.6 F720
G1 X90.589 Y97.654 F10800
G1 Z.2 F720
G1 E.8 F2100
M204 S800
;WIDTH:0.095801
G1 F1200
G1 X91.189 Y96.614 E.00528
M204 S1000
;WIPE_START
G1 F8640
G1 X90.589 Y97.654 E-.27708
;WIPE_END
G1 E-.52292 F2100
G1 Z.6 F720
G1 X92.738 Y93.932 F10800
G1 Z.2 F720
G1 E.8 F2100
M204 S800
;WIDTH:0.0958005
G1 F1200
G1 X93.338 Y92.893 E.00528
M204 S1000
;WIPE_START
G1 F8640
G1 X92.738 Y93.932 E-.27708
;WIPE_END
G1 E-.52292 F2100
G1 Z.6 F720
G1 X97.163 Y86.268 F10800
G1 Z.2 F720
G1 E.8 F2100
M204 S800
;WIDTH:0.0958586
G1 F1200
G1 X97.763 Y85.229 E.00528
M204 S1000
;WIPE_START
G1 F8640
G1 X97.163 Y86.268 E-.2771
;WIPE_END
G1 E-.5229 F2100
G1 Z.6 F720
G1 X99.311 Y82.547 F10800
G1 Z.2 F720
G1 E.8 F2100
M204 S800
;WIDTH:0.0958385
G1 F1200
G1 X99.911 Y81.508 E.00528
M204 S1000
;WIPE_START
G1 F8640
G1 X99.311 Y82.547 E-.27707
;WIPE_END
G1 E-.52293 F2100
G1 Z.6 F720
G1 X148.668 Y81.508 F10800
G1 Z.2 F720
G1 E.8 F2100
M204 S800
;WIDTH:0.095839
G1 F1200
G1 X149.268 Y82.547 E.00528
M204 S1000
;WIPE_START
G1 F8640
G1 X148.668 Y81.508 E-.27707
;WIPE_END
G1 E-.52293 F2100
G1 Z.6 F720
G1 X150.817 Y85.229 F10800
G1 Z.2 F720
G1 E.8 F2100
M204 S800
;WIDTH:0.0958609
G1 F1200
G1 X151.417 Y86.268 E.00528
M204 S1000
;WIPE_START
G1 F8640
G1 X150.817 Y85.229 E-.2771
;WIPE_END
G1 E-.5229 F2100
G1 Z.6 F720
G1 X151.863 Y87.593 F10800
G1 Z.2 F720
G1 E.8 F2100
M204 S800
;TYPE:Solid infill
;WIDTH:0.421634
G1 F1200
G1 X151.205 Y86.934 E.02931
G1 X150.866 Y87.13 E.01235
G1 X152.131 Y88.396 E.05637
G1 X152.863 Y89.663 E.04608
G1 X150.526 Y87.326 E.10407
G1 X150.187 Y87.522 E.01235
G1 X153.595 Y90.93 E.15177
G1 X154.326 Y92.198 E.04608
G1 X149.847 Y87.718 E.19947
G1 X149.508 Y87.915 E.01235
G1 X154.418 Y92.825 E.21866
G1 X154.078 Y93.021 E.01235
G1 X149.044 Y87.986 E.2242
M204 S1000
;WIPE_START
G1 F8640
G1 X151.371 Y90.314 E-.76
;WIPE_END
G1 E-.04 F2100
G1 Z.6 F720
G1 X144.547 Y74.92 F10800
G1 Z.2 F720
G1 E.8 F2100
M204 S800
G1 F1200
G1 X142.886 Y73.26 E.07397
G1 X142.351 Y73.26 E.01687
G1 X144.815 Y75.724 E.10976
G1 X145.547 Y76.991 E.04608
G1 X141.815 Y73.26 E.16619
G1 X141.28 Y73.26 E.01687
G1 X146.278 Y78.258 E.22262
G1 X147.01 Y79.526 E.04608
G1 X140.744 Y73.26 E.27906
G1 X140.208 Y73.26 E.01687
G1 X147.742 Y80.793 E.33549
G1 X148.047 Y81.322 E.01923
G1 X147.849 Y81.436 E.00719
G1 X139.673 Y73.26 E.36413
G1 X139.137 Y73.26 E.01687
G1 X147.51 Y81.632 E.37286
G1 X147.17 Y81.828 E.01235
G1 X138.602 Y73.26 E.38159
G1 X138.066 Y73.26 E.01687
G1 X146.831 Y82.024 E.39032
G1 X146.491 Y82.22 E.01235
G1 X137.53 Y73.26 E.39905
G1 X136.995 Y73.26 E.01687
G1 X146.151 Y82.416 E.40778
G1 X145.812 Y82.612 E.01235
G1 X136.459 Y73.26 E.41651
G1 X135.924 Y73.26 E.01687
G1 X145.472 Y82.808 E.42524
G1 X145.319 Y82.897 E.00558
G1 X145.72 Y83.592 E.02527
G1 X135.388 Y73.26 E.46013
G1 X134.853 Y73.26 E.01687
G1 X146.452 Y84.859 E.51656
G1 X147.183 Y86.126 E.04608
G1 X134.317 Y73.26 E.573
G1 X133.781 Y73.26 E.01687
G1 X147.915 Y87.393 E.62943
G1 X148.539 Y88.474 E.03929
G1 X148.828 Y88.307 E.01053
G1 X153.738 Y93.217 E.21866
G1 X153.399 Y93.413 E.01235
G1 X133.246 Y73.26 E.8975
G1 X132.71 Y73.26 E.01687
G1 X153.059 Y93.609 E.90623
G1 X152.72 Y93.805 E.01235
G1 X132.175 Y73.26 E.91496
G1 X131.639 Y73.26 E.01687
G1 X152.38 Y94.001 E.92369
G1 X152.041 Y94.197 E.01235
G1 X131.103 Y73.26 E.93242
G1 X130.568 Y73.26 E.01687
G1 X152.305 Y94.997 E.96803
G1 X153.037 Y96.264 E.04608
G1 X130.032 Y73.26 E1.02447
G1 X129.497 Y73.26 E.01687
M73 P0 R210
G1 X154.232 Y97.995 E1.10155
M204 S1000
;WIPE_START
G1 F8640
M73 Q0 S211
G1 X151.904 Y95.667 E-.76
;WIPE_END
G1 E-.04 F2100
G1 Z.6 F720
G1 X157.649 Y98.199 F10800
G1 Z.2 F720
G1 E.8 F2100
M204 S800
G1 F1200
G1 X157.984 Y98.534 E.01492
G1 X158.716 Y99.801 E.04608
G1 X157.434 Y98.519 E.05709
G1 X157.095 Y98.715 E.01235
G1 X159.448 Y101.068 E.10479
G1 X160.179 Y102.335 E.04608
G1 X156.755 Y98.911 E.1525
G1 X156.415 Y99.107 E.01235
G1 X160.911 Y103.603 E.2002
G1 X161.642 Y104.87 E.04608
G1 X156.076 Y99.303 E.2479
G1 X155.736 Y99.499 E.01235
G1 X162.374 Y106.137 E.29561
G1 X162.495 Y106.347 E.00762
G1 X162.332 Y106.63 E.0103
G1 X155.397 Y99.695 E.30883
G1 X155.112 Y99.859 E.01034
G1 X154.5 Y98.798 E.03859
G1 X128.961 Y73.26 E1.13733
G1 X128.426 Y73.26 E.01687
G1 X162.135 Y106.969 E1.50123
G1 X161.939 Y107.309 E.01235
G1 X127.89 Y73.26 E1.51636
G1 X127.354 Y73.26 E.01687
G1 X161.743 Y107.649 E1.53148
