; generated by PrusaSlicer 2.4.1+win64 on 2022-04-21 at 00:28:12 UTC

; 

; external perimeters extrusion width = 0.45mm
; perimeters extrusion width = 0.45mm
; infill extrusion width = 0.45mm
; solid infill extrusion width = 0.45mm
; top infill extrusion width = 0.40mm
; first layer extrusion width = 0.42mm

M73 P0 R15
M73 Q0 S15
M201 X1000 Y1000 Z200 E5000 ; sets maximum accelerations, mm/sec^2
M203 X200 Y200 Z12 E120 ; sets maximum feedrates, mm / sec
M204 P1250 R1250 T1250 ; sets acceleration (P, T) and retract acceleration (R), mm/sec^2
M205 X8.00 Y8.00 Z0.40 E4.50 ; sets the jerk limits, mm/sec
M205 S0 T0 ; sets the minimum extruding and travel feed rate, mm/sec
M107
;TYPE:Custom
M862.3 P "MK3S" ; printer model check
M862.1 P0.4 ; nozzle diameter check
M115 U3.10.1 ; tell printer latest fw version
G90 ; use absolute coordinates
M83 ; extruder relative mode
M104 S215 ; set extruder temp
M140 S60 ; set bed temp
M190 S60 ; wait for bed temp
M109 S215 ; wait for extruder temp
G28 W ; home all without mesh bed level
G80 ; mesh bed leveling
G1 Z0.2 F720
G1 Y-3 F1000 ; go outside print area
G92 E0
G1 X60 E9 F1000 ; intro line
G1 X100 E12.5 F1000 ; intro line
G92 E0
M221 S95

; Don't change E values below. Excessive value can damage the printer.
M907 E430 ; set extruder motor current
G21 ; set units to millimeters
G90 ; use absolute coordinates
M83 ; use relative distances for extrusion
M900 K0.05 ; Filament gcode LA 1.5
M900 K30 ; Filament gcode LA 1.0
M107
;LAYER_CHANGE
;Z:0.2
;HEIGHT:0.2
;BEFORE_LAYER_CHANGE
G92 E0.0
;0.2


G1 E-.8 F2100
G1 Z.4 F720
;AFTER_LAYER_CHANGE
;0.2
G1 X106.639 Y91.583 F10800
G1 Z.2 F720
G1 E.8 F2100
M204 S800
;TYPE:Skirt/Brim
;WIDTH:0.42
G1 F1200
G1 X107.705 Y90.569 E.04612
G1 X109 Y90.246 E.04186
G1 X141 Y90.246 E1.00334
G1 X142.417 Y90.639 E.04612
G1 X143.431 Y91.705 E.04612
G1 X143.754 Y93 E.04186
G1 X143.754 Y117 E.7525
M73 Q1 S15
G1 X143.361 Y118.417 E.04612
M73 P1 R15
G1 X142.295 Y119.431 E.04612
G1 X141 Y119.754 E.04186
G1 X109 Y119.754 E1.00334
G1 X107.583 Y119.361 E.04612
G1 X106.569 Y118.295 E.04612
G1 X106.246 Y117 E.04186
G1 X106.246 Y93 E.7525
G1 X106.623 Y91.64 E.04424
M204 S1000
G1 X106.997 Y91.752 F10800
M204 S800
G1 F1200
G1 X107.015 Y91.693 E.00195
G1 X108.06 Y90.817 E.04278
G1 X109 Y90.623 E.03008
G1 X141 Y90.623 E1.00334
G1 X142.307 Y91.015 E.04278
G1 X143.183 Y92.06 E.04278
G1 X143.377 Y93 E.03008
G1 X143.377 Y117 E.7525
G1 X142.985 Y118.307 E.04278
G1 X141.94 Y119.183 E.04278
G1 X141 Y119.377 E.03008
G1 X109 Y119.377 E1.00334
G1 X107.693 Y118.985 E.04278
M73 Q2 S15
G1 X106.817 Y117.94 E.04278
G1 X106.623 Y117 E.03008
G1 X106.623 Y93 E.7525
G1 X106.979 Y91.81 E.03895
M204 S1000
; printing object Lego 88646 (x1.05).stl id:0 copy 0
;WIPE_START
M73 P2 R15
G1 F8640
G1 X107.015 Y91.693 E-.0282
G1 X108.06 Y90.817 E-.31505
G1 X109 Y90.623 E-.22155
G1 X109.845 Y90.623 E-.1952
;WIPE_END
G1 E-.04 F2100
G1 Z.6 F720
G1 X109.813 Y93.813 F10800
G1 Z.2 F720
G1 E.8 F2100
M204 S800
;TYPE:Perimeter
G1 F1200
G1 X140.187 Y93.813 E.95236
G1 X140.187 Y116.187 E.70153
G1 X109.813 Y116.187 E.95236
G1 X109.813 Y93.873 E.69964
M204 S1000
G1 X110.19 Y94.19 F10800
M204 S800
;TYPE:External perimeter
G1 F1200
G1 X139.81 Y94.19 E.92871
G1 X139.81 Y115.81 E.67788
G1 X110.19 Y115.81 E.92871
M73 P3 R15
M73 Q3 S15
G1 X110.19 Y94.25 E.676
M204 S1000
G1 X110.067 Y93.809 F10800
G1 X109.787 Y93.787
M204 S800
;TYPE:Perimeter
G1 F1200
G1 X140.213 Y93.787 E.95398
G1 X140.213 Y116.213 E.70315
G1 X109.787 Y116.213 E.95398
G1 X109.787 Y93.847 E.70127
M204 S1000
G1 X109.41 Y93.41 F10800
M204 S800
;TYPE:External perimeter
G1 F1200
G1 X140.59 Y93.41 E.97763
G1 X140.59 Y116.59 E.72679
M73 P4 R14
M73 Q4 S15
G1 X109.41 Y116.59 E.97763
M73 Q4 S14
G1 X109.41 Y93.47 E.72491
M204 S1000
G1 X109.801 Y93.495 F10800
;WIPE_START
G1 F8640
G1 X112.701 Y93.464 E-.76
;WIPE_END
G1 E-.04 F2100
G1 Z.6 F720
G1 X123.152 Y107.152 F10800
G1 Z.2 F720
G1 E.8 F2100
M204 S800
G1 F1200
G1 X124 Y106.585 E.03198
G1 X125 Y106.386 E.03198
G1 X126 Y106.585 E.03198
G1 X126.848 Y107.152 E.03198
G1 X127.415 Y108 E.03198
G1 X127.614 Y109 E.03198
G1 X127.415 Y110 E.03198
G1 X126.848 Y110.848 E.03198
G1 X126 Y111.415 E.03198
G1 X125 Y111.614 E.03198
G1 X124 Y111.415 E.03198
G1 X123.152 Y110.848 E.03198
G1 X122.585 Y110 E.03198
G1 X122.386 Y109 E.03198
G1 X122.585 Y108 E.03198
G1 X123.118 Y107.201 E.0301
M204 S1000
G1 X123.048 Y106.765 F10800
G1 X122.889 Y106.889
M204 S800
G1 F1200
G1 X123.858 Y106.242 E.03652
G1 X125 Y106.015 E.03653
G1 X126.142 Y106.242 E.03652
G1 X127.111 Y106.889 E.03652
G1 X127.758 Y107.858 E.03652
G1 X127.985 Y109 E.03652
G1 X127.758 Y110.142 E.03652
G1 X127.111 Y111.111 E.03652
G1 X126.142 Y111.758 E.03652
G1 X125 Y111.985 E.03652
G1 X123.858 Y111.758 E.03652
G1 X122.889 Y111.111 E.03652
G1 X122.242 Y110.142 E.03652
G1 X122.015 Y109 E.03652
G1 X122.242 Y107.858 E.03652
G1 X122.856 Y106.939 E.03464
M204 S1000
G1 X123.275 Y106.993 F10800
;WIPE_START
G1 F8640
G1 X123.858 Y106.242 E-.28181
G1 X125 Y106.015 E-.269
G1 X125.889 Y106.191 E-.20919
;WIPE_END
G1 E-.04 F2100
G1 Z.6 F720
G1 X130.585 Y108 F10800
G1 Z.2 F720
G1 E.8 F2100
M204 S800
G1 F1200
G1 X131.152 Y107.152 E.03198
G1 X132 Y106.585 E.03198
G1 X133 Y106.386 E.03198
G1 X134 Y106.585 E.03198
G1 X134.848 Y107.152 E.03198
G1 X135.415 Y108 E.03198
G1 X135.614 Y109 E.03198
G1 X135.415 Y110 E.03198
G1 X134.848 Y110.848 E.03198
G1 X134 Y111.415 E.03198
G1 X133 Y111.614 E.03198
G1 X132 Y111.415 E.03198
G1 X131.152 Y110.848 E.03198
G1 X130.585 Y110 E.03198
G1 X130.386 Y109 E.03198
G1 X130.573 Y108.058 E.0301
M204 S1000
G1 X130.341 Y107.682 F10800
G1 X130.242 Y107.858
M204 S800
G1 F1200
G1 X130.889 Y106.889 E.03652
G1 X131.858 Y106.242 E.03652
G1 X133 Y106.015 E.03653
G1 X134.142 Y106.242 E.03652
G1 X135.111 Y106.889 E.03652
G1 X135.758 Y107.858 E.03652
G1 X135.985 Y109 E.03652
G1 X135.758 Y110.142 E.03652
G1 X135.111 Y111.111 E.03652
G1 X134.142 Y111.758 E.03652
G1 X133 Y111.985 E.03652
G1 X131.858 Y111.758 E.03652
G1 X130.889 Y111.111 E.03652
G1 X130.242 Y110.142 E.03652
G1 X130.015 Y109 E.03652
G1 X130.23 Y107.916 E.03464
M204 S1000
G1 X130.638 Y107.805 F10800
;WIPE_START
G1 F8640
G1 X130.889 Y106.889 E-.28181
G1 X131.858 Y106.242 E-.26896
G1 X132.746 Y106.065 E-.20923
;WIPE_END
G1 E-.04 F2100
G1 Z.6 F720
G1 X119.614 Y109 F10800
M73 Q5 S14
G1 Z.2 F720
G1 E.8 F2100
M204 S800
M73 P5 R14
G1 F1200
G1 X119.415 Y110 E.03198
G1 X118.848 Y110.848 E.03198
G1 X118 Y111.415 E.03198
G1 X117 Y111.614 E.03198
G1 X116 Y111.415 E.03198
G1 X115.152 Y110.848 E.03198
G1 X114.585 Y110 E.03198
G1 X114.386 Y109 E.03198
G1 X114.585 Y108 E.03198
G1 X115.152 Y107.152 E.03198
G1 X116 Y106.585 E.03198
G1 X117 Y106.386 E.03198
G1 X118 Y106.585 E.03198
G1 X118.848 Y107.152 E.03198
G1 X119.415 Y108 E.03198
G1 X119.602 Y108.941 E.0301
M204 S1000
G1 X119.961 Y109.2 F10800
G1 X119.985 Y109
M204 S800
G1 F1200
G1 X119.758 Y110.142 E.03652
G1 X119.111 Y111.111 E.03652
G1 X118.142 Y111.758 E.03652
G1 X117 Y111.985 E.03652
G1 X115.858 Y111.758 E.03652
G1 X114.889 Y111.111 E.03652
G1 X114.242 Y110.142 E.03652
G1 X114.015 Y109 E.03652
G1 X114.242 Y107.858 E.03652
G1 X114.889 Y106.889 E.03652
G1 X115.858 Y106.242 E.03652
G1 X117 Y106.015 E.03653
G1 X118.142 Y106.242 E.03652
G1 X119.111 Y106.889 E.03652
G1 X119.758 Y107.858 E.03652
G1 X119.974 Y108.941 E.03464
M204 S1000
G1 X119.639 Y109.2 F10800
;WIPE_START
G1 F8640
G1 X119.758 Y110.142 E-.28181
G1 X119.111 Y111.111 E-.26896
G1 X118.358 Y111.614 E-.20922
;WIPE_END
G1 E-.04 F2100
G1 Z.6 F720
G1 X124 Y103.415 F10800
G1 Z.2 F720
G1 E.8 F2100
M204 S800
G1 F1200
G1 X123.152 Y102.848 E.03198
G1 X122.585 Y102 E.03198
G1 X122.386 Y101 E.03198
G1 X122.585 Y100 E.03198
G1 X123.152 Y99.152 E.03198
G1 X124 Y98.585 E.03198
G1 X125 Y98.386 E.03198
G1 X126 Y98.585 E.03198
G1 X126.848 Y99.152 E.03198
G1 X127.415 Y100 E.03198
G1 X127.614 Y101 E.03198
G1 X127.415 Y102 E.03198
G1 X126.848 Y102.848 E.03198
G1 X126 Y103.415 E.03198
G1 X125 Y103.614 E.03198
G1 X124.058 Y103.427 E.0301
M204 S1000
G1 X123.682 Y103.659 F10800
G1 X123.858 Y103.758
M204 S800
G1 F1200
G1 X122.889 Y103.111 E.03652
G1 X122.242 Y102.142 E.03652
G1 X122.015 Y101 E.03652
G1 X122.242 Y99.858 E.03652
G1 X122.889 Y98.889 E.03652
G1 X123.858 Y98.242 E.03652
G1 X125 Y98.015 E.03653
G1 X126.142 Y98.242 E.03652
G1 X127.111 Y98.889 E.03652
G1 X127.758 Y99.858 E.03652
G1 X127.985 Y101 E.03652
G1 X127.758 Y102.142 E.03652
G1 X127.111 Y103.111 E.03652
G1 X126.142 Y103.758 E.03652
G1 X125 Y103.985 E.03652
G1 X123.916 Y103.77 E.03464
M204 S1000
G1 X123.805 Y103.362 F10800
;WIPE_START
G1 F8640
G1 X122.889 Y103.111 E-.28181
G1 X122.242 Y102.142 E-.26896
G1 X122.065 Y101.254 E-.20923
;WIPE_END
G1 E-.04 F2100
G1 Z.6 F720
G1 X119.415 Y102 F10800
G1 Z.2 F720
G1 E.8 F2100
M204 S800
G1 F1200
G1 X118.848 Y102.848 E.03198
G1 X118 Y103.415 E.03198
G1 X117 Y103.614 E.03198
G1 X116 Y103.415 E.03198
G1 X115.152 Y102.848 E.03198
G1 X114.585 Y102 E.03198
G1 X114.386 Y101 E.03198
G1 X114.585 Y100 E.03198
G1 X115.152 Y99.152 E.03198
G1 X116 Y98.585 E.03198
G1 X117 Y98.386 E.03198
G1 X118 Y98.585 E.03198
G1 X118.848 Y99.152 E.03198
G1 X119.415 Y100 E.03198
G1 X119.614 Y101 E.03198
G1 X119.427 Y101.942 E.0301
M204 S1000
G1 X119.659 Y102.318 F10800
G1 X119.758 Y102.142
M204 S800
G1 F1200
G1 X119.111 Y103.111 E.03652
G1 X118.142 Y103.758 E.03652
G1 X117 Y103.985 E.03652
G1 X115.858 Y103.758 E.03652
G1 X114.889 Y103.111 E.03652
G1 X114.242 Y102.142 E.03652
G1 X114.015 Y101 E.03652
G1 X114.242 Y99.858 E.03652
G1 X114.889 Y98.889 E.03652
G1 X115.858 Y98.242 E.03652
G1 X117 Y98.015 E.03653
G1 X118.142 Y98.242 E.03652
G1 X119.111 Y98.889 E.03652
G1 X119.758 Y99.858 E.03652
G1 X119.985 Y101 E.03652
G1 X119.77 Y102.084 E.03464
M204 S1000
G1 X119.362 Y102.195 F10800
;WIPE_START
G1 F8640
G1 X119.111 Y103.111 E-.28181
G1 X118.142 Y103.758 E-.26896
G1 X117.254 Y103.935 E-.20923
;WIPE_END
G1 E-.04 F2100
G1 Z.6 F720
G1 X130.386 Y101 F10800
G1 Z.2 F720
G1 E.8 F2100
M204 S800
G1 F1200
G1 X130.585 Y100 E.03198
G1 X131.152 Y99.152 E.03198
G1 X132 Y98.585 E.03198
G1 X133 Y98.386 E.03198
G1 X134 Y98.585 E.03198
G1 X134.848 Y99.152 E.03198
G1 X135.415 Y100 E.03198
G1 X135.614 Y101 E.03198
G1 X135.415 Y102 E.03198
G1 X134.848 Y102.848 E.03198
G1 X134 Y103.415 E.03198
G1 X133 Y103.614 E.03198
G1 X132 Y103.415 E.03198
G1 X131.152 Y102.848 E.03198
G1 X130.585 Y102 E.03198
G1 X130.398 Y101.059 E.0301
M204 S1000
G1 X130.039 Y100.8 F10800
G1 X130.015 Y101
M204 S800
G1 F1200
G1 X130.242 Y99.858 E.03652
G1 X130.889 Y98.889 E.03652
G1 X131.858 Y98.242 E.03652
G1 X133 Y98.015 E.03653
G1 X134.142 Y98.242 E.03652
G1 X135.111 Y98.889 E.03652
G1 X135.758 Y99.858 E.03652
G1 X135.985 Y101 E.03652
G1 X135.758 Y102.142 E.03652
G1 X135.111 Y103.111 E.03652
G1 X134.142 Y103.758 E.03652
G1 X133 Y103.985 E.03652
G1 X131.858 Y103.758 E.03652
G1 X130.889 Y103.111 E.03652
G1 X130.242 Y102.142 E.03652
G1 X130.026 Y101.059 E.03464
M204 S1000
G1 X130.361 Y100.8 F10800
; stop printing object Lego 88646 (x1.05).stl id:0 copy 0
M106 S84.15
;LAYER_CHANGE
;Z:0.35
;HEIGHT:0.15
;BEFORE_LAYER_CHANGE
G92 E0.0
;0.35


;WIPE_START
G1 F8640
G1 X130.242 Y99.858 E-.28181
G1 X130.889 Y98.889 E-.26896
G1 X131.642 Y98.386 E-.20922
;WIPE_END
G1 E-.04 F2100
G1 Z.6 F720
;AFTER_LAYER_CHANGE
;0.35
G1 X131.642 Y90.246 F10800
G1 Z.35 F720
M73 Q6 S14
G1 E.8 F2100
;TYPE:Skirt/Brim
G1 F3000
G1 X141 Y90.246 E.22631
G1 X142.417 Y90.639 E.03557
M73 P6 R14
G1 X143.431 Y91.705 E.03557
G1 X143.754 Y93 E.03229
G1 X143.754 Y117 E.58044
G1 X143.361 Y118.417 E.03557
G1 X142.295 Y119.431 E.03557
G1 X141 Y119.754 E.03229
G1 X109 Y119.754 E.77392
G1 X107.583 Y119.361 E.03557
G1 X106.569 Y118.295 E.03557
G1 X106.246 Y117 E.03229
G1 X106.246 Y93 E.58044
G1 X106.639 Y91.583 E.03557
G1 X107.705 Y90.569 E.03557
G1 X109 Y90.246 E.03229
G1 X131.582 Y90.246 E.54615
G1 X131.582 Y90.623 F10800
G1 F3000
G1 X141 Y90.623 E.22776
G1 X142.307 Y91.015 E.033
G1 X143.183 Y92.06 E.033
G1 X143.377 Y93 E.02321
G1 X143.377 Y117 E.58044
G1 X142.985 Y118.307 E.033
G1 X141.94 Y119.183 E.033
G1 X141 Y119.377 E.02321
G1 X109 Y119.377 E.77392
G1 X107.693 Y118.985 E.033
G1 X106.817 Y117.94 E.033
G1 X106.623 Y117 E.02321
G1 X106.623 Y93 E.58044
G1 X107.015 Y91.693 E.033
G1 X108.06 Y90.817 E.033
G1 X109 Y90.623 E.02321
G1 X131.522 Y90.623 E.5447
; printing object Lego 88646 (x1.05).stl id:0 copy 0
;WIPE_START
G1 F8640
G1 X134.814 Y90.623 E-.76
;WIPE_END
G1 E-.04 F2100
G1 Z.75 F720
G1 X118.859 Y107.141 F10800
G1 Z.35 F720
G1 E.8 F2100
M204 S800
;TYPE:External perimeter
;WIDTH:0.45
G1 F1500
G1 X119.429 Y107.994 E.02673
G1 X119.629 Y109 E.02673
G1 X119.429 Y110.006 E.02673
G1 X118.859 Y110.859 E.02673
G1 X118.006 Y111.429 E.02673
G1 X117 Y111.629 E.02673
G1 X115.994 Y111.429 E.02673
G1 X115.141 Y110.859 E.02673
G1 X114.571 Y110.006 E.02673
G1 X114.371 Y109 E.02673
G1 X114.571 Y107.994 E.02673
G1 X115.141 Y107.141 E.02673
G1 X115.994 Y106.571 E.02673
G1 X117 Y106.371 E.02673
G1 X118.006 Y106.571 E.02673
G1 X118.809 Y107.107 E.02517
M204 S1000
G1 X119.246 Y107.037 F10800
G1 X119.101 Y106.899
M204 S800
G1 F1500
G1 X119.744 Y107.863 E.0302
G1 X119.971 Y109 E.0302
G1 X119.744 Y110.137 E.0302
G1 X119.101 Y111.101 E.0302
G1 X118.137 Y111.744 E.0302
G1 X117 Y111.971 E.0302
G1 X115.863 Y111.744 E.0302
G1 X114.899 Y111.101 E.0302
G1 X114.256 Y110.137 E.0302
G1 X114.029 Y109 E.0302
G1 X114.256 Y107.863 E.0302
G1 X114.899 Y106.899 E.0302
G1 X115.863 Y106.256 E.0302
G1 X117 Y106.029 E.0302
G1 X118.137 Y106.256 E.0302
G1 X119.051 Y106.866 E.02864
M204 S1000
G1 X118.997 Y107.286 F10800
;WIPE_START
G1 F8640
G1 X119.744 Y107.863 E-.28048
G1 X119.971 Y109 E-.26763
G1 X119.792 Y109.9 E-.21189
;WIPE_END
G1 E-.04 F2100
G1 Z.75 F720
G1 X118.006 Y103.429 F10800
G1 Z.35 F720
G1 E.8 F2100
M204 S800
G1 F1500
G1 X117 Y103.629 E.02673
G1 X115.994 Y103.429 E.02673
G1 X115.141 Y102.859 E.02673
G1 X114.571 Y102.006 E.02673
G1 X114.371 Y101 E.02673
G1 X114.571 Y99.994 E.02673
G1 X115.141 Y99.141 E.02673
G1 X115.994 Y98.571 E.02673
G1 X117 Y98.371 E.02673
G1 X118.006 Y98.571 E.02673
G1 X118.859 Y99.141 E.02673
G1 X119.429 Y99.994 E.02673
G1 X119.629 Y101 E.02673
G1 X119.429 Y102.006 E.02673
G1 X118.859 Y102.859 E.02673
G1 X118.056 Y103.396 E.02517
M204 S1000
G1 X117.954 Y103.826 F10800
G1 X118.137 Y103.744
M204 S800
G1 F1500
G1 X117 Y103.971 E.0302
G1 X115.863 Y103.744 E.0302
G1 X114.899 Y103.101 E.0302
G1 X114.256 Y102.137 E.0302
G1 X114.029 Y101 E.0302
G1 X114.256 Y99.863 E.0302
G1 X114.899 Y98.899 E.0302
M73 Q7 S14
G1 X115.863 Y98.256 E.0302
G1 X117 Y98.029 E.0302
G1 X118.137 Y98.256 E.0302
G1 X119.101 Y98.899 E.0302
G1 X119.744 Y99.863 E.0302
G1 X119.971 Y101 E.0302
M73 P7 R14
G1 X119.744 Y102.137 E.0302
G1 X119.101 Y103.101 E.0302
G1 X118.187 Y103.711 E.02864
M204 S1000
G1 X117.819 Y103.501 F10800
;WIPE_START
G1 F8640
G1 X117 Y103.971 E-.28048
G1 X115.863 Y103.744 E-.26763
G1 X115.1 Y103.235 E-.21188
;WIPE_END
G1 E-.04 F2100
G1 Z.75 F720
G1 X130.371 Y101 F10800
G1 Z.35 F720
G1 E.8 F2100
M204 S800
G1 F1500
G1 X130.571 Y99.994 E.02673
G1 X131.141 Y99.141 E.02673
G1 X131.994 Y98.571 E.02673
G1 X133 Y98.371 E.02673
G1 X134.006 Y98.571 E.02673
G1 X134.859 Y99.141 E.02673
G1 X135.429 Y99.994 E.02673
G1 X135.629 Y101 E.02673
G1 X135.429 Y102.006 E.02673
G1 X134.859 Y102.859 E.02673
G1 X134.006 Y103.429 E.02673
G1 X133 Y103.629 E.02673
G1 X131.994 Y103.429 E.02673
G1 X131.141 Y102.859 E.02673
G1 X130.571 Y102.006 E.02673
G1 X130.382 Y101.059 E.02517
M204 S1000
G1 X130.024 Y100.8 F10800
G1 X130.029 Y101
M204 S800
G1 F1500
G1 X130.256 Y99.863 E.0302
G1 X130.899 Y98.899 E.0302
G1 X131.863 Y98.256 E.0302
G1 X133 Y98.029 E.0302
G1 X134.137 Y98.256 E.0302
G1 X135.101 Y98.899 E.0302
G1 X135.744 Y99.863 E.0302
G1 X135.971 Y101 E.0302
G1 X135.744 Y102.137 E.0302
G1 X135.101 Y103.101 E.0302
G1 X134.137 Y103.744 E.0302
G1 X133 Y103.971 E.0302
G1 X131.863 Y103.744 E.0302
G1 X130.899 Y103.101 E.0302
G1 X130.256 Y102.137 E.0302
G1 X130.041 Y101.059 E.02864
M204 S1000
G1 X130.376 Y100.8 F10800
;WIPE_START
G1 F8640
G1 X130.256 Y99.863 E-.28048
G1 X130.899 Y98.899 E-.26763
G1 X131.662 Y98.39 E-.21189
