; generated by PrusaSlicer 2.3.0+win64 on 2022-03-10 at 19:11:46 UTC


;
;

;
;
; 

; external perimeters extrusion width = 0.45mm
; perimeters extrusion width = 0.45mm
; infill extrusion width = 0.45mm
; solid infill extrusion width = 0.45mm
; top infill extrusion width = 0.40mm
; first layer extrusion width = 0.42mm

M73 P0 R85
M201 X1250 Y1250 Z400 E5000 ; sets maximum accelerations, mm/sec^2
M203 X180 Y180 Z12 E80 ; sets maximum feedrates, mm/sec
M204 P1250 R1250 T1250 ; sets acceleration (P, T) and retract acceleration (R), mm/sec^2
M205 X8.00 Y8.00 Z2.00 E10.00 ; sets the jerk limits, mm/sec
M205 S0 T0 ; sets the minimum extruding and travel feed rate, mm/sec
M107
;TYPE:Custom
G90 ; use absolute coordinates
M83 ; extruder relative mode
M104 S170 ; set extruder temp for bed leveling
M140 S60 ; set bed temp
M109 R170 ; wait for bed leveling temp
M190 S60 ; wait for bed temp
G28 ; home all without mesh bed level
G29 ; mesh bed leveling 
M104 S215 ; set extruder temp
G92 E0.0
G1 Y-2.0 X179 F2400
G1 Z3 F720
M109 S215 ; wait for extruder temp

; intro line
G1 X170 F1000
G1 Z0.2 F720
G1 X110.0 E8.0 F900
G1 X40.0 E10.0 F700
G92 E0.0

M221 S95 ; set flow
G21 ; set units to millimeters
G90 ; use absolute coordinates
M83 ; use relative distances for extrusion
M900 K0.2 ; Filament gcode LA 1.5
; ; Filament gcode LA 1.0
;LAYER_CHANGE
;Z:0.2
;HEIGHT:0.2
;BEFORE_LAYER_CHANGE
G92 E0.0
;0.2


G1 E-3.20000 F4200.000
G1 Z0.200 F9000.000
;AFTER_LAYER_CHANGE
;0.2
G1 Z0.400
G1 X75.273 Y65.719
G1 Z0.200
G1 E3.20000 F2400.000
M204 S800
;TYPE:Skirt
;WIDTH:0.42
G1 F1200.000
G1 X75.756 Y65.350 E0.01906
G1 X76.317 Y65.115 E0.01906
G1 X76.919 Y65.030 E0.01906
G1 X103.234 Y65.030 E0.82511
G1 X103.848 Y65.111 E0.01941
G1 X104.420 Y65.349 E0.01941
G1 X104.911 Y65.726 E0.01941
G1 X105.288 Y66.217 E0.01941
G1 X118.477 Y89.064 E0.82714
G1 X118.683 Y89.611 E0.01835
G1 X118.749 Y90.193 E0.01835
G1 X118.671 Y90.773 E0.01835
G1 X118.456 Y91.313 E0.01823
G1 X105.274 Y114.146 E0.82667
G1 X104.885 Y114.637 E0.01965
G1 X104.385 Y115.009 E0.01953
G1 X103.828 Y115.232 E0.01882
G1 X103.231 Y115.308 E0.01888
G1 X76.921 Y115.308 E0.82493
G1 X76.344 Y115.230 E0.01823
G1 X75.804 Y115.015 E0.01823
G1 X75.294 Y114.639 E0.01989
G1 X74.903 Y114.144 E0.01977
G1 X61.715 Y91.301 E0.82702
G1 X61.500 Y90.749 E0.01858
G1 X61.429 Y90.164 E0.01846
G1 X61.504 Y89.576 E0.01858
G1 X61.722 Y89.025 E0.01858
G1 X74.902 Y66.195 E0.82655
G1 X75.237 Y65.766 E0.01706
M204 S1250
; printing object Body1 id:0 copy 0
G1 E-2.24000 F4200.000
;WIPE_START
G1 F7200.000
G1 X75.756 Y65.350 E-0.36907
G1 X76.317 Y65.115 E-0.33681
G1 X76.685 Y65.063 E-0.20612
;WIPE_END
G1 E-0.04800 F4200.000
G1 Z0.400 F9000.000
G1 X77.510 Y68.382
G1 Z0.200
G1 E3.20000 F2400.000
M204 S800
;TYPE:Perimeter
G1 F1200.000
G1 X102.668 Y68.382 E0.78881
G1 X115.247 Y90.169 E0.78881
G1 X102.668 Y111.956 E0.78881
G1 X77.510 Y111.956 E0.78881
G1 X64.931 Y90.169 E0.78881
G1 X77.480 Y68.434 E0.78692
M204 S1250
G1 X77.292 Y68.004 F9000.000
M204 S800
;TYPE:External perimeter
G1 F1200.000
G1 X102.886 Y68.004 E0.80246
G1 X115.682 Y90.169 E0.80246
G1 X102.886 Y112.333 E0.80246
G1 X77.292 Y112.333 E0.80246
G1 X64.496 Y90.169 E0.80246
G1 X77.262 Y68.056 E0.80058
M204 S1250
G1 X77.639 Y68.204 F9000.000
G1 E-2.24000 F4200.000
;WIPE_START
G1 F7200.000
G1 X78.908 Y68.053 E-0.91200
;WIPE_END
G1 E-0.04800 F4200.000
G1 Z0.400 F9000.000
G1 X101.830 Y68.495
G1 Z0.200
G1 E3.20000 F2400.000
M204 S800
;TYPE:Solid infill
;WIDTH:0.420974
G1 F1200.000
G1 X103.194 Y69.858 E0.06063
G1 X103.924 Y71.123 E0.04592
G1 X101.465 Y68.664 E0.10932
G1 X100.931 Y68.664 E0.01681
G1 X104.655 Y72.388 E0.16556
G1 X105.385 Y73.653 E0.04592
G1 X100.396 Y68.664 E0.22179
G1 X99.861 Y68.664 E0.01681
G1 X106.115 Y74.918 E0.27803
G1 X106.846 Y76.183 E0.04592
G1 X99.327 Y68.664 E0.33427
G1 X98.792 Y68.664 E0.01681
G1 X107.576 Y77.448 E0.39050
G1 X108.306 Y78.713 E0.04592
G1 X98.257 Y68.664 E0.44674
G1 X97.723 Y68.664 E0.01681
G1 X109.037 Y79.978 E0.50298
G1 X109.767 Y81.243 E0.04592
G1 X97.188 Y68.664 E0.55921
G1 X96.653 Y68.664 E0.01681
G1 X110.497 Y82.508 E0.61545
G1 X111.228 Y83.773 E0.04592
G1 X96.119 Y68.664 E0.67169
G1 X95.584 Y68.664 E0.01681
G1 X111.958 Y85.038 E0.72792
G1 X112.688 Y86.303 E0.04592
G1 X95.049 Y68.664 E0.78416
M73 P1 R85
G1 X94.515 Y68.664 E0.01681
G1 X113.419 Y87.568 E0.84040
G1 X114.149 Y88.833 E0.04592
G1 X93.980 Y68.664 E0.89664
G1 X93.446 Y68.664 E0.01681
G1 X114.879 Y90.098 E0.95287
M73 P1 R84
G1 X114.920 Y90.169 E0.00256
G1 X114.735 Y90.489 E0.01162
G1 X92.911 Y68.664 E0.97024
G1 X92.376 Y68.664 E0.01681
G1 X114.540 Y90.828 E0.98531
G1 X114.344 Y91.167 E0.01230
G1 X91.842 Y68.664 E1.00038
G1 X91.307 Y68.664 E0.01681
G1 X114.148 Y91.506 E1.01544
G1 X113.953 Y91.845 E0.01230
G1 X90.772 Y68.664 E1.03051
G1 X90.238 Y68.664 E0.01681
G1 X113.757 Y92.184 E1.04558
G1 X113.561 Y92.523 E0.01230
G1 X89.703 Y68.664 E1.06065
G1 X89.168 Y68.664 E0.01681
G1 X113.366 Y92.862 E1.07572
G1 X113.170 Y93.201 E0.01230
G1 X88.634 Y68.664 E1.09079
G1 X88.099 Y68.664 E0.01681
G1 X112.974 Y93.539 E1.10586
G1 X112.778 Y93.878 E0.01230
G1 X87.564 Y68.664 E1.12092
G1 X87.030 Y68.664 E0.01681
G1 X112.583 Y94.217 E1.13599
G1 X112.387 Y94.556 E0.01230
G1 X86.495 Y68.664 E1.15106
G1 X85.960 Y68.664 E0.01681
G1 X112.191 Y94.895 E1.16613
G1 X111.996 Y95.234 E0.01230
G1 X85.426 Y68.664 E1.18120
G1 X84.891 Y68.664 E0.01681
G1 X111.800 Y95.573 E1.19627
G1 X111.604 Y95.912 E0.01230
G1 X84.356 Y68.664 E1.21134
G1 X83.822 Y68.664 E0.01681
G1 X111.409 Y96.251 E1.22640
G1 X111.213 Y96.590 E0.01230
G1 X83.287 Y68.664 E1.24147
G1 X82.753 Y68.664 E0.01681
G1 X111.017 Y96.929 E1.25654
G1 X110.822 Y97.268 E0.01230
G1 X82.218 Y68.664 E1.27161
G1 X81.683 Y68.664 E0.01681
G1 X110.626 Y97.607 E1.28668
G1 X110.430 Y97.946 E0.01230
G1 X81.149 Y68.664 E1.30175
G1 X80.614 Y68.664 E0.01681
G1 X110.234 Y98.285 E1.31682
G1 X110.039 Y98.624 E0.01230
G1 X80.079 Y68.664 E1.33188
M73 P2 R84
G1 X79.545 Y68.664 E0.01681
G1 X109.843 Y98.963 E1.34695
G1 X109.647 Y99.302 E0.01230
G1 X79.010 Y68.664 E1.36202
G1 X78.475 Y68.664 E0.01681
G1 X109.452 Y99.641 E1.37709
G1 X109.256 Y99.980 E0.01230
G1 X77.941 Y68.664 E1.39216
G1 X77.673 Y68.664 E0.00841
G1 X77.575 Y68.834 E0.00615
G1 X109.060 Y100.319 E1.39970
G1 X108.865 Y100.658 E0.01230
G1 X77.380 Y69.173 E1.39970
M73 P2 R83
G1 X77.184 Y69.512 E0.01230
G1 X108.669 Y100.996 E1.39970
G1 X108.473 Y101.335 E0.01230
G1 X76.988 Y69.851 E1.39970
G1 X76.793 Y70.190 E0.01230
G1 X108.277 Y101.674 E1.39970
G1 X108.082 Y102.013 E0.01230
G1 X76.597 Y70.529 E1.39970
G1 X76.401 Y70.867 E0.01230
G1 X107.886 Y102.352 E1.39970
G1 X107.690 Y102.691 E0.01230
G1 X76.206 Y71.206 E1.39970
G1 X76.010 Y71.545 E0.01230
G1 X107.495 Y103.030 E1.39970
G1 X107.299 Y103.369 E0.01230
G1 X75.814 Y71.884 E1.39970
G1 X75.619 Y72.223 E0.01230
G1 X107.103 Y103.708 E1.39970
G1 X106.908 Y104.047 E0.01230
G1 X75.423 Y72.562 E1.39970
G1 X75.227 Y72.901 E0.01230
G1 X106.712 Y104.386 E1.39970
G1 X106.516 Y104.725 E0.01230
G1 X75.031 Y73.240 E1.39970
G1 X74.836 Y73.579 E0.01230
G1 X106.321 Y105.064 E1.39970
G1 X106.125 Y105.403 E0.01230
G1 X74.640 Y73.918 E1.39970
G1 X74.444 Y74.257 E0.01230
G1 X105.929 Y105.742 E1.39970
G1 X105.733 Y106.081 E0.01230
G1 X74.249 Y74.596 E1.39970
G1 X74.053 Y74.935 E0.01230
G1 X105.538 Y106.420 E1.39970
M73 P3 R83
G1 X105.342 Y106.759 E0.01230
G1 X73.857 Y75.274 E1.39970
G1 X73.662 Y75.613 E0.01230
G1 X105.146 Y107.098 E1.39970
G1 X104.951 Y107.437 E0.01230
G1 X73.466 Y75.952 E1.39970
G1 X73.270 Y76.291 E0.01230
G1 X104.755 Y107.776 E1.39970
G1 X104.559 Y108.115 E0.01230
G1 X73.074 Y76.630 E1.39970
G1 X72.879 Y76.969 E0.01230
G1 X104.364 Y108.453 E1.39970
G1 X104.168 Y108.792 E0.01230
G1 X72.683 Y77.308 E1.39970
G1 X72.487 Y77.647 E0.01230
G1 X103.972 Y109.131 E1.39970
G1 X103.777 Y109.470 E0.01230
G1 X72.292 Y77.986 E1.39970
M73 P3 R82
G1 X72.096 Y78.324 E0.01230
G1 X103.581 Y109.809 E1.39970
G1 X103.385 Y110.148 E0.01230
G1 X71.900 Y78.663 E1.39970
G1 X71.705 Y79.002 E0.01230
G1 X103.189 Y110.487 E1.39970
G1 X102.994 Y110.826 E0.01230
G1 X71.509 Y79.341 E1.39970
G1 X71.313 Y79.680 E0.01230
G1 X102.798 Y111.165 E1.39970
G1 X102.602 Y111.504 E0.01230
G1 X71.118 Y80.019 E1.39970
G1 X70.922 Y80.358 E0.01230
G1 X102.237 Y111.673 E1.39216
G1 X101.702 Y111.673 E0.01681
G1 X70.726 Y80.697 E1.37709
G1 X70.530 Y81.036 E0.01230
G1 X101.168 Y111.673 E1.36202
G1 X100.633 Y111.673 E0.01681
G1 X70.335 Y81.375 E1.34695
G1 X70.139 Y81.714 E0.01230
G1 X100.098 Y111.673 E1.33188
G1 X99.564 Y111.673 E0.01681
G1 X69.943 Y82.053 E1.31681
G1 X69.748 Y82.392 E0.01230
G1 X99.029 Y111.673 E1.30174
G1 X98.494 Y111.673 E0.01681
G1 X69.552 Y82.731 E1.28668
M73 P4 R82
G1 X69.356 Y83.070 E0.01230
G1 X97.960 Y111.673 E1.27161
G1 X97.425 Y111.673 E0.01681
G1 X69.161 Y83.409 E1.25654
G1 X68.965 Y83.748 E0.01230
G1 X96.891 Y111.673 E1.24147
G1 X96.356 Y111.673 E0.01681
G1 X68.769 Y84.087 E1.22640
G1 X68.573 Y84.426 E0.01230
G1 X95.821 Y111.673 E1.21133
G1 X95.287 Y111.673 E0.01681
G1 X68.378 Y84.765 E1.19626
G1 X68.182 Y85.104 E0.01230
G1 X94.752 Y111.673 E1.18119
G1 X94.217 Y111.673 E0.01681
G1 X67.986 Y85.443 E1.16613
G1 X67.791 Y85.781 E0.01230
G1 X93.683 Y111.673 E1.15106
G1 X93.148 Y111.673 E0.01681
G1 X67.595 Y86.120 E1.13599
G1 X67.399 Y86.459 E0.01230
G1 X92.613 Y111.673 E1.12092
G1 X92.079 Y111.673 E0.01681
G1 X67.204 Y86.798 E1.10585
G1 X67.008 Y87.137 E0.01230
G1 X91.544 Y111.673 E1.09078
G1 X91.009 Y111.673 E0.01681
G1 X66.812 Y87.476 E1.07571
G1 X66.617 Y87.815 E0.01230
G1 X90.475 Y111.673 E1.06065
G1 X89.940 Y111.673 E0.01681
G1 X66.421 Y88.154 E1.04558
M73 P4 R81
G1 X66.225 Y88.493 E0.01230
G1 X89.405 Y111.673 E1.03051
G1 X88.871 Y111.673 E0.01681
G1 X66.029 Y88.832 E1.01544
G1 X65.834 Y89.171 E0.01230
G1 X88.336 Y111.673 E1.00037
G1 X87.801 Y111.673 E0.01681
G1 X65.638 Y89.510 E0.98530
G1 X65.442 Y89.849 E0.01230
G1 X87.267 Y111.673 E0.97023
G1 X86.732 Y111.673 E0.01681
G1 X65.299 Y90.240 E0.95286
G1 X66.029 Y91.505 E0.04592
G1 X86.198 Y111.673 E0.89662
G1 X85.663 Y111.673 E0.01681
G1 X66.759 Y92.770 E0.84038
G1 X67.490 Y94.035 E0.04592
G1 X85.128 Y111.673 E0.78415
G1 X84.594 Y111.673 E0.01681
G1 X68.220 Y95.300 E0.72791
G1 X68.950 Y96.565 E0.04592
G1 X84.059 Y111.673 E0.67167
G1 X83.524 Y111.673 E0.01681
G1 X69.681 Y97.830 E0.61544
G1 X70.411 Y99.095 E0.04592
G1 X82.990 Y111.673 E0.55920
G1 X82.455 Y111.673 E0.01681
G1 X71.141 Y100.360 E0.50296
G1 X71.872 Y101.625 E0.04592
G1 X81.920 Y111.673 E0.44673
G1 X81.386 Y111.673 E0.01681
G1 X72.602 Y102.890 E0.39049
G1 X73.332 Y104.155 E0.04592
G1 X80.851 Y111.673 E0.33425
M73 P5 R81
G1 X80.316 Y111.673 E0.01681
G1 X74.063 Y105.420 E0.27802
G1 X74.793 Y106.685 E0.04592
G1 X79.782 Y111.673 E0.22178
G1 X79.247 Y111.673 E0.01681
G1 X75.523 Y107.950 E0.16554
G1 X76.254 Y109.215 E0.04592
G1 X78.712 Y111.673 E0.10930
G1 X78.178 Y111.673 E0.01681
G1 X76.521 Y110.016 E0.07368
M204 S1250
; stop printing object Body1 id:0 copy 0
M106 S84.15
;LAYER_CHANGE
;Z:0.35
;HEIGHT:0.15
;BEFORE_LAYER_CHANGE
G92 E0.0
;0.35


G1 E-2.24000 F4200.000
;WIPE_START
G1 F7200.000
G1 X77.684 Y111.180 E-0.91200
;WIPE_END
G1 E-0.04800 F4200.000
G1 Z0.400 F9000.000
;AFTER_LAYER_CHANGE
;0.35
G1 X75.294 Y114.639
G1 Z0.350
G1 E3.20000 F2400.000
;TYPE:Skirt
;WIDTH:0.42
G1 X74.903 Y114.144 E0.01525
G1 X61.715 Y91.301 E0.63792
G1 X61.500 Y90.749 E0.01433
G1 X61.429 Y90.164 E0.01424
G1 X61.504 Y89.576 E0.01433
G1 X61.722 Y89.025 E0.01433
G1 X74.902 Y66.195 E0.63755
G1 X75.273 Y65.719 E0.01461
G1 X75.756 Y65.350 E0.01470
G1 X76.317 Y65.115 E0.01470
G1 X76.919 Y65.030 E0.01470
G1 X103.234 Y65.030 E0.63644
G1 X103.848 Y65.111 E0.01497
G1 X104.420 Y65.349 E0.01497
G1 X104.911 Y65.726 E0.01497
G1 X105.288 Y66.217 E0.01497
G1 X118.477 Y89.064 E0.63801
G1 X118.683 Y89.611 E0.01415
G1 X118.749 Y90.193 E0.01415
G1 X118.671 Y90.773 E0.01415
G1 X118.456 Y91.313 E0.01406
G1 X105.274 Y114.146 E0.63764
G1 X104.885 Y114.637 E0.01516
G1 X104.385 Y115.009 E0.01506
G1 X103.828 Y115.232 E0.01452
G1 X103.231 Y115.308 E0.01456
G1 X76.921 Y115.308 E0.63630
G1 X76.344 Y115.230 E0.01406
G1 X75.804 Y115.015 E0.01406
G1 X75.342 Y114.674 E0.01389
; printing object Body1 id:0 copy 0
G1 E-2.24000 F4200.000
;WIPE_START
G1 F7200.000
G1 X74.903 Y114.144 E-0.38154
G1 X74.425 Y113.315 E-0.53046
;WIPE_END
G1 E-0.04800 F4200.000
G1 Z0.550 F9000.000
G1 X77.368 Y112.201
G1 Z0.350
G1 E3.20000 F2400.000
M204 S800
;TYPE:Perimeter
;WIDTH:0.45
G1 X64.648 Y90.169 E0.66289
G1 X77.368 Y68.136 E0.66289
G1 X102.809 Y68.136 E0.66289
G1 X115.530 Y90.169 E0.66289
G1 X102.809 Y112.201 E0.66289
G1 X77.428 Y112.201 E0.66132
M204 S1250
G1 X77.127 Y112.619 F9000.000
M204 S800
;TYPE:External perimeter
G1 F1800.000
G1 X64.165 Y90.169 E0.67546
G1 X77.127 Y67.718 E0.67546
G1 X103.051 Y67.718 E0.67546
G1 X116.012 Y90.169 E0.67546
G1 X103.051 Y112.619 E0.67546
G1 X77.187 Y112.619 E0.67389
M204 S1250
G1 X77.127 Y112.219 F9000.000
G1 E-2.24000 F4200.000
;WIPE_START
G1 F7200.000
G1 X76.361 Y111.196 E-0.91200
;WIPE_END
G1 E-0.04800 F4200.000
G1 Z0.550 F9000.000
G1 X78.295 Y68.262
G1 Z0.350
G1 E3.20000 F2400.000
M204 S1000
;TYPE:Solid infill
;WIDTH:0.45027
G1 F4800.000
G1 X76.788 Y69.768 E0.05556
G1 X75.980 Y71.167 E0.04212
G1 X78.698 Y68.450 E0.10020
G1 X79.289 Y68.450 E0.01542
G1 X75.173 Y72.566 E0.15179
G1 X74.365 Y73.965 E0.04212
G1 X79.880 Y68.450 E0.20337
G1 X80.472 Y68.450 E0.01542
G1 X73.557 Y75.364 E0.25495
G1 X72.750 Y76.763 E0.04212
G1 X81.063 Y68.450 E0.30653
G1 X81.654 Y68.450 E0.01542
G1 X71.942 Y78.162 E0.35811
G1 X71.134 Y79.561 E0.04212
G1 X82.245 Y68.450 E0.40969
G1 X82.837 Y68.450 E0.01542
G1 X70.327 Y80.960 E0.46127
G1 X69.519 Y82.359 E0.04212
G1 X83.428 Y68.450 E0.51286
G1 X84.019 Y68.450 E0.01542
G1 X68.711 Y83.758 E0.56444
G1 X67.904 Y85.156 E0.04212
G1 X84.610 Y68.450 E0.61602
G1 X85.202 Y68.450 E0.01542
G1 X67.096 Y86.555 E0.66760
G1 X66.288 Y87.954 E0.04212
G1 X85.793 Y68.450 E0.71918
G1 X86.384 Y68.450 E0.01542
G1 X65.481 Y89.353 E0.77076
G1 X65.010 Y90.169 E0.02456
G1 X65.100 Y90.325 E0.00471
G1 X86.975 Y68.450 E0.80660
G1 X87.567 Y68.450 E0.01542
G1 X65.316 Y90.700 E0.82042
G1 X65.533 Y91.075 E0.01128
G1 X88.158 Y68.450 E0.83424
G1 X88.749 Y68.450 E0.01542
G1 X65.749 Y91.450 E0.84806
G1 X65.966 Y91.825 E0.01128
G1 X89.340 Y68.450 E0.86189
G1 X89.932 Y68.450 E0.01542
G1 X66.182 Y92.199 E0.87571
G1 X66.398 Y92.574 E0.01128
G1 X90.523 Y68.450 E0.88953
G1 X91.114 Y68.450 E0.01542
G1 X66.615 Y92.949 E0.90335
G1 X66.831 Y93.324 E0.01128
G1 X91.706 Y68.450 E0.91717
G1 X92.297 Y68.450 E0.01542
G1 X67.048 Y93.699 E0.93099
G1 X67.264 Y94.074 E0.01128
G1 X92.888 Y68.450 E0.94481
G1 X93.479 Y68.450 E0.01542
G1 X67.480 Y94.448 E0.95863
G1 X67.697 Y94.823 E0.01128
G1 X94.071 Y68.450 E0.97246
G1 X94.662 Y68.450 E0.01542
G1 X67.913 Y95.198 E0.98628
G1 X68.130 Y95.573 E0.01128
G1 X95.253 Y68.450 E1.00010
G1 X95.844 Y68.450 E0.01542
G1 X68.346 Y95.948 E1.01392
G1 X68.563 Y96.323 E0.01128
G1 X96.436 Y68.450 E1.02774
G1 X97.027 Y68.450 E0.01542
G1 X68.779 Y96.697 E1.04156
G1 X68.995 Y97.072 E0.01128
G1 X97.618 Y68.450 E1.05538
G1 X98.209 Y68.450 E0.01542
G1 X69.212 Y97.447 E1.06920
G1 X69.428 Y97.822 E0.01128
G1 X98.801 Y68.450 E1.08303
G1 X99.392 Y68.450 E0.01542
G1 X69.645 Y98.197 E1.09685
G1 X69.861 Y98.572 E0.01128
G1 X99.983 Y68.450 E1.11067
G1 X100.574 Y68.450 E0.01542
G1 X70.077 Y98.946 E1.12449
G1 X70.294 Y99.321 E0.01128
G1 X101.166 Y68.450 E1.13831
G1 X101.757 Y68.450 E0.01542
G1 X70.510 Y99.696 E1.15213
G1 X70.727 Y100.071 E0.01128
G1 X102.348 Y68.450 E1.16595
G1 X102.629 Y68.450 E0.00731
G1 X102.742 Y68.647 E0.00593
G1 X70.943 Y100.446 E1.17251
G1 X71.160 Y100.821 E0.01128
G1 X102.959 Y69.021 E1.17251
G1 X103.175 Y69.396 E0.01128
G1 X71.376 Y101.196 E1.17251
M73 P5 R80
G1 X71.592 Y101.570 E0.01128
G1 X103.392 Y69.771 E1.17251
G1 X103.608 Y70.146 E0.01128
G1 X71.809 Y101.945 E1.17251
G1 X72.025 Y102.320 E0.01128
G1 X103.824 Y70.521 E1.17251
G1 X104.041 Y70.896 E0.01128
G1 X72.242 Y102.695 E1.17251
G1 X72.458 Y103.070 E0.01128
G1 X104.257 Y71.271 E1.17251
G1 X104.474 Y71.645 E0.01128
