; generated by PrusaSlicer 2.4.1+win64 on 2022-04-21 at 14:49:21 UTC

; 

; external perimeters extrusion width = 0.45mm
; perimeters extrusion width = 0.45mm
; infill extrusion width = 0.45mm
; solid infill extrusion width = 0.45mm
; top infill extrusion width = 0.40mm
; first layer extrusion width = 0.42mm

M73 P0 R43
M73 Q0 S43
M201 X1000 Y1000 Z200 E5000 ; sets maximum accelerations, mm/sec^2
M203 X200 Y200 Z12 E120 ; sets maximum feedrates, mm / sec
M204 P1250 R1250 T1250 ; sets acceleration (P, T) and retract acceleration (R), mm/sec^2
M205 X8.00 Y8.00 Z0.40 E4.50 ; sets the jerk limits, mm/sec
M205 S0 T0 ; sets the minimum extruding and travel feed rate, mm/sec
M107
;TYPE:Custom
M862.3 P "MK3S" ; printer model check
M862.1 P0.4 ; nozzle diameter check
M115 U3.10.1 ; tell printer latest fw version
G90 ; use absolute coordinates
M83 ; extruder relative mode
M104 S215 ; set extruder temp
M140 S60 ; set bed temp
M190 S60 ; wait for bed temp
M109 S215 ; wait for extruder temp
G28 W ; home all without mesh bed level
G80 ; mesh bed leveling
G1 Z0.2 F720
G1 Y-3 F1000 ; go outside print area
G92 E0
G1 X60 E9 F1000 ; intro line
G1 X100 E12.5 F1000 ; intro line
G92 E0
M221 S95

; Don't change E values below. Excessive value can damage the printer.
M907 E430 ; set extruder motor current
G21 ; set units to millimeters
G90 ; use absolute coordinates
M83 ; use relative distances for extrusion
M900 K0.05 ; Filament gcode LA 1.5
M900 K30 ; Filament gcode LA 1.0
M107
;LAYER_CHANGE
;Z:0.2
;HEIGHT:0.2
;BEFORE_LAYER_CHANGE
G92 E0.0
;0.2


G1 E-.8 F2100
G1 Z.4 F720
;AFTER_LAYER_CHANGE
;0.2
G1 X116.176 Y78.058 F10800
G1 Z.2 F720
G1 E.8 F2100
M204 S800
;TYPE:Skirt/Brim
;WIDTH:0.42
G1 F1200
G1 X127.299 Y61.502 E.62537
G1 X128.353 Y60.636 E.04278
G1 X129.272 Y60.451 E.0294
G1 X161.272 Y60.451 E1.00334
G1 X162.579 Y60.843 E.04278
G1 X163.289 Y61.57 E.03187
G1 X182.338 Y92.109 E1.12853
G1 X182.699 Y93.367 E.04103
M73 P0 R42
G1 X182.699 Y117.367 E.7525
G1 X182.307 Y118.674 E.04278
G1 X181.261 Y119.55 E.04278
G1 X180.322 Y119.744 E.03008
G1 X148.299 Y119.744 E1.00403
G1 X108.978 Y119.377 E1.23295
G1 X107.675 Y118.973 E.04278
G1 X106.808 Y117.919 E.04278
G1 X106.623 Y117 E.0294
G1 X106.623 Y93 E.7525
G1 X107.027 Y91.674 E.04345
M73 Q0 S42
G1 X116.142 Y78.108 E.51247
M204 S1000
; printing object Lego 88646 (x1.05).stl id:0 copy 0
;WIPE_START
G1 F8640
G1 X117.978 Y75.376 E-.76
;WIPE_END
G1 E-.04 F2100
G1 Z.6 F720
G1 X140.187 Y93.813 F10800
G1 Z.2 F720
G1 E.8 F2100
M204 S800
;TYPE:Perimeter
G1 F1200
G1 X140.187 Y116.187 E.70153
G1 X109.813 Y116.187 E.95236
G1 X109.813 Y93.813 E.70153
G1 X140.127 Y93.813 E.95048
M204 S1000
G1 X139.81 Y94.19 F10800
M204 S800
;TYPE:External perimeter
G1 F1200
G1 X139.81 Y115.81 E.67788
G1 X110.19 Y115.81 E.92871
M73 P1 R42
M73 Q1 S42
G1 X110.19 Y94.19 E.67788
G1 X139.75 Y94.19 E.92683
M204 S1000
G1 X140.201 Y94.107 F10800
G1 X140.213 Y93.787
M204 S800
;TYPE:Perimeter
G1 F1200
G1 X140.213 Y116.213 E.70315
G1 X109.787 Y116.213 E.95398
G1 X109.787 Y93.787 E.70315
G1 X140.153 Y93.787 E.9521
M204 S1000
G1 X140.59 Y93.41 F10800
M204 S800
;TYPE:External perimeter
G1 F1200
G1 X140.59 Y116.59 E.72679
G1 X109.41 Y116.59 E.97763
G1 X109.41 Y93.41 E.72679
G1 X140.53 Y93.41 E.97575
M204 S1000
G1 X140.468 Y93.791 F10800
;WIPE_START
G1 F8640
G1 X140.539 Y96.701 E-.76
;WIPE_END
G1 E-.04 F2100
G1 Z.6 F720
G1 X119.415 Y108 F10800
G1 Z.2 F720
G1 E.8 F2100
M204 S800
G1 F1200
G1 X119.614 Y109 E.03198
G1 X119.415 Y110 E.03198
G1 X118.848 Y110.848 E.03198
G1 X118 Y111.415 E.03198
G1 X117 Y111.614 E.03198
G1 X116 Y111.415 E.03198
G1 X115.152 Y110.848 E.03198
G1 X114.585 Y110 E.03198
G1 X114.386 Y109 E.03198
G1 X114.585 Y108 E.03198
G1 X115.152 Y107.152 E.03198
G1 X116 Y106.585 E.03198
G1 X117 Y106.386 E.03198
G1 X118 Y106.585 E.03198
G1 X118.848 Y107.152 E.03198
G1 X119.382 Y107.95 E.0301
M204 S1000
G1 X119.812 Y108.052 F10800
G1 X119.758 Y107.858
M204 S800
G1 F1200
G1 X119.985 Y109 E.03652
G1 X119.758 Y110.142 E.03652
G1 X119.111 Y111.111 E.03652
G1 X118.142 Y111.758 E.03652
G1 X117 Y111.985 E.03652
G1 X115.858 Y111.758 E.03652
G1 X114.889 Y111.111 E.03652
G1 X114.242 Y110.142 E.03652
G1 X114.015 Y109 E.03652
G1 X114.242 Y107.858 E.03652
G1 X114.889 Y106.889 E.03652
G1 X115.858 Y106.242 E.03652
G1 X117 Y106.015 E.03653
G1 X118.142 Y106.242 E.03652
G1 X119.111 Y106.889 E.03652
G1 X119.725 Y107.808 E.03464
M204 S1000
G1 X119.515 Y108.175 F10800
;WIPE_START
G1 F8640
G1 X119.985 Y109 E-.28181
G1 X119.758 Y110.142 E-.26897
G1 X119.255 Y110.896 E-.20922
;WIPE_END
G1 E-.04 F2100
G1 Z.6 F720
G1 X130.386 Y109 F10800
G1 Z.2 F720
G1 E.8 F2100
M204 S800
G1 F1200
G1 X130.585 Y108 E.03198
G1 X131.152 Y107.152 E.03198
G1 X132 Y106.585 E.03198
G1 X133 Y106.386 E.03198
G1 X134 Y106.585 E.03198
G1 X134.848 Y107.152 E.03198
G1 X135.415 Y108 E.03198
G1 X135.614 Y109 E.03198
G1 X135.415 Y110 E.03198
G1 X134.848 Y110.848 E.03198
G1 X134 Y111.415 E.03198
G1 X133 Y111.614 E.03198
G1 X132 Y111.415 E.03198
G1 X131.152 Y110.848 E.03198
G1 X130.585 Y110 E.03198
G1 X130.398 Y109.059 E.0301
M204 S1000
G1 X130.039 Y108.8 F10800
G1 X130.015 Y109
M204 S800
G1 F1200
G1 X130.242 Y107.858 E.03652
G1 X130.889 Y106.889 E.03652
G1 X131.858 Y106.242 E.03652
G1 X133 Y106.015 E.03653
G1 X134.142 Y106.242 E.03652
G1 X135.111 Y106.889 E.03652
G1 X135.758 Y107.858 E.03652
G1 X135.985 Y109 E.03652
G1 X135.758 Y110.142 E.03652
G1 X135.111 Y111.111 E.03652
G1 X134.142 Y111.758 E.03652
G1 X133 Y111.985 E.03652
G1 X131.858 Y111.758 E.03652
G1 X130.889 Y111.111 E.03652
G1 X130.242 Y110.142 E.03652
G1 X130.026 Y109.059 E.03464
M204 S1000
G1 X130.361 Y108.8 F10800
;WIPE_START
G1 F8640
G1 X130.242 Y107.858 E-.28181
G1 X130.889 Y106.889 E-.26896
G1 X131.642 Y106.386 E-.20922
;WIPE_END
G1 E-.04 F2100
G1 Z.6 F720
G1 X127.614 Y109 F10800
G1 Z.2 F720
G1 E.8 F2100
M204 S800
G1 F1200
G1 X127.415 Y110 E.03198
G1 X126.848 Y110.848 E.03198
G1 X126 Y111.415 E.03198
G1 X125 Y111.614 E.03198
G1 X124 Y111.415 E.03198
G1 X123.152 Y110.848 E.03198
G1 X122.585 Y110 E.03198
G1 X122.386 Y109 E.03198
G1 X122.585 Y108 E.03198
G1 X123.152 Y107.152 E.03198
G1 X124 Y106.585 E.03198
G1 X125 Y106.386 E.03198
G1 X126 Y106.585 E.03198
G1 X126.848 Y107.152 E.03198
G1 X127.415 Y108 E.03198
G1 X127.602 Y108.941 E.0301
M204 S1000
G1 X127.961 Y109.2 F10800
G1 X127.985 Y109
M204 S800
G1 F1200
G1 X127.758 Y110.142 E.03652
G1 X127.111 Y111.111 E.03652
G1 X126.142 Y111.758 E.03652
G1 X125 Y111.985 E.03652
G1 X123.858 Y111.758 E.03652
G1 X122.889 Y111.111 E.03652
G1 X122.242 Y110.142 E.03652
G1 X122.015 Y109 E.03652
G1 X122.242 Y107.858 E.03652
G1 X122.889 Y106.889 E.03652
G1 X123.858 Y106.242 E.03652
G1 X125 Y106.015 E.03653
G1 X126.142 Y106.242 E.03652
G1 X127.111 Y106.889 E.03652
G1 X127.758 Y107.858 E.03652
G1 X127.974 Y108.941 E.03464
M204 S1000
G1 X127.639 Y109.2 F10800
;WIPE_START
G1 F8640
G1 X127.758 Y110.142 E-.28181
G1 X127.111 Y111.111 E-.26896
G1 X126.358 Y111.614 E-.20922
;WIPE_END
G1 E-.04 F2100
G1 Z.6 F720
G1 X132 Y103.415 F10800
G1 Z.2 F720
G1 E.8 F2100
M204 S800
G1 F1200
G1 X131.152 Y102.848 E.03198
G1 X130.585 Y102 E.03198
G1 X130.386 Y101 E.03198
G1 X130.585 Y100 E.03198
G1 X131.152 Y99.152 E.03198
G1 X132 Y98.585 E.03198
G1 X133 Y98.386 E.03198
G1 X134 Y98.585 E.03198
G1 X134.848 Y99.152 E.03198
G1 X135.415 Y100 E.03198
G1 X135.614 Y101 E.03198
G1 X135.415 Y102 E.03198
G1 X134.848 Y102.848 E.03198
G1 X134 Y103.415 E.03198
G1 X133 Y103.614 E.03198
G1 X132.058 Y103.427 E.0301
M204 S1000
G1 X131.682 Y103.659 F10800
G1 X131.858 Y103.758
M204 S800
G1 F1200
G1 X130.889 Y103.111 E.03652
G1 X130.242 Y102.142 E.03652
G1 X130.015 Y101 E.03652
G1 X130.242 Y99.858 E.03652
G1 X130.889 Y98.889 E.03652
G1 X131.858 Y98.242 E.03652
G1 X133 Y98.015 E.03653
G1 X134.142 Y98.242 E.03652
G1 X135.111 Y98.889 E.03652
G1 X135.758 Y99.858 E.03652
G1 X135.985 Y101 E.03652
G1 X135.758 Y102.142 E.03652
G1 X135.111 Y103.111 E.03652
G1 X134.142 Y103.758 E.03652
G1 X133 Y103.985 E.03652
G1 X131.916 Y103.77 E.03464
M204 S1000
G1 X131.805 Y103.362 F10800
;WIPE_START
G1 F8640
G1 X130.889 Y103.111 E-.28181
G1 X130.242 Y102.142 E-.26896
G1 X130.065 Y101.254 E-.20923
;WIPE_END
G1 E-.04 F2100
G1 Z.6 F720
G1 X127.415 Y102 F10800
G1 Z.2 F720
G1 E.8 F2100
M204 S800
G1 F1200
G1 X126.848 Y102.848 E.03198
G1 X126 Y103.415 E.03198
G1 X125 Y103.614 E.03198
G1 X124 Y103.415 E.03198
G1 X123.152 Y102.848 E.03198
G1 X122.585 Y102 E.03198
G1 X122.386 Y101 E.03198
G1 X122.585 Y100 E.03198
G1 X123.152 Y99.152 E.03198
G1 X124 Y98.585 E.03198
G1 X125 Y98.386 E.03198
G1 X126 Y98.585 E.03198
G1 X126.848 Y99.152 E.03198
G1 X127.415 Y100 E.03198
G1 X127.614 Y101 E.03198
G1 X127.427 Y101.942 E.0301
M204 S1000
G1 X127.659 Y102.318 F10800
G1 X127.758 Y102.142
M204 S800
G1 F1200
G1 X127.111 Y103.111 E.03652
G1 X126.142 Y103.758 E.03652
M73 Q2 S42
G1 X125 Y103.985 E.03652
G1 X123.858 Y103.758 E.03652
G1 X122.889 Y103.111 E.03652
M73 P2 R42
G1 X122.242 Y102.142 E.03652
G1 X122.015 Y101 E.03652
G1 X122.242 Y99.858 E.03652
G1 X122.889 Y98.889 E.03652
G1 X123.858 Y98.242 E.03652
G1 X125 Y98.015 E.03653
G1 X126.142 Y98.242 E.03652
G1 X127.111 Y98.889 E.03652
G1 X127.758 Y99.858 E.03652
G1 X127.985 Y101 E.03652
G1 X127.77 Y102.084 E.03464
M204 S1000
G1 X127.362 Y102.195 F10800
;WIPE_START
G1 F8640
G1 X127.111 Y103.111 E-.28181
G1 X126.142 Y103.758 E-.26896
G1 X125.254 Y103.935 E-.20923
;WIPE_END
G1 E-.04 F2100
G1 Z.6 F720
G1 X119.614 Y101 F10800
G1 Z.2 F720
G1 E.8 F2100
M204 S800
G1 F1200
G1 X119.415 Y102 E.03198
G1 X118.848 Y102.848 E.03198
G1 X118 Y103.415 E.03198
G1 X117 Y103.614 E.03198
G1 X116 Y103.415 E.03198
G1 X115.152 Y102.848 E.03198
G1 X114.585 Y102 E.03198
G1 X114.386 Y101 E.03198
G1 X114.585 Y100 E.03198
G1 X115.152 Y99.152 E.03198
G1 X116 Y98.585 E.03198
G1 X117 Y98.386 E.03198
G1 X118 Y98.585 E.03198
G1 X118.848 Y99.152 E.03198
G1 X119.415 Y100 E.03198
G1 X119.602 Y100.941 E.0301
M204 S1000
G1 X119.961 Y101.2 F10800
G1 X119.985 Y101
M204 S800
G1 F1200
G1 X119.758 Y102.142 E.03652
G1 X119.111 Y103.111 E.03652
G1 X118.142 Y103.758 E.03652
G1 X117 Y103.985 E.03652
G1 X115.858 Y103.758 E.03652
G1 X114.889 Y103.111 E.03652
G1 X114.242 Y102.142 E.03652
G1 X114.015 Y101 E.03652
G1 X114.242 Y99.858 E.03652
G1 X114.889 Y98.889 E.03652
G1 X115.858 Y98.242 E.03652
G1 X117 Y98.015 E.03653
G1 X118.142 Y98.242 E.03652
G1 X119.111 Y98.889 E.03652
G1 X119.758 Y99.858 E.03652
G1 X119.974 Y100.941 E.03464
M204 S1000
G1 X119.639 Y101.2 F10800
; stop printing object Lego 88646 (x1.05).stl id:0 copy 0
; printing object Lego 88646 (x1.05).stl id:0 copy 2
;WIPE_START
G1 F8640
G1 X119.758 Y102.142 E-.28181
G1 X119.111 Y103.111 E-.26896
G1 X118.358 Y103.614 E-.20922
;WIPE_END
G1 E-.04 F2100
G1 Z.6 F720
G1 X130.085 Y86.015 F10800
G1 Z.2 F720
G1 E.8 F2100
M204 S800
;TYPE:Perimeter
G1 F1200
G1 X130.085 Y63.641 E.70153
G1 X160.459 Y63.641 E.95236
G1 X160.459 Y86.015 E.70153
G1 X130.145 Y86.015 E.95048
M204 S1000
G1 X130.462 Y85.638 F10800
M204 S800
;TYPE:External perimeter
G1 F1200
G1 X130.462 Y64.018 E.67788
G1 X160.082 Y64.018 E.92871
G1 X160.082 Y85.638 E.67788
G1 X130.522 Y85.638 E.92683
M204 S1000
G1 X130.071 Y85.722 F10800
G1 X130.059 Y86.041
M204 S800
;TYPE:Perimeter
G1 F1200
G1 X130.059 Y63.615 E.70315
G1 X160.485 Y63.615 E.95398
G1 X160.485 Y86.041 E.70315
G1 X130.119 Y86.041 E.9521
M204 S1000
G1 X129.682 Y86.418 F10800
M204 S800
;TYPE:External perimeter
M73 P2 R41
G1 F1200
G1 X129.682 Y63.238 E.72679
G1 X160.862 Y63.238 E.97763
G1 X160.862 Y86.418 E.72679
G1 X129.742 Y86.418 E.97575
M204 S1000
G1 X129.804 Y86.037 F10800
;WIPE_START
G1 F8640
G1 X129.734 Y83.127 E-.76
;WIPE_END
G1 E-.04 F2100
G1 Z.6 F720
G1 X135.424 Y80.677 F10800
G1 Z.2 F720
G1 E.8 F2100
M204 S800
G1 F1200
G1 X134.857 Y79.829 E.03198
G1 X134.658 Y78.828 E.03198
G1 X134.857 Y77.828 E.03198
G1 X135.424 Y76.98 E.03198
G1 X136.272 Y76.413 E.03198
G1 X137.272 Y76.214 E.03198
G1 X138.273 Y76.413 E.03198
G1 X139.121 Y76.98 E.03198
M73 Q3 S41
G1 X139.687 Y77.828 E.03198
G1 X139.886 Y78.828 E.03198
M73 P3 R41
G1 X139.687 Y79.829 E.03198
G1 X139.121 Y80.677 E.03198
G1 X138.273 Y81.243 E.03198
G1 X137.272 Y81.442 E.03198
G1 X136.272 Y81.243 E.03198
G1 X135.474 Y80.71 E.0301
M204 S1000
G1 X135.037 Y80.78 F10800
G1 X135.161 Y80.939
M204 S800
G1 F1200
G1 X134.514 Y79.971 E.03652
G1 X134.287 Y78.828 E.03652
G1 X134.514 Y77.686 E.03652
G1 X135.161 Y76.717 E.03652
G1 X136.13 Y76.07 E.03652
G1 X137.272 Y75.843 E.03653
G1 X138.415 Y76.07 E.03652
G1 X139.383 Y76.717 E.03652
G1 X140.03 Y77.686 E.03652
G1 X140.258 Y78.828 E.03652
G1 X140.03 Y79.971 E.03652
G1 X139.383 Y80.939 E.03652
G1 X138.415 Y81.586 E.03652
G1 X137.272 Y81.814 E.03652
G1 X136.13 Y81.586 E.03652
G1 X135.211 Y80.972 E.03464
M204 S1000
G1 X135.265 Y80.553 F10800
;WIPE_START
G1 F8640
G1 X134.514 Y79.971 E-.28181
G1 X134.287 Y78.828 E-.26896
G1 X134.464 Y77.939 E-.20922
;WIPE_END
G1 E-.04 F2100
G1 Z.6 F720
G1 X150.658 Y78.828 F10800
G1 Z.2 F720
G1 E.8 F2100
M204 S800
G1 F1200
G1 X150.857 Y77.828 E.03198
G1 X151.424 Y76.98 E.03198
G1 X152.272 Y76.413 E.03198
G1 X153.272 Y76.214 E.03198
G1 X154.273 Y76.413 E.03198
G1 X155.121 Y76.98 E.03198
G1 X155.687 Y77.828 E.03198
G1 X155.886 Y78.828 E.03198
G1 X155.687 Y79.829 E.03198
G1 X155.121 Y80.677 E.03198
G1 X154.273 Y81.243 E.03198
G1 X153.272 Y81.442 E.03198
G1 X152.272 Y81.243 E.03198
G1 X151.424 Y80.677 E.03198
G1 X150.857 Y79.829 E.03198
G1 X150.67 Y78.887 E.0301
M204 S1000
G1 X150.312 Y78.628 F10800
G1 X150.287 Y78.828
M204 S800
G1 F1200
G1 X150.514 Y77.686 E.03652
G1 X151.161 Y76.717 E.03652
G1 X152.13 Y76.07 E.03652
G1 X153.272 Y75.843 E.03653
G1 X154.415 Y76.07 E.03652
G1 X155.383 Y76.717 E.03652
G1 X156.03 Y77.686 E.03652
G1 X156.258 Y78.828 E.03652
G1 X156.03 Y79.971 E.03652
G1 X155.383 Y80.939 E.03652
G1 X154.415 Y81.586 E.03652
G1 X153.272 Y81.814 E.03652
G1 X152.13 Y81.586 E.03652
G1 X151.161 Y80.939 E.03652
G1 X150.514 Y79.971 E.03652
G1 X150.299 Y78.887 E.03464
M204 S1000
G1 X150.633 Y78.628 F10800
;WIPE_START
G1 F8640
G1 X150.514 Y77.686 E-.28181
G1 X151.161 Y76.717 E-.26896
G1 X151.915 Y76.214 E-.20922
;WIPE_END
G1 E-.04 F2100
G1 Z.6 F720
G1 X147.886 Y78.828 F10800
G1 Z.2 F720
G1 E.8 F2100
M204 S800
G1 F1200
G1 X147.687 Y79.829 E.03198
G1 X147.121 Y80.677 E.03198
G1 X146.273 Y81.243 E.03198
G1 X145.272 Y81.442 E.03198
G1 X144.272 Y81.243 E.03198
G1 X143.424 Y80.677 E.03198
G1 X142.857 Y79.829 E.03198
G1 X142.658 Y78.828 E.03198
G1 X142.857 Y77.828 E.03198
G1 X143.424 Y76.98 E.03198
G1 X144.272 Y76.413 E.03198
G1 X145.272 Y76.214 E.03198
G1 X146.273 Y76.413 E.03198
G1 X147.121 Y76.98 E.03198
G1 X147.687 Y77.828 E.03198
G1 X147.875 Y78.769 E.0301
M204 S1000
G1 X148.233 Y79.028 F10800
G1 X148.258 Y78.828
M204 S800
G1 F1200
G1 X148.03 Y79.971 E.03652
G1 X147.383 Y80.939 E.03652
G1 X146.415 Y81.586 E.03652
G1 X145.272 Y81.814 E.03652
G1 X144.13 Y81.586 E.03652
G1 X143.161 Y80.939 E.03652
G1 X142.514 Y79.971 E.03652
G1 X142.287 Y78.828 E.03652
G1 X142.514 Y77.686 E.03652
G1 X143.161 Y76.717 E.03652
G1 X144.13 Y76.07 E.03652
G1 X145.272 Y75.843 E.03653
G1 X146.415 Y76.07 E.03652
G1 X147.383 Y76.717 E.03652
G1 X148.03 Y77.686 E.03652
G1 X148.246 Y78.769 E.03464
M204 S1000
G1 X147.911 Y79.028 F10800
;WIPE_START
G1 F8640
G1 X148.03 Y79.971 E-.28181
G1 X147.383 Y80.939 E-.26896
G1 X146.63 Y81.443 E-.20922
;WIPE_END
G1 E-.04 F2100
G1 Z.6 F720
G1 X152.272 Y73.243 F10800
G1 Z.2 F720
G1 E.8 F2100
M204 S800
G1 F1200
G1 X151.424 Y72.677 E.03198
G1 X150.857 Y71.829 E.03198
G1 X150.658 Y70.828 E.03198
G1 X150.857 Y69.828 E.03198
G1 X151.424 Y68.98 E.03198
G1 X152.272 Y68.413 E.03198
G1 X153.272 Y68.214 E.03198
G1 X154.273 Y68.413 E.03198
G1 X155.121 Y68.98 E.03198
G1 X155.687 Y69.828 E.03198
G1 X155.886 Y70.828 E.03198
G1 X155.687 Y71.829 E.03198
G1 X155.121 Y72.677 E.03198
G1 X154.273 Y73.243 E.03198
G1 X153.272 Y73.442 E.03198
G1 X152.331 Y73.255 E.0301
M204 S1000
G1 X151.955 Y73.487 F10800
G1 X152.13 Y73.586
M204 S800
G1 F1200
G1 X151.161 Y72.939 E.03652
G1 X150.514 Y71.971 E.03652
G1 X150.287 Y70.828 E.03652
G1 X150.514 Y69.686 E.03652
G1 X151.161 Y68.717 E.03652
G1 X152.13 Y68.07 E.03652
